ncols         60
nrows         65
xllcorner     739300
yllcorner     4553050
cellsize      50
NODATA_value  9999.999
9999.999	9999.999	9999.999	9999.999	9999.999	9999.999	9999.999	9999.999	9999.999	9999.999	9999.999	9999.999	9999.999	9999.999	9999.999	9999.999	9999.999	9999.999	9999.999	9999.999	9999.999	9999.999	9999.999	9999.999	9999.999	9999.999	9999.999	9999.999	9999.999	9999.999	9999.999	9999.999	9999.999	9999.999	9999.999	9999.999	9999.999	9999.999	9999.999	9999.999	9999.999	9999.999	9999.999	9999.999	9999.999	9999.999	9999.999	9999.999	9999.999	9999.999	9999.999	9999.999	9999.999	9999.999	9999.999	9999.999	9999.999	9999.999	9999.999	9999.999
9999.999	9999.999	9999.999	9999.999	9999.999	9999.999	9999.999	9999.999	9999.999	9999.999	9999.999	9999.999	9999.999	9999.999	9999.999	9999.999	9999.999	9999.999	9999.999	9999.999	752.3652	9999.999	9999.999	9999.999	9999.999	9999.999	9999.999	9999.999	9999.999	9999.999	9999.999	9999.999	9999.999	9999.999	9999.999	9999.999	9999.999	9999.999	9999.999	9999.999	9999.999	9999.999	9999.999	9999.999	9999.999	9999.999	9999.999	9999.999	9999.999	9999.999	9999.999	9999.999	9999.999	9999.999	9999.999	9999.999	9999.999	9999.999	9999.999	9999.999
9999.999	9999.999	732.24005	733.5223	734.64954	735.31366	735.7794	736.04364	9999.999	9999.999	9999.999	9999.999	9999.999	9999.999	9999.999	9999.999	9999.999	9999.999	9999.999	752.19696	752.302	752.35065	9999.999	9999.999	9999.999	9999.999	9999.999	9999.999	9999.999	9999.999	9999.999	9999.999	9999.999	9999.999	9999.999	9999.999	9999.999	9999.999	9999.999	9999.999	9999.999	9999.999	9999.999	9999.999	9999.999	9999.999	9999.999	9999.999	9999.999	9999.999	9999.999	9999.999	9999.999	9999.999	9999.999	9999.999	9999.999	9999.999	9999.999	9999.999
9999.999	731.8521	733.0131	733.8527	734.8368	735.49725	735.9896	736.33264	736.6566	9999.999	9999.999	9999.999	9999.999	9999.999	9999.999	9999.999	751.1997	751.4247	751.7189	752.03925	752.23376	752.3367	9999.999	9999.999	9999.999	9999.999	9999.999	9999.999	9999.999	9999.999	9999.999	9999.999	9999.999	9999.999	9999.999	9999.999	9999.999	9999.999	9999.999	9999.999	9999.999	9999.999	9999.999	9999.999	9999.999	9999.999	9999.999	9999.999	9999.999	9999.999	9999.999	9999.999	9999.999	9999.999	9999.999	9999.999	9999.999	9999.999	9999.999	9999.999
731.19525	732.5824	733.5558	734.2349	735.1579	735.8463	736.3982	736.8445	737.3127	9999.999	9999.999	9999.999	9999.999	9999.999	750.1035	750.4329	750.9222	751.29987	751.64813	751.962	752.2005	752.3649	752.47614	9999.999	9999.999	9999.999	9999.999	9999.999	9999.999	9999.999	9999.999	9999.999	9999.999	9999.999	9999.999	9999.999	9999.999	9999.999	9999.999	9999.999	9999.999	9999.999	9999.999	9999.999	9999.999	9999.999	9999.999	9999.999	9999.999	9999.999	9999.999	9999.999	9999.999	9999.999	9999.999	9999.999	9999.999	9999.999	9999.999	9999.999
731.40314	733.0003	733.98395	734.6452	735.607	736.4022	737.1423	738.45984	740.4743	743.9282	745.1053	745.85645	747.1332	748.4102	749.619	750.1932	750.7144	751.16626	751.5693	751.9158	752.1894	752.3893	752.5279	752.6168	9999.999	9999.999	9999.999	9999.999	9999.999	9999.999	9999.999	9999.999	9999.999	9999.999	9999.999	9999.999	9999.999	9999.999	9999.999	9999.999	9999.999	9999.999	9999.999	9999.999	9999.999	9999.999	9999.999	9999.999	9999.999	9999.999	9999.999	9999.999	9999.999	9999.999	9999.999	9999.999	9999.999	9999.999	9999.999	9999.999
731.6738	733.39764	734.4286	735.10956	736.1398	737.07465	738.05975	739.32275	741.3552	743.5622	745.0736	745.9629	747.00006	748.0695	749.14	749.89825	750.51807	751.0419	751.49817	751.8848	752.19415	752.4209	752.5699	752.6448	9999.999	9999.999	9999.999	9999.999	9999.999	9999.999	9999.999	9999.999	9999.999	9999.999	9999.999	9999.999	9999.999	9999.999	9999.999	9999.999	9999.999	9999.999	9999.999	9999.999	9999.999	9999.999	9999.999	9999.999	9999.999	9999.999	9999.999	9999.999	9999.999	9999.999	9999.999	9999.999	9999.999	9999.999	9999.999	9999.999
731.9227	733.9204	734.97235	735.6424	736.69366	737.71906	738.85895	740.1888	741.86584	743.459	744.8365	745.9029	746.93384	747.9366	748.8936	749.6864	750.3675	750.9496	751.4551	751.88153	752.2254	752.47473	752.62756	752.68854	9999.999	9999.999	9999.999	9999.999	9999.999	9999.999	9999.999	9999.999	9999.999	9999.999	9999.999	9999.999	9999.999	9999.999	9999.999	9999.999	9999.999	9999.999	9999.999	9999.999	9999.999	9999.999	9999.999	9999.999	9999.999	9999.999	9999.999	9999.999	9999.999	9999.999	9999.999	9999.999	9999.999	9999.999	9999.999	9999.999
9999.999	734.91943	735.70306	736.25006	737.2365	738.27216	739.4434	740.72235	742.14624	743.5168	744.77484	745.87683	746.9104	747.8771	748.78357	749.57886	750.289	750.9075	751.4514	751.9171	752.2951	752.56647	752.71857	752.7333	9999.999	9999.999	9999.999	9999.999	9999.999	9999.999	9999.999	9999.999	9999.999	9999.999	9999.999	9999.999	9999.999	9999.999	9999.999	9999.999	9999.999	9999.999	9999.999	9999.999	9999.999	9999.999	9999.999	9999.999	9999.999	9999.999	9999.999	9999.999	9999.999	9999.999	9999.999	9999.999	9999.999	9999.999	9999.999	9999.999
9999.999	9999.999	736.5761	736.8775	737.74164	738.75183	739.925	741.12054	742.3782	743.62134	744.8094	745.9117	746.9509	747.8929	748.7663	749.5564	750.2739	750.9149	751.4939	752.0004	752.4159	752.7212	752.8907	9999.999	9999.999	9999.999	9999.999	9999.999	9999.999	9999.999	9999.999	9999.999	9999.999	9999.999	9999.999	9999.999	9999.999	9999.999	9999.999	9999.999	9999.999	9999.999	9999.999	9999.999	9999.999	9999.999	9999.999	9999.999	9999.999	9999.999	9999.999	9999.999	9999.999	9999.999	9999.999	9999.999	9999.999	9999.999	9999.999	9999.999
9999.999	9999.999	737.1261	737.3741	738.1433	739.1674	740.41425	741.49255	742.60065	743.73956	744.89185	746.0117	747.06146	747.9849	748.8242	749.5936	750.30914	750.9692	751.57886	752.12445	752.59216	752.95447	753.1738	9999.999	9999.999	9999.999	9999.999	9999.999	9999.999	9999.999	9999.999	9999.999	9999.999	9999.999	9999.999	9999.999	9999.999	9999.999	9999.999	9999.999	9999.999	9999.999	9999.999	9999.999	9999.999	9999.999	9999.999	9999.999	9999.999	9999.999	9999.999	9999.999	9999.999	9999.999	9999.999	9999.999	9999.999	9999.999	9999.999	9999.999
9999.999	9999.999	737.43365	737.76166	738.4933	739.7579	741.05286	741.87195	742.7925	743.8168	745.0026	746.18835	747.2849	748.15375	748.9434	749.6835	750.3882	751.05194	751.681	752.274	752.81256	753.278	753.6134	9999.999	9999.999	9999.999	9999.999	9999.999	9999.999	9999.999	9999.999	9999.999	9999.999	9999.999	9999.999	9999.999	9999.999	9999.999	9999.999	9999.999	9999.999	9999.999	9999.999	9999.999	9999.999	9999.999	9999.999	9999.999	9999.999	9999.999	9999.999	9999.999	9999.999	9999.999	9999.999	9999.999	9999.999	9999.999	9999.999	9999.999
9999.999	9999.999	9999.999	738.6095	739.01086	740.0537	741.4477	742.1419	742.91986	743.74725	745.26135	746.7105	747.6859	748.3857	749.09955	749.79663	750.4675	751.12103	751.7768	752.42487	753.05896	753.6859	754.3256	755.08936	9999.999	9999.999	9999.999	9999.999	760.4117	9999.999	9999.999	9999.999	9999.999	9999.999	9999.999	9999.999	9999.999	9999.999	9999.999	9999.999	9999.999	9999.999	9999.999	9999.999	9999.999	9999.999	9999.999	9999.999	9999.999	9999.999	9999.999	9999.999	9999.999	9999.999	9999.999	9999.999	9999.999	9999.999	9999.999	9999.999
9999.999	9999.999	9999.999	739.2633	739.57623	740.4936	741.76776	742.4375	742.9637	743.60913	745.5291	747.0648	747.8429	748.52924	749.22845	749.8667	750.5005	751.15906	751.85315	752.5602	753.29	754.0423	754.8489	755.791	757.0179	758.034	758.90894	759.6821	760.37006	760.90424	761.2516	9999.999	9999.999	9999.999	9999.999	9999.999	9999.999	9999.999	9999.999	9999.999	9999.999	9999.999	9999.999	9999.999	9999.999	9999.999	9999.999	9999.999	9999.999	9999.999	9999.999	9999.999	9999.999	9999.999	9999.999	9999.999	9999.999	9999.999	9999.999	9999.999
9999.999	9999.999	9999.999	739.84265	740.1303	741.0285	741.995	742.7771	743.2495	744.08234	745.676	746.9899	747.8141	748.6125	749.3015	749.86017	750.48193	751.1586	751.8979	752.6635	753.4637	754.2852	755.1688	756.1274	757.1503	758.0957	758.9541	759.73444	760.44446	761.0492	761.5513	761.99896	9999.999	9999.999	9999.999	9999.999	9999.999	9999.999	9999.999	9999.999	9999.999	9999.999	9999.999	9999.999	9999.999	9999.999	9999.999	9999.999	9999.999	9999.999	9999.999	9999.999	9999.999	9999.999	9999.999	9999.999	9999.999	9999.999	9999.999	9999.999
9999.999	9999.999	9999.999	740.37177	740.6365	741.503	742.4439	743.2848	743.81085	744.4523	745.61975	746.7033	747.66956	748.48987	749.1167	749.72876	750.3917	751.10626	751.89795	752.7132	753.5482	754.41516	755.3511	756.3115	757.26044	758.1632	759.02545	759.83386	760.58746	761.26324	761.8673	762.4012	762.8699	9999.999	9999.999	9999.999	9999.999	9999.999	9999.999	9999.999	9999.999	9999.999	9999.999	9999.999	9999.999	9999.999	9999.999	9999.999	9999.999	9999.999	9999.999	9999.999	9999.999	9999.999	9999.999	9999.999	9999.999	9999.999	9999.999	9999.999
9999.999	9999.999	9999.999	740.8803	741.11334	741.894	742.7837	743.6243	744.2288	744.78546	745.58795	746.3443	747.4039	748.17303	748.8584	749.53613	750.23737	750.98474	751.81384	752.6737	753.55286	754.4708	755.4353	756.38837	757.3243	758.23193	759.12286	759.973	760.7844	761.53503	762.22485	762.8322	763.2899	9999.999	9999.999	9999.999	9999.999	9999.999	9999.999	774.56964	774.709	774.91455	775.13257	775.2945	9999.999	9999.999	9999.999	9999.999	9999.999	9999.999	9999.999	9999.999	9999.999	9999.999	9999.999	9999.999	9999.999	9999.999	9999.999	9999.999
9999.999	9999.999	9999.999	741.41907	741.6009	742.3556	743.19434	744.0323	744.567	745.0547	745.598	746.10895	747.0378	747.8793	748.62006	749.3336	750.0193	750.7445	751.63525	752.5684	753.50977	754.46106	755.42523	756.3897	757.36206	758.3147	759.24976	760.145	761.0217	761.8483	762.62933	763.3669	764.08636	764.9072	9999.999	9999.999	9999.999	9999.999	9999.999	774.38617	774.60297	774.8725	775.14935	775.3601	9999.999	9999.999	9999.999	9999.999	9999.999	9999.999	9999.999	9999.999	9999.999	9999.999	9999.999	9999.999	9999.999	9999.999	9999.999	9999.999
9999.999	9999.999	9999.999	741.9811	742.22577	742.9964	743.82855	744.629	745.05524	745.4899	745.9691	746.50476	747.0794	747.8043	748.48804	749.1619	749.77155	750.3754	751.43964	752.45636	753.4145	754.34204	755.3338	756.36475	757.40686	758.41614	759.40106	760.34735	761.27716	762.16064	762.99915	763.84045	764.70795	765.63306	766.5962	9999.999	9999.999	9999.999	773.38104	773.9514	774.4081	774.81586	775.2112	775.5507	9999.999	9999.999	9999.999	9999.999	9999.999	9999.999	9999.999	9999.999	9999.999	9999.999	9999.999	9999.999	9999.999	9999.999	9999.999	9999.999
9999.999	9999.999	9999.999	742.44946	742.9483	743.5365	744.3463	745.027	745.45557	745.91693	746.4245	746.98425	747.4255	747.99835	748.5643	749.20667	749.7573	750.2814	751.3142	752.2742	753.2273	754.10034	755.19403	756.3395	757.4801	758.5532	759.581	760.56195	761.49646	762.41016	763.32184	764.259	765.25214	766.30255	767.46674	768.9933	770.32135	771.5483	772.78516	773.60645	774.2494	774.7968	775.366	776.08704	776.6967	9999.999	9999.999	9999.999	9999.999	9999.999	9999.999	9999.999	9999.999	9999.999	9999.999	9999.999	9999.999	9999.999	9999.999	9999.999
9999.999	9999.999	9999.999	9999.999	743.6895	744.0873	744.69385	745.25024	745.75574	746.2919	746.8616	747.4431	748.00055	748.5598	749.1069	749.716	750.1565	750.66	751.3214	751.94244	752.7501	753.6444	755.01465	756.3364	757.6148	758.7418	759.76874	760.73846	761.692	762.6392	763.60455	764.60815	765.6708	766.7776	767.9447	769.1911	770.398	771.5345	772.5918	773.4564	774.19037	774.8449	775.546	776.3716	777.0515	777.70074	778.10876	778.37225	778.5008	9999.999	9999.999	9999.999	9999.999	9999.999	9999.999	9999.999	9999.999	9999.999	9999.999	9999.999
9999.999	9999.999	9999.999	9999.999	744.0775	744.469	744.93024	745.44006	745.99677	746.61884	747.3084	747.97375	748.622	749.2224	749.76385	750.2987	750.63586	751.0672	751.5608	752.05066	752.6519	753.5702	755.00745	756.45917	757.8776	758.96594	759.95526	760.91693	761.8769	762.8436	763.8423	764.88635	765.9903	767.123	768.26654	769.40857	770.53174	771.5975	772.5934	773.46466	774.24115	774.959	775.71576	776.5315	777.1999	777.7493	778.1398	778.4031	778.5436	9999.999	9999.999	9999.999	9999.999	9999.999	9999.999	9999.999	9999.999	9999.999	9999.999	9999.999
9999.999	9999.999	9999.999	9999.999	9999.999	744.783	745.09406	745.5648	746.1501	746.86084	747.77936	748.5228	749.29083	749.9344	750.4628	750.9444	751.35626	751.75854	752.15784	752.5778	753.04596	753.95013	755.45734	756.9643	758.2892	759.2132	760.1573	761.10126	762.0508	763.01654	764.02386	765.086	766.2268	767.3799	768.50525	769.59357	770.66644	771.72046	772.7071	773.5852	774.3855	775.1275	775.8846	776.6625	777.3063	777.8134	778.193	778.46484	778.6428	778.77045	9999.999	9999.999	9999.999	9999.999	9999.999	9999.999	9999.999	9999.999	9999.999	9999.999
9999.999	9999.999	9999.999	9999.999	9999.999	9999.999	9999.999	9999.999	9999.999	9999.999	748.4156	749.0219	750.0608	750.7225	751.249	751.7195	752.13367	752.50635	752.84155	753.19385	753.59247	754.4	755.82544	757.25385	758.39435	759.36633	760.34454	761.2824	762.2166	763.15784	764.14557	765.2037	766.3974	767.59186	768.6961	769.7316	770.776	771.8632	772.9154	773.80774	774.5974	775.3336	776.06775	776.78156	777.3941	777.88385	778.25995	778.5358	778.71106	778.8182	778.8601	9999.999	9999.999	9999.999	9999.999	9999.999	9999.999	9999.999	9999.999	9999.999
9999.999	9999.999	9999.999	9999.999	9999.999	9999.999	9999.999	9999.999	9999.999	9999.999	9999.999	9999.999	751.1654	751.6103	752.1028	752.57117	752.96924	753.29877	753.56287	753.8018	754.1185	754.9556	756.3207	757.59674	758.5524	759.5318	760.566	761.4641	762.3576	763.2555	764.1854	765.2125	766.53796	767.8308	768.86615	769.8051	770.8104	772.0403	773.23096	774.11615	774.86926	775.56696	776.26	776.91895	777.4996	777.97656	778.3531	778.6277	778.7427	778.81775	778.8774	9999.999	9999.999	9999.999	9999.999	9999.999	9999.999	9999.999	9999.999	9999.999
9999.999	9999.999	9999.999	9999.999	9999.999	9999.999	9999.999	9999.999	9999.999	9999.999	9999.999	9999.999	751.807	752.4203	752.9898	753.4742	753.8661	754.1677	754.37286	754.5126	754.74384	755.55023	756.7027	757.6254	758.6474	759.81366	760.8348	761.6324	762.47644	763.31995	764.1577	765.0771	766.92725	768.2189	769.0395	769.806	770.74945	772.5497	773.7895	774.50366	775.1719	775.82074	776.46063	777.0755	777.6419	778.11847	778.4766	778.70557	778.78253	778.8286	9999.999	9999.999	9999.999	9999.999	9999.999	9999.999	9999.999	9999.999	9999.999	9999.999
9999.999	9999.999	9999.999	9999.999	9999.999	9999.999	9999.999	9999.999	9999.999	9999.999	9999.999	9999.999	9999.999	753.21704	753.9582	754.4633	754.8482	755.12463	755.28534	755.3487	755.4906	756.20215	756.93835	757.58185	758.6849	759.7449	760.6996	761.6324	762.5966	763.3912	764.28864	765.5246	767.0341	768.3308	769.12866	769.85815	771.3477	772.9619	774.1562	774.77997	775.3878	776.01117	776.6491	777.26337	777.8284	778.32544	778.5823	778.7582	778.8519	778.8788	9999.999	9999.999	9999.999	9999.999	9999.999	9999.999	9999.999	9999.999	9999.999	9999.999
9999.999	9999.999	9999.999	9999.999	9999.999	9999.999	9999.999	9999.999	9999.999	9999.999	9999.999	9999.999	9999.999	9999.999	755.16986	755.5723	755.934	756.17847	756.3127	756.3677	756.4106	756.83344	757.2204	757.69147	758.8328	759.59326	760.5867	761.49384	762.4693	763.37695	764.04626	765.6201	767.2164	768.3463	769.095	770.3357	771.68726	773.1353	774.2826	774.89124	775.49817	776.1398	776.8129	777.4687	778.0373	778.5081	778.74194	778.9076	778.91705	9999.999	9999.999	9999.999	9999.999	9999.999	9999.999	9999.999	9999.999	9999.999	9999.999	9999.999
9999.999	9999.999	9999.999	9999.999	9999.999	9999.999	9999.999	9999.999	9999.999	9999.999	9999.999	9999.999	9999.999	9999.999	755.9612	756.70874	757.09	757.29913	757.4107	757.47375	757.54346	757.8037	758.013	758.28125	758.99603	759.71326	760.55676	761.2032	762.17285	763.2462	764.18384	765.60315	767.3638	768.22327	769.3427	770.5496	771.772	773.0738	774.16473	774.8423	775.5154	776.21674	776.9566	777.71576	778.1747	778.6037	778.9476	779.2008	9999.999	9999.999	9999.999	9999.999	9999.999	9999.999	9999.999	9999.999	9999.999	9999.999	9999.999	9999.999
9999.999	9999.999	9999.999	9999.999	9999.999	9999.999	9999.999	9999.999	9999.999	9999.999	9999.999	9999.999	9999.999	9999.999	9999.999	758.2231	758.3573	758.4665	758.54205	758.6152	758.70685	758.88666	759.0793	759.33685	759.6565	760.1636	760.71985	761.1096	761.6039	762.8095	763.82465	764.66156	766.75507	768.0936	769.36127	770.65063	771.63617	772.6994	773.8029	774.67413	775.4758	776.2571	777.0548	777.8643	778.319	778.7721	779.2418	779.75183	780.9157	781.7012	782.2427	782.60315	782.7896	9999.999	9999.999	9999.999	9999.999	9999.999	9999.999	9999.999
9999.999	9999.999	9999.999	9999.999	9999.999	9999.999	9999.999	9999.999	9999.999	9999.999	9999.999	9999.999	9999.999	9999.999	9999.999	759.56915	759.5998	759.62415	759.6684	759.7335	759.82776	759.9821	760.165	760.4	760.6883	761.05524	761.4342	761.75305	762.0968	762.69666	763.5761	764.4099	766.3711	767.91693	769.04706	770.2729	771.4149	772.51587	773.6014	774.5669	775.45624	776.30347	777.133	777.97375	778.4549	778.9348	779.704	780.4121	781.19336	781.8446	782.35297	782.7137	782.91125	9999.999	9999.999	9999.999	9999.999	9999.999	9999.999	9999.999
9999.999	9999.999	9999.999	9999.999	9999.999	9999.999	9999.999	9999.999	9999.999	9999.999	9999.999	9999.999	9999.999	9999.999	9999.999	760.8522	760.7824	760.7539	760.77094	760.8247	760.9165	761.0637	761.25525	761.49005	761.75555	762.05756	762.35547	762.61707	762.8642	763.31903	763.9767	764.6708	765.9933	767.4303	768.6887	769.90784	771.18195	772.3853	773.52795	774.5561	775.51	776.39185	777.2102	778.0395	778.5943	779.1555	780.05444	780.7932	781.45654	782.04285	782.54193	782.92334	783.16797	9999.999	9999.999	9999.999	9999.999	9999.999	9999.999	9999.999
9999.999	9999.999	9999.999	9999.999	9999.999	9999.999	9999.999	9999.999	9999.999	9999.999	9999.999	9999.999	9999.999	9999.999	762.80334	762.16547	761.9193	761.83154	761.8259	761.8744	761.9751	762.1223	762.32294	762.55975	762.81995	763.0927	763.35693	763.53174	763.66974	764.07086	764.6022	765.2398	766.1106	767.2332	768.44464	769.56134	771.04034	772.3515	773.55804	774.6374	775.6213	776.5951	777.2665	777.9269	778.8235	779.61176	780.37714	781.06824	781.69214	782.2631	782.7765	783.2218	783.63916	784.13184	9999.999	9999.999	9999.999	9999.999	9999.999	9999.999
9999.999	9999.999	9999.999	9999.999	9999.999	9999.999	9999.999	9999.999	9999.999	9999.999	9999.999	9999.999	9999.999	763.86273	763.454	763.0963	762.90594	762.8308	762.8326	762.89087	763.006	763.165	763.36993	763.6144	763.8805	764.15155	764.46356	764.5883	764.60785	764.8823	765.26135	765.8108	766.48785	767.32294	768.5101	769.6342	771.1504	772.4886	773.7023	774.77374	775.7204	776.66125	777.35333	778.034	779.0305	779.8603	780.60333	781.27905	781.9053	782.4843	783.02783	783.5234	783.99536	784.4552	784.8474	9999.999	9999.999	9999.999	9999.999	9999.999
9999.999	9999.999	9999.999	9999.999	9999.999	9999.999	9999.999	9999.999	9999.999	9999.999	9999.999	9999.999	764.4841	764.2627	764.045	763.8637	763.7649	763.7402	763.776	763.8592	763.99536	764.1744	764.3914	764.6418	764.91174	765.13214	765.2576	765.35504	765.45184	765.6849	766.1788	766.7257	767.3114	767.9551	769.049	770.2205	771.5192	772.7759	773.9362	775.0366	775.7949	776.5369	777.518	778.3806	779.2447	780.04645	780.787	781.4733	782.12115	782.7254	783.2914	783.8101	784.3023	784.75806	785.17035	785.58075	785.7736	9999.999	9999.999	9999.999
9999.999	9999.999	9999.999	9999.999	9999.999	9999.999	9999.999	9999.999	9999.999	9999.999	9999.999	9999.999	764.67993	764.63965	764.5885	764.54663	764.54016	764.57776	764.65796	764.77734	764.94086	765.1429	765.3767	765.6306	765.9437	766.08594	766.07	766.13477	766.21063	766.46436	767.0888	767.66034	768.2271	768.8308	769.76337	770.8214	771.9689	773.1334	774.18024	775.1731	775.90344	776.6413	777.69794	778.595	779.42914	780.2251	780.9833	781.6902	782.35876	782.9873	783.57495	784.10767	784.59784	785.04065	785.42676	785.7394	785.90875	9999.999	9999.999	9999.999
9999.999	9999.999	9999.999	9999.999	9999.999	9999.999	9999.999	9999.999	9999.999	9999.999	9999.999	764.91614	764.87756	764.9987	765.10425	765.178	765.2607	765.3619	765.4869	765.6445	765.8411	766.0664	766.31323	766.5296	766.6516	766.74335	766.79675	766.9084	767.183	767.5558	768.0666	768.596	769.1184	769.6544	770.4259	771.3566	772.38354	773.54114	774.3552	775.1316	776.0818	776.9802	777.9282	778.80994	779.64264	780.4425	781.211	781.9345	782.62317	783.2706	783.86884	784.4077	784.89655	785.3312	785.70105	785.98645	786.15027	9999.999	9999.999	9999.999
9999.999	9999.999	9999.999	9999.999	9999.999	9999.999	9999.999	9999.999	9999.999	9999.999	9999.999	9999.999	9999.999	765.3359	765.63245	765.79565	765.9487	766.11176	766.2849	766.48334	766.7072	766.9468	767.2319	767.3708	767.3657	767.42004	767.4585	767.6243	768.0817	768.51825	769.00916	769.5177	770.0186	770.5057	771.0406	771.83185	772.7178	773.82404	774.5768	775.304	776.32776	777.28424	778.2155	779.08844	779.9152	780.7071	781.4831	782.218	782.92	783.57794	784.1811	784.7226	785.2092	785.638	786.0054	786.2897	786.44824	9999.999	9999.999	9999.999
9999.999	9999.999	9999.999	9999.999	9999.999	9999.999	9999.999	9999.999	9999.999	9999.999	9999.999	9999.999	9999.999	9999.999	766.2717	766.4079	766.6125	766.8279	767.04474	767.27563	767.5157	767.72504	767.84924	767.9459	768.0043	768.10175	768.323	768.60925	769.0042	769.44147	769.9239	770.4233	770.9243	771.4272	771.95984	772.6505	773.255	774.0754	774.85736	775.59	776.6573	777.6365	778.55994	779.4246	780.2404	781.02325	781.7924	782.53864	783.2546	783.9165	784.5195	785.0542	785.53204	785.9572	786.32983	786.61273	786.78375	9999.999	9999.999	9999.999
9999.999	9999.999	9999.999	9999.999	9999.999	9999.999	9999.999	9999.999	9999.999	9999.999	9999.999	9999.999	9999.999	9999.999	766.75665	766.93225	767.2424	767.51996	767.7739	768.026	768.3046	768.4538	768.4721	768.54095	768.5907	768.74243	769.13794	769.50287	769.9013	770.34106	770.81885	771.31213	771.81915	772.3254	772.84485	773.4267	773.88684	774.5502	775.2532	775.98737	777.0984	778.069	778.97845	779.8229	780.6251	781.3964	782.16455	782.91064	783.6453	784.29736	784.8812	785.39856	785.86096	786.27673	786.6451	786.93665	787.1701	787.42694	9999.999	9999.999
9999.999	9999.999	9999.999	9999.999	9999.999	9999.999	9999.999	9999.999	9999.999	9999.999	9999.999	9999.999	9999.999	9999.999	767.0419	767.2965	767.8783	768.20056	768.46704	768.6946	768.8295	768.94434	769.0266	769.1386	769.35785	769.6212	769.9789	770.36224	770.7665	771.20636	771.6862	772.1825	772.69025	773.1967	773.71124	774.23596	774.6161	775.1242	775.9353	776.77075	777.6967	778.5914	779.45844	780.27704	781.0597	781.8232	782.59015	783.32574	784.0543	784.69104	785.25214	785.744	786.18274	786.58374	786.9256	787.1991	787.407	787.55054	9999.999	9999.999
9999.999	9999.999	9999.999	9999.999	9999.999	9999.999	9999.999	9999.999	9999.999	9999.999	9999.999	9999.999	9999.999	9999.999	9999.999	9999.999	768.72626	768.89703	769.1471	769.30676	769.35425	769.4509	769.5356	769.6999	770.072	770.4075	770.76965	771.1676	771.5951	772.04626	772.52374	773.0272	773.5434	774.05853	774.60236	775.04944	775.3042	775.7676	776.66504	777.49274	778.3365	779.16406	779.98065	780.76825	781.5391	782.2927	783.04346	783.7777	784.4929	785.1063	785.63556	786.0893	786.48785	786.8523	787.16113	787.4036	787.5799	787.6818	9999.999	9999.999
9999.999	9999.999	9999.999	9999.999	9999.999	9999.999	9999.999	9999.999	9999.999	9999.999	9999.999	9999.999	9999.999	9999.999	9999.999	9999.999	769.3615	769.4645	769.5671	769.69196	769.81024	769.9515	770.20044	770.47595	770.80334	771.1544	771.5337	771.9404	772.38367	772.8489	773.3367	773.84814	774.3688	774.87177	775.2238	775.5978	776.1274	776.7131	777.4568	778.21826	778.9923	779.7616	780.5357	781.29156	782.0428	782.7873	783.528	784.2392	784.9178	785.5016	786.007	786.4254	786.77	787.07275	787.338	787.53534	787.6782	787.7607	9999.999	9999.999
9999.999	9999.999	9999.999	9999.999	9999.999	9999.999	9999.999	9999.999	9999.999	9999.999	9999.999	9999.999	9999.999	9999.999	9999.999	9999.999	769.85394	769.9122	769.9411	770.0635	770.224	770.42114	770.81036	771.1493	771.4985	771.8677	772.2676	772.69006	773.1416	773.6222	774.1348	774.6597	775.20605	775.6242	775.83746	776.21094	776.92847	777.58014	778.2449	778.93823	779.6591	780.381	781.10913	781.83765	782.57086	783.29565	783.9998	784.67065	785.30597	785.859	786.3352	786.7219	787.0286	787.261	787.4541	787.5732	9999.999	9999.999	9999.999	9999.999
9999.999	9999.999	9999.999	9999.999	9999.999	9999.999	9999.999	9999.999	9999.999	9999.999	9999.999	9999.999	9999.999	9999.999	9999.999	9999.999	770.07947	770.1546	770.3685	770.5783	770.8135	771.0957	771.4471	771.8016	772.1666	772.5495	772.9635	773.40204	773.8673	774.3642	774.8973	775.4263	775.78406	776.1321	776.6021	777.13995	777.77637	778.4027	779.016	779.6521	780.3163	780.99396	781.68207	782.38025	783.0951	783.78406	784.4493	785.07166	785.6558	786.1712	786.61273	786.96936	787.2392	787.4118	787.5137	9999.999	9999.999	9999.999	9999.999	9999.999
9999.999	9999.999	9999.999	9999.999	9999.999	9999.999	9999.999	9999.999	9999.999	9999.999	9999.999	9999.999	9999.999	9999.999	9999.999	9999.999	770.20984	770.32196	770.7511	771.03485	771.3433	771.70123	772.0827	772.4485	772.82214	773.21716	773.6385	774.0855	774.5699	775.09143	775.657	776.1187	776.37714	776.71796	777.3313	777.96375	778.58826	779.1861	779.76556	780.3456	780.9563	781.58435	782.2343	782.89636	783.5828	784.23505	784.8557	785.42737	785.9566	786.4319	786.84076	787.17017	787.4133	787.55383	787.6012	9999.999	9999.999	9999.999	9999.999	9999.999
9999.999	9999.999	9999.999	9999.999	9999.999	9999.999	9999.999	9999.999	9999.999	9999.999	9999.999	9999.999	9999.999	9999.999	9999.999	9999.999	9999.999	9999.999	771.2409	771.4563	771.8162	772.2854	772.70557	773.0828	773.46423	773.8642	774.28827	774.7376	775.23474	775.77716	776.16895	776.55383	776.9019	777.3011	778.0341	778.7233	779.3432	779.9214	780.4689	781.0124	781.5726	782.15204	782.7546	783.3763	784.02466	784.63367	785.2039	785.72565	786.21106	786.64923	787.02747	787.3296	787.54553	787.6575	787.66565	9999.999	9999.999	9999.999	9999.999	9999.999
9999.999	9999.999	9999.999	9999.999	9999.999	9999.999	9999.999	9999.999	9999.999	9999.999	9999.999	9999.999	9999.999	9999.999	9999.999	9999.999	9999.999	9999.999	771.4948	771.71606	772.1613	772.8881	773.34204	773.7237	774.1099	774.5091	774.9281	775.37524	775.86127	776.3697	776.6974	777.0485	777.41693	777.88885	778.75916	779.47217	780.07837	780.6253	781.1351	781.6347	782.1503	782.68524	783.2403	783.8161	784.4093	784.97034	785.49567	785.97473	786.42584	786.82697	787.1761	787.4505	787.6358	787.7247	9999.999	9999.999	9999.999	9999.999	9999.999	9999.999
9999.999	9999.999	9999.999	9999.999	9999.999	9999.999	9999.999	9999.999	9999.999	9999.999	9999.999	9999.999	9999.999	9999.999	9999.999	9999.999	9999.999	9999.999	9999.999	9999.999	9999.999	773.7135	774.0155	774.3639	774.74506	775.1412	775.552	775.99695	776.47174	776.9345	777.22723	777.57666	778.20654	778.8834	779.6039	780.24677	780.8021	781.30396	781.7702	782.22687	782.6999	783.18665	783.6913	784.2124	784.74207	785.2614	785.74457	786.1842	786.599	786.9658	787.28436	787.5244	787.67664	787.74097	9999.999	9999.999	9999.999	9999.999	9999.999	9999.999
9999.999	9999.999	9999.999	9999.999	9999.999	9999.999	9999.999	9999.999	9999.999	9999.999	9999.999	9999.999	9999.999	9999.999	9999.999	9999.999	9999.999	9999.999	9999.999	9999.999	9999.999	774.20264	774.6431	774.9918	775.36505	775.75653	776.17365	776.6288	777.124	777.5281	777.76807	778.18756	779.092	779.8385	780.47437	781.0336	781.5185	781.96454	782.37836	782.79236	783.2236	783.6641	784.11664	784.5781	785.04816	785.5138	785.9549	786.3551	786.72815	787.0623	787.3441	787.5445	787.6694	787.73975	9999.999	9999.999	9999.999	9999.999	9999.999	9999.999
9999.999	9999.999	9999.999	9999.999	9999.999	9999.999	9999.999	9999.999	9999.999	9999.999	9999.999	9999.999	9999.999	9999.999	9999.999	9999.999	9999.999	9999.999	9999.999	9999.999	9999.999	9999.999	775.33545	775.5976	775.9558	776.3543	776.79285	777.2507	777.5724	777.93726	778.5949	779.3514	780.13336	780.7867	781.32513	781.7992	782.20807	782.58594	782.9548	783.3278	783.72174	784.11975	784.5154	784.91833	785.3282	785.72955	786.12506	786.4831	786.81177	787.10583	787.34656	787.50354	787.596	9999.999	9999.999	9999.999	9999.999	9999.999	9999.999	9999.999
9999.999	9999.999	9999.999	9999.999	9999.999	9999.999	9999.999	9999.999	9999.999	9999.999	9999.999	9999.999	9999.999	9999.999	9999.999	9999.999	9999.999	9999.999	9999.999	9999.999	9999.999	9999.999	775.7452	776.1153	776.5184	776.9572	777.4373	777.8261	778.0596	778.49756	779.68463	780.5941	781.21173	781.7157	782.14075	782.5231	782.85895	783.18555	783.5168	783.849	784.19934	784.5494	784.8908	785.2395	785.58905	785.9308	786.26526	786.5702	786.8525	787.1045	787.3059	787.4487	787.55005	9999.999	9999.999	9999.999	9999.999	9999.999	9999.999	9999.999
9999.999	9999.999	9999.999	9999.999	9999.999	9999.999	9999.999	9999.999	9999.999	9999.999	9999.999	9999.999	9999.999	9999.999	9999.999	9999.999	9999.999	9999.999	9999.999	9999.999	9999.999	9999.999	9999.999	776.58984	777.0451	777.52673	777.84204	778.19977	778.8733	779.7809	781.0015	781.70514	782.1733	782.5559	782.8954	783.2013	783.47174	783.75665	784.04095	784.3363	784.6432	784.9474	785.239	785.5368	785.83563	786.1247	786.4042	786.66064	786.89484	787.0993	787.2608	787.3805	9999.999	9999.999	9999.999	9999.999	9999.999	9999.999	9999.999	9999.999
9999.999	9999.999	9999.999	9999.999	9999.999	9999.999	9999.999	9999.999	9999.999	9999.999	9999.999	9999.999	9999.999	9999.999	9999.999	9999.999	9999.999	9999.999	9999.999	9999.999	9999.999	9999.999	9999.999	9999.999	777.54065	777.9995	778.24304	778.6836	779.8992	781.2306	782.11053	782.6569	783.01685	783.3153	783.586	783.82587	784.0566	784.29755	784.54266	784.8013	785.06134	785.3174	785.5644	785.81555	786.06995	786.31177	786.5422	786.75336	786.9396	787.09235	787.20465	9999.999	9999.999	9999.999	9999.999	9999.999	9999.999	9999.999	9999.999	9999.999
9999.999	9999.999	9999.999	9999.999	9999.999	9999.999	9999.999	9999.999	9999.999	9999.999	9999.999	9999.999	9999.999	9999.999	9999.999	9999.999	9999.999	9999.999	9999.999	9999.999	9999.999	9999.999	9999.999	9999.999	9999.999	778.25433	778.5262	779.21674	781.0283	782.44604	783.08594	783.49274	783.7708	784.0002	784.20593	784.39685	784.59717	784.7934	785.0081	785.22974	785.4483	785.6588	785.86505	786.0741	786.28564	786.4852	786.6736	786.8411	786.9813	787.0788	9999.999	9999.999	9999.999	9999.999	9999.999	9999.999	9999.999	9999.999	9999.999	9999.999
9999.999	9999.999	9999.999	9999.999	9999.999	9999.999	9999.999	9999.999	9999.999	9999.999	9999.999	9999.999	9999.999	9999.999	9999.999	9999.999	9999.999	9999.999	9999.999	9999.999	9999.999	9999.999	9999.999	9999.999	9999.999	9999.999	9999.999	779.90814	782.3942	783.41486	783.91174	784.21466	784.4228	784.6001	784.75854	784.9211	785.0812	785.24896	785.43524	785.621	785.7993	785.9672	786.13983	786.31177	786.48444	786.64343	786.7913	786.91986	787.02435	787.1095	787.1712	9999.999	9999.999	9999.999	9999.999	9999.999	9999.999	9999.999	9999.999	9999.999
9999.999	9999.999	9999.999	9999.999	9999.999	9999.999	9999.999	9999.999	9999.999	9999.999	9999.999	9999.999	9999.999	9999.999	9999.999	9999.999	9999.999	9999.999	9999.999	9999.999	9999.999	9999.999	9999.999	9999.999	9999.999	9999.999	9999.999	9999.999	784.1792	784.43665	784.66	784.8441	784.9872	785.1187	785.24896	785.3812	785.513	785.65674	785.81104	785.96326	786.105	786.2412	786.37854	786.5155	786.6499	786.77295	786.8841	786.97687	787.0372	9999.999	9999.999	9999.999	9999.999	9999.999	9999.999	9999.999	9999.999	9999.999	9999.999	9999.999
9999.999	9999.999	9999.999	9999.999	9999.999	9999.999	9999.999	9999.999	9999.999	9999.999	9999.999	9999.999	9999.999	9999.999	9999.999	9999.999	9999.999	9999.999	9999.999	9999.999	9999.999	9999.999	9999.999	9999.999	9999.999	9999.999	9999.999	9999.999	785.07764	785.16626	785.26794	785.37604	785.48004	785.5868	785.6885	785.7955	785.9013	786.0238	786.14764	786.2671	786.3775	786.48126	786.5855	786.6867	786.78595	786.87054	786.942	787.0106	787.0534	9999.999	9999.999	9999.999	9999.999	9999.999	9999.999	9999.999	9999.999	9999.999	9999.999	9999.999
9999.999	9999.999	9999.999	9999.999	9999.999	9999.999	9999.999	9999.999	9999.999	9999.999	9999.999	9999.999	9999.999	9999.999	9999.999	9999.999	9999.999	9999.999	9999.999	9999.999	9999.999	9999.999	9999.999	9999.999	9999.999	9999.999	9999.999	9999.999	785.69617	785.72015	785.7613	785.82336	785.9057	785.987	786.06616	786.14996	786.23975	786.3397	786.4371	786.52795	786.6058	786.6794	786.75183	786.817	786.88116	786.92523	9999.999	9999.999	9999.999	9999.999	9999.999	9999.999	9999.999	9999.999	9999.999	9999.999	9999.999	9999.999	9999.999	9999.999
9999.999	9999.999	9999.999	9999.999	9999.999	9999.999	9999.999	9999.999	9999.999	9999.999	9999.999	9999.999	9999.999	9999.999	9999.999	9999.999	9999.999	9999.999	9999.999	9999.999	9999.999	9999.999	9999.999	9999.999	9999.999	9999.999	9999.999	9999.999	786.18866	786.1688	786.1695	786.202	786.2539	786.3164	786.38324	786.45386	786.5309	786.60846	786.68134	786.7429	786.79504	786.83905	786.87366	786.8966	786.9342	786.9614	9999.999	9999.999	9999.999	9999.999	9999.999	9999.999	9999.999	9999.999	9999.999	9999.999	9999.999	9999.999	9999.999	9999.999
9999.999	9999.999	9999.999	9999.999	9999.999	9999.999	9999.999	9999.999	9999.999	9999.999	9999.999	9999.999	9999.999	9999.999	9999.999	9999.999	9999.999	9999.999	9999.999	9999.999	9999.999	9999.999	9999.999	9999.999	9999.999	9999.999	9999.999	786.79846	786.5814	786.4925	786.4637	786.47284	786.51	786.57355	786.63855	786.70166	786.76184	786.82025	786.8703	786.9107	786.94147	786.9557	786.9471	9999.999	9999.999	9999.999	9999.999	9999.999	9999.999	9999.999	9999.999	9999.999	9999.999	9999.999	9999.999	9999.999	9999.999	9999.999	9999.999	9999.999
9999.999	9999.999	9999.999	9999.999	9999.999	9999.999	9999.999	9999.999	9999.999	9999.999	9999.999	9999.999	9999.999	9999.999	9999.999	9999.999	9999.999	9999.999	9999.999	9999.999	9999.999	9999.999	9999.999	9999.999	9999.999	9999.999	787.0405	786.89557	786.7422	786.6505	786.61194	786.6158	786.66003	786.7615	786.828	786.89154	786.94183	786.9774	787.0073	787.0328	787.0476	787.037	9999.999	9999.999	9999.999	9999.999	9999.999	9999.999	9999.999	9999.999	9999.999	9999.999	9999.999	9999.999	9999.999	9999.999	9999.999	9999.999	9999.999	9999.999
9999.999	9999.999	9999.999	9999.999	9999.999	9999.999	9999.999	9999.999	9999.999	9999.999	9999.999	9999.999	9999.999	9999.999	9999.999	9999.999	9999.999	9999.999	9999.999	9999.999	9999.999	9999.999	9999.999	9999.999	9999.999	9999.999	9999.999	9999.999	9999.999	9999.999	9999.999	9999.999	9999.999	786.89844	786.94525	787.02515	787.0624	787.0675	787.08374	787.1004	787.1112	9999.999	9999.999	9999.999	9999.999	9999.999	9999.999	9999.999	9999.999	9999.999	9999.999	9999.999	9999.999	9999.999	9999.999	9999.999	9999.999	9999.999	9999.999	9999.999
9999.999	9999.999	9999.999	9999.999	9999.999	9999.999	9999.999	9999.999	9999.999	9999.999	9999.999	9999.999	9999.999	9999.999	9999.999	9999.999	9999.999	9999.999	9999.999	9999.999	9999.999	9999.999	9999.999	9999.999	9999.999	9999.999	9999.999	9999.999	9999.999	9999.999	9999.999	9999.999	9999.999	9999.999	9999.999	787.1236	787.1342	9999.999	9999.999	9999.999	9999.999	9999.999	9999.999	9999.999	9999.999	9999.999	9999.999	9999.999	9999.999	9999.999	9999.999	9999.999	9999.999	9999.999	9999.999	9999.999	9999.999	9999.999	9999.999	9999.999
9999.999	9999.999	9999.999	9999.999	9999.999	9999.999	9999.999	9999.999	9999.999	9999.999	9999.999	9999.999	9999.999	9999.999	9999.999	9999.999	9999.999	9999.999	9999.999	9999.999	9999.999	9999.999	9999.999	9999.999	9999.999	9999.999	9999.999	9999.999	9999.999	9999.999	9999.999	9999.999	9999.999	9999.999	9999.999	9999.999	9999.999	9999.999	9999.999	9999.999	9999.999	9999.999	9999.999	9999.999	9999.999	9999.999	9999.999	9999.999	9999.999	9999.999	9999.999	9999.999	9999.999	9999.999	9999.999	9999.999	9999.999	9999.999	9999.999	9999.999
