ncols 60
nrows 65
xllcorner 739300.0
yllcorner 4553050.0
cellsize 50.0
nodata_value -9999
-9999 -9999 -9999 -9999 -9999 -9999 -9999 -9999 -9999 -9999 -9999 -9999 -9999 -9999 -9999 -9999 -9999 -9999 -9999 -9999 -9999 -9999 -9999 -9999 -9999 -9999 -9999 -9999 -9999 -9999 -9999 -9999 -9999 -9999 -9999 -9999 -9999 -9999 -9999 -9999 -9999 -9999 -9999 -9999 -9999 -9999 -9999 -9999 -9999 -9999 -9999 -9999 -9999 -9999 -9999 -9999 -9999 -9999 -9999 -9999
-9999 -9999 -9999 -9999 -9999 -9999 -9999 -9999 -9999 -9999 -9999 -9999 -9999 -9999 -9999 -9999 -9999 -9999 -9999 -9999 739.274 -9999 -9999 -9999 -9999 -9999 -9999 -9999 -9999 -9999 -9999 -9999 -9999 -9999 -9999 -9999 -9999 -9999 -9999 -9999 -9999 -9999 -9999 -9999 -9999 -9999 -9999 -9999 -9999 -9999 -9999 -9999 -9999 -9999 -9999 -9999 -9999 -9999 -9999 -9999
-9999 -9999 717.368 717.411 717.708 718.192 718.562 718.773 -9999 -9999 -9999 -9999 -9999 -9999 -9999 -9999 -9999 -9999 -9999 738.942 739.152 739.247 -9999 -9999 -9999 -9999 -9999 -9999 -9999 -9999 -9999 -9999 -9999 -9999 -9999 -9999 -9999 -9999 -9999 -9999 -9999 -9999 -9999 -9999 -9999 -9999 -9999 -9999 -9999 -9999 -9999 -9999 -9999 -9999 -9999 -9999 -9999 -9999 -9999 -9999
-9999 717.353 717.393 717.428 717.733 718.223 718.596 718.844 719.052 -9999 -9999 -9999 -9999 -9999 -9999 -9999 736.843 737.346 737.969 738.624 739.016 739.219 -9999 -9999 -9999 -9999 -9999 -9999 -9999 -9999 -9999 -9999 -9999 -9999 -9999 -9999 -9999 -9999 -9999 -9999 -9999 -9999 -9999 -9999 -9999 -9999 -9999 -9999 -9999 -9999 -9999 -9999 -9999 -9999 -9999 -9999 -9999 -9999 -9999 -9999
717.331 717.378 717.421 717.456 717.779 718.278 718.645 718.868 719.133 -9999 -9999 -9999 -9999 -9999 734.098 735.009 736.213 737.085 737.834 738.474 738.951 739.271 739.483 -9999 -9999 -9999 -9999 -9999 -9999 -9999 -9999 -9999 -9999 -9999 -9999 -9999 -9999 -9999 -9999 -9999 -9999 -9999 -9999 -9999 -9999 -9999 -9999 -9999 -9999 -9999 -9999 -9999 -9999 -9999 -9999 -9999 -9999 -9999 -9999 -9999
717.348 717.406 717.454 717.492 717.855 718.42 718.767 718.939 720.737 722.715 724.643 725.893 727.845 731.141 733.074 734.557 735.848 736.864 737.715 738.41 738.939 739.316 739.577 739.741 -9999 -9999 -9999 -9999 -9999 -9999 -9999 -9999 -9999 -9999 -9999 -9999 -9999 -9999 -9999 -9999 -9999 -9999 -9999 -9999 -9999 -9999 -9999 -9999 -9999 -9999 -9999 -9999 -9999 -9999 -9999 -9999 -9999 -9999 -9999 -9999
717.373 717.441 717.496 717.538 717.957 718.644 719.203 719.594 720.968 723.702 725.112 726.659 728.484 730.638 732.65 734.264 735.611 736.706 737.626 738.375 738.956 739.373 739.646 739.785 -9999 -9999 -9999 -9999 -9999 -9999 -9999 -9999 -9999 -9999 -9999 -9999 -9999 -9999 -9999 -9999 -9999 -9999 -9999 -9999 -9999 -9999 -9999 -9999 -9999 -9999 -9999 -9999 -9999 -9999 -9999 -9999 -9999 -9999 -9999 -9999
717.396 717.485 717.549 717.595 718.067 718.901 719.744 720.641 721.971 723.802 725.471 727.12 728.911 730.775 732.57 734.117 735.483 736.628 737.6 738.392 739.015 739.459 739.733 739.851 -9999 -9999 -9999 -9999 -9999 -9999 -9999 -9999 -9999 -9999 -9999 -9999 -9999 -9999 -9999 -9999 -9999 -9999 -9999 -9999 -9999 -9999 -9999 -9999 -9999 -9999 -9999 -9999 -9999 -9999 -9999 -9999 -9999 -9999 -9999 -9999
-9999 717.553 717.618 717.662 718.164 719.085 720.075 721.158 722.529 724.118 725.776 727.45 729.19 730.916 732.602 734.101 735.469 736.636 737.639 738.471 739.129 739.592 739.857 739.914 -9999 -9999 -9999 -9999 -9999 -9999 -9999 -9999 -9999 -9999 -9999 -9999 -9999 -9999 -9999 -9999 -9999 -9999 -9999 -9999 -9999 -9999 -9999 -9999 -9999 -9999 -9999 -9999 -9999 -9999 -9999 -9999 -9999 -9999 -9999 -9999
-9999 -9999 717.709 717.735 718.248 719.168 720.197 721.32 722.652 724.181 725.88 727.613 729.38 731.052 732.68 734.175 735.532 736.711 737.749 738.624 739.313 739.805 740.075 -9999 -9999 -9999 -9999 -9999 -9999 -9999 -9999 -9999 -9999 -9999 -9999 -9999 -9999 -9999 -9999 -9999 -9999 -9999 -9999 -9999 -9999 -9999 -9999 -9999 -9999 -9999 -9999 -9999 -9999 -9999 -9999 -9999 -9999 -9999 -9999 -9999
-9999 -9999 717.773 717.799 718.303 719.106 720.125 721.2 722.408 723.868 725.73 727.641 729.45 731.16 732.782 734.274 735.641 736.856 737.929 738.835 739.577 740.123 740.445 -9999 -9999 -9999 -9999 -9999 -9999 -9999 -9999 -9999 -9999 -9999 -9999 -9999 -9999 -9999 -9999 -9999 -9999 -9999 -9999 -9999 -9999 -9999 -9999 -9999 -9999 -9999 -9999 -9999 -9999 -9999 -9999 -9999 -9999 -9999 -9999 -9999
-9999 -9999 717.813 717.854 718.455 718.998 719.926 720.896 721.762 722.922 725.338 727.579 729.467 731.222 732.892 734.425 735.823 737.052 738.134 739.09 739.9 740.56 741.013 -9999 -9999 -9999 -9999 -9999 -9999 -9999 -9999 -9999 -9999 -9999 -9999 -9999 -9999 -9999 -9999 -9999 -9999 -9999 -9999 -9999 -9999 -9999 -9999 -9999 -9999 -9999 -9999 -9999 -9999 -9999 -9999 -9999 -9999 -9999 -9999 -9999
-9999 -9999 -9999 718.668 719.065 719.199 719.802 720.646 721.28 721.589 724.922 728.164 729.475 731.256 733.022 734.628 736.02 737.224 738.343 739.355 740.265 741.105 741.911 742.835 -9999 -9999 -9999 -9999 748.693 -9999 -9999 -9999 -9999 -9999 -9999 -9999 -9999 -9999 -9999 -9999 -9999 -9999 -9999 -9999 -9999 -9999 -9999 -9999 -9999 -9999 -9999 -9999 -9999 -9999 -9999 -9999 -9999 -9999 -9999 -9999
-9999 -9999 -9999 719.327 719.447 719.476 719.971 720.861 721.346 721.498 724.727 726.462 729.012 731.242 733.187 734.806 736.162 737.405 738.567 739.626 740.633 741.596 742.565 743.655 745.03 746.139 747.076 747.893 748.617 749.152 749.499 -9999 -9999 -9999 -9999 -9999 -9999 -9999 -9999 -9999 -9999 -9999 -9999 -9999 -9999 -9999 -9999 -9999 -9999 -9999 -9999 -9999 -9999 -9999 -9999 -9999 -9999 -9999 -9999 -9999
-9999 -9999 -9999 719.82 719.89 719.956 720.47 721.265 721.529 721.801 725.152 725.859 728.787 731.89 733.442 734.964 736.361 737.611 738.798 739.893 740.953 741.953 742.978 744.057 745.184 746.198 747.107 747.923 748.658 749.268 749.767 750.2 -9999 -9999 -9999 -9999 -9999 -9999 -9999 -9999 -9999 -9999 -9999 -9999 -9999 -9999 -9999 -9999 -9999 -9999 -9999 -9999 -9999 -9999 -9999 -9999 -9999 -9999 -9999 -9999
-9999 -9999 -9999 720.29 720.359 720.598 721.203 721.702 722.343 722.903 725.097 726.714 730.13 731.93 733.696 735.247 736.632 737.856 739.04 740.129 741.162 742.169 743.23 744.286 745.299 746.247 747.147 747.982 748.751 749.429 750.035 750.562 751.016 -9999 -9999 -9999 -9999 -9999 -9999 -9999 -9999 -9999 -9999 -9999 -9999 -9999 -9999 -9999 -9999 -9999 -9999 -9999 -9999 -9999 -9999 -9999 -9999 -9999 -9999 -9999
-9999 -9999 -9999 720.729 720.783 721.011 721.553 722.266 723.08 723.966 726.048 727.818 730.035 732.369 734.176 735.679 736.986 738.119 739.202 740.251 741.277 742.309 743.369 744.374 745.344 746.276 747.192 748.057 748.879 749.633 750.327 750.939 751.407 -9999 -9999 -9999 -9999 -9999 -9999 765.309 765.517 765.822 766.13 766.341 -9999 -9999 -9999 -9999 -9999 -9999 -9999 -9999 -9999 -9999 -9999 -9999 -9999 -9999 -9999 -9999
-9999 -9999 -9999 721.143 721.05 721.186 721.907 722.739 723.721 724.93 726.607 728.245 731.252 733.461 735.012 736.319 737.388 738.277 739.231 740.288 741.35 742.382 743.381 744.354 745.337 746.295 747.237 748.134 749.018 749.85 750.647 751.404 752.146 752.981 -9999 -9999 -9999 -9999 -9999 765.037 765.363 765.76 766.153 766.425 -9999 -9999 -9999 -9999 -9999 -9999 -9999 -9999 -9999 -9999 -9999 -9999 -9999 -9999 -9999 -9999
-9999 -9999 -9999 721.742 721.672 721.662 722.108 723.61 724.891 726.382 728.246 730.609 733.081 734.319 735.535 736.655 737.596 738.254 739.139 740.314 741.38 742.328 743.288 744.286 745.299 746.287 747.263 748.203 749.145 750.045 750.904 751.785 752.706 753.698 754.763 -9999 -9999 -9999 763.546 764.386 765.065 765.669 766.228 766.652 -9999 -9999 -9999 -9999 -9999 -9999 -9999 -9999 -9999 -9999 -9999 -9999 -9999 -9999 -9999 -9999
-9999 -9999 -9999 722.362 722.824 723.035 724.612 725.394 726.681 728.24 730.057 732.192 733.722 734.742 735.847 736.936 737.937 738.541 739.401 740.507 741.419 742.183 743.127 744.171 745.233 746.26 747.271 748.255 749.195 750.129 751.082 752.081 753.171 754.354 755.696 757.536 759.24 760.9 762.653 763.84 764.8 765.607 766.397 767.231 767.979 -9999 -9999 -9999 -9999 -9999 -9999 -9999 -9999 -9999 -9999 -9999 -9999 -9999 -9999 -9999
-9999 -9999 -9999 -9999 724.155 724.598 725.581 726.703 728.054 729.612 731.28 732.968 734.356 735.505 736.609 737.773 738.68 739.26 740.073 740.828 741.487 741.979 742.833 744.006 745.145 746.216 747.232 748.203 749.179 750.157 751.172 752.251 753.435 754.711 756.107 757.645 759.212 760.762 762.264 763.528 764.63 765.605 766.589 767.614 768.517 769.461 770.08 770.492 770.694 -9999 -9999 -9999 -9999 -9999 -9999 -9999 -9999 -9999 -9999 -9999
-9999 -9999 -9999 -9999 725.001 725.687 726.537 727.649 729.035 730.632 732.366 733.981 735.42 736.645 737.687 738.674 739.252 739.751 740.403 741.072 741.704 742.065 742.727 743.897 745.074 746.124 747.124 748.11 749.096 750.092 751.137 752.262 753.503 754.839 756.217 757.665 759.165 760.639 762.08 763.384 764.575 765.67 766.767 767.857 768.776 769.575 770.164 770.572 770.793 -9999 -9999 -9999 -9999 -9999 -9999 -9999 -9999 -9999 -9999 -9999
-9999 -9999 -9999 -9999 -9999 726.466 727.104 728.172 729.586 731.303 733.403 735.024 736.573 737.796 738.741 739.539 740.056 740.577 741.148 741.76 742.235 742.397 742.584 743.877 745.01 745.996 746.991 747.963 748.932 749.914 750.952 752.08 753.363 754.714 756.107 757.524 759.001 760.517 761.976 763.341 764.62 765.798 766.949 768.066 768.989 769.735 770.308 770.726 771.01 771.224 -9999 -9999 -9999 -9999 -9999 -9999 -9999 -9999 -9999 -9999
-9999 -9999 -9999 -9999 -9999 -9999 -9999 -9999 -9999 -9999 734.755 735.967 737.861 739.04 739.928 740.676 741.264 741.772 742.225 742.647 742.892 742.918 743.173 744.1 744.979 745.875 746.807 747.741 748.685 749.615 750.591 751.672 753.015 754.398 755.792 757.185 758.685 760.3 761.91 763.384 764.733 765.978 767.168 768.263 769.184 769.922 770.485 770.909 771.197 771.342 771.397 -9999 -9999 -9999 -9999 -9999 -9999 -9999 -9999 -9999
-9999 -9999 -9999 -9999 -9999 -9999 -9999 -9999 -9999 -9999 -9999 -9999 739.694 740.428 741.203 741.921 742.491 742.94 743.287 743.543 743.658 743.585 743.596 744.477 744.985 745.747 746.565 747.43 748.334 749.191 750.005 750.947 752.496 753.932 755.273 756.58 758.05 760.004 761.808 763.467 764.928 766.216 767.426 768.508 769.413 770.145 770.727 771.135 771.31 771.362 771.413 -9999 -9999 -9999 -9999 -9999 -9999 -9999 -9999 -9999
-9999 -9999 -9999 -9999 -9999 -9999 -9999 -9999 -9999 -9999 -9999 -9999 740.716 741.656 742.498 743.208 743.755 744.154 744.406 744.525 744.563 744.551 744.837 745.315 744.859 745.66 746.318 747.082 747.983 748.748 749.218 749.602 752.157 753.457 754.609 755.67 756.821 759.954 761.789 763.592 765.19 766.552 767.74 768.797 769.727 770.476 771.051 771.319 771.366 771.387 -9999 -9999 -9999 -9999 -9999 -9999 -9999 -9999 -9999 -9999
-9999 -9999 -9999 -9999 -9999 -9999 -9999 -9999 -9999 -9999 -9999 -9999 -9999 742.827 743.87 744.583 745.096 745.435 745.595 745.577 745.523 745.661 746.089 746.325 746.087 747.149 746.467 746.782 747.881 748.647 748.726 748.471 749.801 753.149 753.994 754.684 756.062 759.808 761.923 763.833 765.479 766.875 768.12 769.207 770.147 770.919 771.329 771.447 771.471 771.458 -9999 -9999 -9999 -9999 -9999 -9999 -9999 -9999 -9999 -9999
-9999 -9999 -9999 -9999 -9999 -9999 -9999 -9999 -9999 -9999 -9999 -9999 -9999 -9999 745.552 746.086 746.547 746.814 746.881 746.721 746.402 746.522 746.797 747.079 748.648 749.157 749.058 749.19 749.029 749.56 749.349 749.513 752.12 753.237 753.722 754.331 755.995 760.181 762.348 764.227 765.86 767.257 768.548 769.707 770.68 771.255 771.498 771.596 771.59 -9999 -9999 -9999 -9999 -9999 -9999 -9999 -9999 -9999 -9999 -9999
-9999 -9999 -9999 -9999 -9999 -9999 -9999 -9999 -9999 -9999 -9999 -9999 -9999 -9999 746.626 747.597 748.078 748.291 748.325 748.193 747.864 747.938 748.254 748.925 750.135 750.508 750.854 751.147 751.284 751.302 751.653 753.04 753.328 754.253 754.761 756.718 758.728 761.531 763.136 764.781 766.301 767.688 769.01 770.319 771.105 771.429 771.66 771.83 -9999 -9999 -9999 -9999 -9999 -9999 -9999 -9999 -9999 -9999 -9999 -9999
-9999 -9999 -9999 -9999 -9999 -9999 -9999 -9999 -9999 -9999 -9999 -9999 -9999 -9999 -9999 749.59 749.74 749.841 749.861 749.826 749.756 749.866 750.132 750.564 750.896 751.24 751.721 752.272 753.611 754.329 755.004 755.49 755.327 756.107 757.497 758.731 760.288 762.16 763.816 765.358 766.808 768.146 769.422 770.655 771.298 771.584 771.871 772.232 773.503 774.719 775.521 776.042 776.306 -9999 -9999 -9999 -9999 -9999 -9999 -9999
-9999 -9999 -9999 -9999 -9999 -9999 -9999 -9999 -9999 -9999 -9999 -9999 -9999 -9999 -9999 751.351 751.363 751.381 751.397 751.412 751.449 751.588 751.806 752.075 752.21 752.6 753.246 754.308 755.766 756.304 756.738 757.03 757.325 758.028 759.057 760.132 761.473 762.983 764.514 765.985 767.367 768.656 769.835 770.92 771.475 771.73 772.28 773.04 774.078 774.993 775.709 776.211 776.48 -9999 -9999 -9999 -9999 -9999 -9999 -9999
-9999 -9999 -9999 -9999 -9999 -9999 -9999 -9999 -9999 -9999 -9999 -9999 -9999 -9999 -9999 753.036 752.929 752.885 752.887 752.926 753.012 753.181 753.423 753.72 754.036 754.503 755.156 756.038 756.776 757.15 757.526 757.896 758.666 759.506 760.363 761.252 762.386 763.814 765.295 766.696 768.025 769.224 770.329 771.137 771.631 771.946 772.794 773.724 774.577 775.357 776.021 776.519 776.829 -9999 -9999 -9999 -9999 -9999 -9999 -9999
-9999 -9999 -9999 -9999 -9999 -9999 -9999 -9999 -9999 -9999 -9999 -9999 -9999 -9999 755.559 754.735 754.415 754.299 754.286 754.341 754.47 754.668 754.948 755.288 755.685 756.174 756.766 757.349 757.719 757.968 758.297 758.791 759.592 760.361 761.106 761.786 762.957 764.584 766.101 767.474 768.719 769.896 770.729 771.117 771.79 772.559 773.429 774.26 775.033 775.751 776.391 776.935 777.43 778.005 -9999 -9999 -9999 -9999 -9999 -9999
-9999 -9999 -9999 -9999 -9999 -9999 -9999 -9999 -9999 -9999 -9999 -9999 -9999 756.895 756.377 755.919 755.678 755.584 755.589 755.67 755.836 756.069 756.375 756.752 757.191 757.693 758.294 758.558 758.576 758.705 758.902 759.376 760.047 760.77 761.509 762.228 763.713 765.447 766.933 768.216 769.371 770.245 770.881 771.27 772.14 773.071 773.914 774.697 775.437 776.126 776.771 777.346 777.879 778.389 778.829 -9999 -9999 -9999 -9999 -9999
-9999 -9999 -9999 -9999 -9999 -9999 -9999 -9999 -9999 -9999 -9999 -9999 757.664 757.387 757.111 756.88 756.756 756.729 756.784 756.906 757.105 757.372 757.705 758.102 758.556 759.002 759.397 759.437 759.318 759.381 759.672 760.278 760.986 761.716 762.539 763.526 765.029 766.495 767.823 769.018 769.889 770.303 770.983 771.757 772.647 773.507 774.321 775.089 775.826 776.512 777.146 777.718 778.254 778.739 779.174 779.597 779.792 -9999 -9999 -9999
-9999 -9999 -9999 -9999 -9999 -9999 -9999 -9999 -9999 -9999 -9999 -9999 757.9 757.844 757.774 757.716 757.708 757.761 757.874 758.045 758.281 758.578 758.934 759.339 759.831 760.026 760.005 759.981 759.883 760.008 760.697 761.531 762.324 763.108 764.039 765.091 766.327 767.569 768.711 769.528 770.088 770.465 771.284 772.211 773.07 773.909 774.72 775.486 776.214 776.895 777.525 778.088 778.597 779.047 779.431 779.736 779.894 -9999 -9999 -9999
-9999 -9999 -9999 -9999 -9999 -9999 -9999 -9999 -9999 -9999 -9999 758.19 758.137 758.273 758.392 758.475 758.574 758.705 758.874 759.091 759.366 759.692 760.063 760.43 760.742 760.755 760.615 760.599 760.689 761.096 761.93 762.752 763.561 764.38 765.344 766.392 767.498 768.578 769.412 769.763 770.246 770.913 771.786 772.65 773.493 774.318 775.12 775.879 776.6 777.273 777.888 778.434 778.919 779.338 779.68 779.932 780.065 -9999 -9999 -9999
-9999 -9999 -9999 -9999 -9999 -9999 -9999 -9999 -9999 -9999 -9999 -9999 -9999 758.669 759.013 759.203 759.385 759.587 759.81 760.073 760.38 760.724 761.129 761.285 761.254 761.217 761.099 761.163 761.679 762.344 763.114 763.91 764.719 765.553 766.468 767.48 768.53 769.277 769.737 770.008 770.573 771.408 772.272 773.116 773.939 774.74 775.531 776.277 776.986 777.644 778.241 778.769 779.231 779.619 779.932 780.158 780.28 -9999 -9999 -9999
-9999 -9999 -9999 -9999 -9999 -9999 -9999 -9999 -9999 -9999 -9999 -9999 -9999 -9999 759.757 759.913 760.151 760.408 760.679 760.98 761.306 761.621 761.888 761.899 761.778 761.756 761.81 762.122 762.79 763.48 764.225 764.993 765.78 766.601 767.482 768.51 769.356 769.717 769.993 770.282 770.938 771.868 772.749 773.586 774.39 775.17 775.937 776.674 777.369 778.01 778.589 779.094 779.529 779.893 780.184 780.399 780.527 -9999 -9999 -9999
-9999 -9999 -9999 -9999 -9999 -9999 -9999 -9999 -9999 -9999 -9999 -9999 -9999 -9999 760.313 760.511 760.86 761.184 761.493 761.819 762.183 762.331 762.318 762.294 762.198 762.256 762.701 763.262 763.89 764.565 765.281 766.014 766.768 767.536 768.327 769.17 769.735 769.997 770.244 770.574 771.384 772.368 773.254 774.073 774.858 775.617 776.364 777.075 777.768 778.379 778.928 779.405 779.814 780.155 780.429 780.643 780.813 781.001 -9999 -9999
-9999 -9999 -9999 -9999 -9999 -9999 -9999 -9999 -9999 -9999 -9999 -9999 -9999 -9999 760.637 760.918 761.561 761.929 762.25 762.556 762.805 762.835 762.756 762.755 762.817 763.102 763.712 764.317 764.938 765.593 766.287 766.99 767.702 768.407 769.099 769.729 770.104 770.299 770.648 771.238 772.097 772.962 773.797 774.585 775.34 776.074 776.798 777.476 778.139 778.723 779.246 779.696 780.079 780.397 780.647 780.842 780.989 781.092 -9999 -9999
-9999 -9999 -9999 -9999 -9999 -9999 -9999 -9999 -9999 -9999 -9999 -9999 -9999 -9999 -9999 -9999 762.478 762.676 762.968 763.12 763.15 763.16 763.112 763.187 763.6 764.117 764.689 765.299 765.937 766.589 767.256 767.938 768.62 769.28 769.928 770.314 770.452 770.652 771.259 772.006 772.794 773.582 774.36 775.107 775.834 776.536 777.218 777.872 778.499 779.051 779.546 779.965 780.318 780.607 780.83 780.998 781.117 781.186 -9999 -9999
-9999 -9999 -9999 -9999 -9999 -9999 -9999 -9999 -9999 -9999 -9999 -9999 -9999 -9999 -9999 -9999 763.149 763.275 763.435 763.49 763.49 763.536 763.645 763.941 764.501 765.057 765.641 766.246 766.89 767.544 768.204 768.874 769.535 770.14 770.605 770.782 770.947 771.347 772.041 772.749 773.474 774.2 774.927 775.632 776.32 776.989 777.637 778.254 778.843 779.36 779.821 780.21 780.533 780.789 780.977 781.104 781.19 781.242 -9999 -9999
-9999 -9999 -9999 -9999 -9999 -9999 -9999 -9999 -9999 -9999 -9999 -9999 -9999 -9999 -9999 -9999 763.651 763.676 763.647 763.7 763.778 763.907 764.343 764.852 765.399 765.964 766.56 767.174 767.813 768.47 769.144 769.814 770.484 770.844 770.941 771.108 771.599 772.198 772.817 773.469 774.145 774.817 775.49 776.154 776.807 777.436 778.044 778.621 779.168 779.651 780.078 780.434 780.726 780.946 781.089 781.149 -9999 -9999 -9999 -9999
-9999 -9999 -9999 -9999 -9999 -9999 -9999 -9999 -9999 -9999 -9999 -9999 -9999 -9999 -9999 -9999 763.895 763.922 763.977 764.126 764.326 764.632 765.189 765.723 766.273 766.84 767.439 768.058 768.701 769.368 770.057 770.718 771.227 771.387 771.463 771.798 772.399 772.99 773.567 774.172 774.795 775.42 776.042 776.661 777.28 777.873 778.445 778.977 779.477 779.923 780.313 780.638 780.897 781.082 781.184 -9999 -9999 -9999 -9999 -9999
-9999 -9999 -9999 -9999 -9999 -9999 -9999 -9999 -9999 -9999 -9999 -9999 -9999 -9999 -9999 -9999 763.965 764.024 764.384 764.709 765.066 765.517 766.058 766.588 767.134 767.701 768.292 768.906 769.557 770.249 770.966 771.408 771.619 771.756 772.072 772.6 773.175 773.743 774.296 774.847 775.423 776.002 776.583 777.16 777.741 778.295 778.825 779.312 779.763 780.17 780.525 780.819 781.05 781.202 781.276 -9999 -9999 -9999 -9999 -9999
-9999 -9999 -9999 -9999 -9999 -9999 -9999 -9999 -9999 -9999 -9999 -9999 -9999 -9999 -9999 -9999 -9999 -9999 764.985 765.25 765.702 766.322 766.902 767.436 767.975 768.532 769.109 769.707 770.356 771.077 771.654 771.859 771.968 772.135 772.619 773.291 773.895 774.457 774.984 775.496 776.033 776.568 777.105 777.641 778.181 778.692 779.174 779.617 780.027 780.398 780.72 780.984 781.183 781.303 781.34 -9999 -9999 -9999 -9999 -9999
-9999 -9999 -9999 -9999 -9999 -9999 -9999 -9999 -9999 -9999 -9999 -9999 -9999 -9999 -9999 -9999 -9999 -9999 765.305 765.587 766.167 767.138 767.758 768.287 768.815 769.354 769.907 770.474 771.063 771.65 772.009 772.157 772.271 772.499 773.202 773.974 774.597 775.146 775.647 776.126 776.617 777.113 777.608 778.101 778.59 779.054 779.494 779.897 780.276 780.609 780.901 781.135 781.301 781.39 -9999 -9999 -9999 -9999 -9999 -9999
-9999 -9999 -9999 -9999 -9999 -9999 -9999 -9999 -9999 -9999 -9999 -9999 -9999 -9999 -9999 -9999 -9999 -9999 -9999 -9999 -9999 768.243 768.657 769.134 769.646 770.167 770.69 771.224 771.748 772.172 772.377 772.499 772.778 773.293 774.045 774.722 775.302 775.818 776.287 776.732 777.185 777.636 778.088 778.533 778.971 779.394 779.794 780.161 780.506 780.805 781.067 781.269 781.403 781.469 -9999 -9999 -9999 -9999 -9999 -9999
-9999 -9999 -9999 -9999 -9999 -9999 -9999 -9999 -9999 -9999 -9999 -9999 -9999 -9999 -9999 -9999 -9999 -9999 -9999 -9999 -9999 768.893 769.487 769.957 770.451 770.955 771.47 771.995 772.529 772.771 772.729 772.873 773.531 774.249 774.897 775.489 776.007 776.478 776.903 777.314 777.732 778.143 778.552 778.946 779.333 779.712 780.077 780.41 780.718 780.989 781.215 781.381 781.482 781.519 -9999 -9999 -9999 -9999 -9999 -9999
-9999 -9999 -9999 -9999 -9999 -9999 -9999 -9999 -9999 -9999 -9999 -9999 -9999 -9999 -9999 -9999 -9999 -9999 -9999 -9999 -9999 -9999 770.396 770.744 771.21 771.714 772.241 772.747 773.1 773.224 773.345 773.774 774.504 775.151 775.718 776.237 776.691 777.101 777.489 777.867 778.256 778.632 778.99 779.338 779.679 780.013 780.34 780.64 780.911 781.148 781.339 781.468 781.535 -9999 -9999 -9999 -9999 -9999 -9999 -9999
-9999 -9999 -9999 -9999 -9999 -9999 -9999 -9999 -9999 -9999 -9999 -9999 -9999 -9999 -9999 -9999 -9999 -9999 -9999 -9999 -9999 -9999 770.925 771.404 771.917 772.467 773.055 773.356 773.381 773.511 774.149 774.863 775.472 776.02 776.503 776.949 777.338 777.706 778.065 778.409 778.758 779.093 779.404 779.71 780.005 780.295 780.587 780.85 781.086 781.287 781.434 781.527 781.573 -9999 -9999 -9999 -9999 -9999 -9999 -9999
-9999 -9999 -9999 -9999 -9999 -9999 -9999 -9999 -9999 -9999 -9999 -9999 -9999 -9999 -9999 -9999 -9999 -9999 -9999 -9999 -9999 -9999 -9999 772.001 772.562 773.18 773.602 773.756 773.906 774.345 775.173 775.819 776.348 776.815 777.238 777.622 777.953 778.286 778.599 778.913 779.224 779.52 779.79 780.055 780.311 780.561 780.815 781.042 781.239 781.398 781.499 781.553 -9999 -9999 -9999 -9999 -9999 -9999 -9999 -9999
-9999 -9999 -9999 -9999 -9999 -9999 -9999 -9999 -9999 -9999 -9999 -9999 -9999 -9999 -9999 -9999 -9999 -9999 -9999 -9999 -9999 -9999 -9999 -9999 773.136 773.667 773.869 774.036 774.553 775.383 776.098 776.682 777.146 777.554 777.924 778.247 778.547 778.836 779.114 779.393 779.662 779.916 780.151 780.38 780.606 780.819 781.031 781.219 781.376 781.488 781.533 -9999 -9999 -9999 -9999 -9999 -9999 -9999 -9999 -9999
-9999 -9999 -9999 -9999 -9999 -9999 -9999 -9999 -9999 -9999 -9999 -9999 -9999 -9999 -9999 -9999 -9999 -9999 -9999 -9999 -9999 -9999 -9999 -9999 -9999 773.942 774.052 774.338 775.213 776.276 776.952 777.477 777.888 778.242 778.552 778.827 779.102 779.347 779.598 779.842 780.071 780.285 780.487 780.682 780.876 781.056 781.227 781.375 781.493 781.569 -9999 -9999 -9999 -9999 -9999 -9999 -9999 -9999 -9999 -9999
-9999 -9999 -9999 -9999 -9999 -9999 -9999 -9999 -9999 -9999 -9999 -9999 -9999 -9999 -9999 -9999 -9999 -9999 -9999 -9999 -9999 -9999 -9999 -9999 -9999 -9999 -9999 774.706 776.154 777.159 777.769 778.215 778.561 778.865 779.121 779.374 779.602 779.823 780.046 780.256 780.449 780.623 780.797 780.961 781.121 781.263 781.394 781.505 781.591 781.653 781.729 -9999 -9999 -9999 -9999 -9999 -9999 -9999 -9999 -9999
-9999 -9999 -9999 -9999 -9999 -9999 -9999 -9999 -9999 -9999 -9999 -9999 -9999 -9999 -9999 -9999 -9999 -9999 -9999 -9999 -9999 -9999 -9999 -9999 -9999 -9999 -9999 -9999 777.871 778.223 778.577 778.9 779.171 779.415 779.644 779.859 780.056 780.251 780.442 780.619 780.777 780.924 781.064 781.197 781.32 781.428 781.521 781.598 781.647 -9999 -9999 -9999 -9999 -9999 -9999 -9999 -9999 -9999 -9999 -9999
-9999 -9999 -9999 -9999 -9999 -9999 -9999 -9999 -9999 -9999 -9999 -9999 -9999 -9999 -9999 -9999 -9999 -9999 -9999 -9999 -9999 -9999 -9999 -9999 -9999 -9999 -9999 -9999 778.914 779.074 779.281 779.503 779.716 779.926 780.115 780.3 780.464 780.637 780.796 780.941 781.069 781.184 781.293 781.391 781.481 781.552 781.598 781.649 781.683 -9999 -9999 -9999 -9999 -9999 -9999 -9999 -9999 -9999 -9999 -9999
-9999 -9999 -9999 -9999 -9999 -9999 -9999 -9999 -9999 -9999 -9999 -9999 -9999 -9999 -9999 -9999 -9999 -9999 -9999 -9999 -9999 -9999 -9999 -9999 -9999 -9999 -9999 -9999 779.669 779.743 779.865 780.017 780.193 780.364 780.522 780.674 780.821 780.968 781.099 781.215 781.311 781.396 781.473 781.536 781.595 781.632 -9999 -9999 -9999 -9999 -9999 -9999 -9999 -9999 -9999 -9999 -9999 -9999 -9999 -9999
-9999 -9999 -9999 -9999 -9999 -9999 -9999 -9999 -9999 -9999 -9999 -9999 -9999 -9999 -9999 -9999 -9999 -9999 -9999 -9999 -9999 -9999 -9999 -9999 -9999 -9999 -9999 -9999 780.249 780.269 780.335 780.446 780.58 780.724 780.864 780.997 781.128 781.248 781.353 781.438 781.509 781.563 781.602 781.623 781.655 781.678 -9999 -9999 -9999 -9999 -9999 -9999 -9999 -9999 -9999 -9999 -9999 -9999 -9999 -9999
-9999 -9999 -9999 -9999 -9999 -9999 -9999 -9999 -9999 -9999 -9999 -9999 -9999 -9999 -9999 -9999 -9999 -9999 -9999 -9999 -9999 -9999 -9999 -9999 -9999 -9999 -9999 780.908 780.694 780.638 780.666 780.747 780.862 781.006 781.14 781.261 781.369 781.467 781.547 781.61 781.658 781.683 781.68 -9999 -9999 -9999 -9999 -9999 -9999 -9999 -9999 -9999 -9999 -9999 -9999 -9999 -9999 -9999 -9999 -9999
-9999 -9999 -9999 -9999 -9999 -9999 -9999 -9999 -9999 -9999 -9999 -9999 -9999 -9999 -9999 -9999 -9999 -9999 -9999 -9999 -9999 -9999 -9999 -9999 -9999 -9999 781.133 781.008 780.874 780.817 780.832 780.905 781.028 781.218 781.346 781.462 781.556 781.628 781.685 781.733 781.763 781.762 -9999 -9999 -9999 -9999 -9999 -9999 -9999 -9999 -9999 -9999 -9999 -9999 -9999 -9999 -9999 -9999 -9999 -9999
-9999 -9999 -9999 -9999 -9999 -9999 -9999 -9999 -9999 -9999 -9999 -9999 -9999 -9999 -9999 -9999 -9999 -9999 -9999 -9999 -9999 -9999 -9999 -9999 -9999 -9999 -9999 -9999 -9999 -9999 -9999 -9999 -9999 781.397 781.48 781.607 781.678 781.718 781.762 781.798 781.821 -9999 -9999 -9999 -9999 -9999 -9999 -9999 -9999 -9999 -9999 -9999 -9999 -9999 -9999 -9999 -9999 -9999 -9999 -9999
-9999 -9999 -9999 -9999 -9999 -9999 -9999 -9999 -9999 -9999 -9999 -9999 -9999 -9999 -9999 -9999 -9999 -9999 -9999 -9999 -9999 -9999 -9999 -9999 -9999 -9999 -9999 -9999 -9999 -9999 -9999 -9999 -9999 -9999 -9999 781.722 781.743 -9999 -9999 -9999 -9999 -9999 -9999 -9999 -9999 -9999 -9999 -9999 -9999 -9999 -9999 -9999 -9999 -9999 -9999 -9999 -9999 -9999 -9999 -9999
-9999 -9999 -9999 -9999 -9999 -9999 -9999 -9999 -9999 -9999 -9999 -9999 -9999 -9999 -9999 -9999 -9999 -9999 -9999 -9999 -9999 -9999 -9999 -9999 -9999 -9999 -9999 -9999 -9999 -9999 -9999 -9999 -9999 -9999 -9999 -9999 -9999 -9999 -9999 -9999 -9999 -9999 -9999 -9999 -9999 -9999 -9999 -9999 -9999 -9999 -9999 -9999 -9999 -9999 -9999 -9999 -9999 -9999 -9999 -9999
