ncols 60
nrows 65
xllcorner 739300.0
yllcorner 4553050.0
cellsize 50.0
nodata_value -9999
-9999 -9999 -9999 -9999 -9999 -9999 -9999 -9999 -9999 -9999 -9999 -9999 -9999 -9999 -9999 -9999 -9999 -9999 -9999 -9999 -9999 -9999 -9999 -9999 -9999 -9999 -9999 -9999 -9999 -9999 -9999 -9999 -9999 -9999 -9999 -9999 -9999 -9999 -9999 -9999 -9999 -9999 -9999 -9999 -9999 -9999 -9999 -9999 -9999 -9999 -9999 -9999 -9999 -9999 -9999 -9999 -9999 -9999 -9999 -9999
-9999 -9999 -9999 -9999 -9999 -9999 -9999 -9999 -9999 -9999 -9999 -9999 -9999 -9999 -9999 -9999 -9999 -9999 -9999 -9999 739.274 -9999 -9999 -9999 -9999 -9999 -9999 -9999 -9999 -9999 -9999 -9999 -9999 -9999 -9999 -9999 -9999 -9999 -9999 -9999 -9999 -9999 -9999 -9999 -9999 -9999 -9999 -9999 -9999 -9999 -9999 -9999 -9999 -9999 -9999 -9999 -9999 -9999 -9999 -9999
-9999 -9999 717.375 717.41 717.76 718.192 718.562 718.773 -9999 -9999 -9999 -9999 -9999 -9999 -9999 -9999 -9999 -9999 -9999 738.942 739.152 739.247 -9999 -9999 -9999 -9999 -9999 -9999 -9999 -9999 -9999 -9999 -9999 -9999 -9999 -9999 -9999 -9999 -9999 -9999 -9999 -9999 -9999 -9999 -9999 -9999 -9999 -9999 -9999 -9999 -9999 -9999 -9999 -9999 -9999 -9999 -9999 -9999 -9999 -9999
-9999 717.364 717.4 717.426 717.789 718.224 718.596 718.844 719.052 -9999 -9999 -9999 -9999 -9999 -9999 -9999 736.843 737.346 737.969 738.624 739.016 739.219 -9999 -9999 -9999 -9999 -9999 -9999 -9999 -9999 -9999 -9999 -9999 -9999 -9999 -9999 -9999 -9999 -9999 -9999 -9999 -9999 -9999 -9999 -9999 -9999 -9999 -9999 -9999 -9999 -9999 -9999 -9999 -9999 -9999 -9999 -9999 -9999 -9999 -9999
717.344 717.389 717.427 717.453 717.837 718.333 718.645 718.868 719.133 -9999 -9999 -9999 -9999 -9999 734.098 735.021 736.279 737.142 737.892 738.536 738.951 739.271 739.483 -9999 -9999 -9999 -9999 -9999 -9999 -9999 -9999 -9999 -9999 -9999 -9999 -9999 -9999 -9999 -9999 -9999 -9999 -9999 -9999 -9999 -9999 -9999 -9999 -9999 -9999 -9999 -9999 -9999 -9999 -9999 -9999 -9999 -9999 -9999 -9999 -9999
717.36 717.415 717.46 717.488 717.855 718.42 718.767 -9999 -9999 722.715 724.643 725.893 -9999 -9999 733.074 734.557 735.852 736.869 737.717 738.411 738.939 739.316 739.577 739.741 -9999 -9999 -9999 -9999 -9999 -9999 -9999 -9999 -9999 -9999 -9999 -9999 -9999 -9999 -9999 -9999 -9999 -9999 -9999 -9999 -9999 -9999 -9999 -9999 -9999 -9999 -9999 -9999 -9999 -9999 -9999 -9999 -9999 -9999 -9999 -9999
717.384 717.45 717.5 717.533 717.957 718.644 719.203 719.594 -9999 -9999 725.112 726.659 728.484 730.638 732.65 734.264 735.611 736.706 737.626 738.375 738.956 739.373 739.646 739.785 -9999 -9999 -9999 -9999 -9999 -9999 -9999 -9999 -9999 -9999 -9999 -9999 -9999 -9999 -9999 -9999 -9999 -9999 -9999 -9999 -9999 -9999 -9999 -9999 -9999 -9999 -9999 -9999 -9999 -9999 -9999 -9999 -9999 -9999 -9999 -9999
717.407 717.493 717.552 717.586 718.067 718.901 719.744 720.641 721.971 723.802 725.473 727.177 728.911 730.775 732.57 734.117 735.483 736.628 737.6 738.392 739.015 739.459 739.733 739.851 -9999 -9999 -9999 -9999 -9999 -9999 -9999 -9999 -9999 -9999 -9999 -9999 -9999 -9999 -9999 -9999 -9999 -9999 -9999 -9999 -9999 -9999 -9999 -9999 -9999 -9999 -9999 -9999 -9999 -9999 -9999 -9999 -9999 -9999 -9999 -9999
-9999 717.559 717.618 717.65 718.229 719.085 720.075 721.158 722.529 724.118 725.776 727.45 729.19 730.916 732.602 734.101 735.469 736.636 737.639 738.471 739.129 739.592 739.857 739.914 -9999 -9999 -9999 -9999 -9999 -9999 -9999 -9999 -9999 -9999 -9999 -9999 -9999 -9999 -9999 -9999 -9999 -9999 -9999 -9999 -9999 -9999 -9999 -9999 -9999 -9999 -9999 -9999 -9999 -9999 -9999 -9999 -9999 -9999 -9999 -9999
-9999 -9999 717.707 717.72 718.248 719.168 720.197 721.32 722.652 724.181 725.88 727.613 729.38 731.052 732.68 734.175 735.532 736.711 737.749 738.624 739.313 739.805 740.075 -9999 -9999 -9999 -9999 -9999 -9999 -9999 -9999 -9999 -9999 -9999 -9999 -9999 -9999 -9999 -9999 -9999 -9999 -9999 -9999 -9999 -9999 -9999 -9999 -9999 -9999 -9999 -9999 -9999 -9999 -9999 -9999 -9999 -9999 -9999 -9999 -9999
-9999 -9999 717.77 717.778 718.304 719.106 720.125 721.2 722.408 723.868 725.73 727.641 729.45 731.16 732.782 734.274 735.641 736.856 737.929 738.835 739.577 740.123 740.445 -9999 -9999 -9999 -9999 -9999 -9999 -9999 -9999 -9999 -9999 -9999 -9999 -9999 -9999 -9999 -9999 -9999 -9999 -9999 -9999 -9999 -9999 -9999 -9999 -9999 -9999 -9999 -9999 -9999 -9999 -9999 -9999 -9999 -9999 -9999 -9999 -9999
-9999 -9999 717.806 717.82 718.588 -9999 719.926 720.896 721.762 722.922 725.338 727.579 729.467 731.222 732.892 734.425 735.823 737.052 738.134 739.09 739.9 740.56 741.013 -9999 -9999 -9999 -9999 -9999 -9999 -9999 -9999 -9999 -9999 -9999 -9999 -9999 -9999 -9999 -9999 -9999 -9999 -9999 -9999 -9999 -9999 -9999 -9999 -9999 -9999 -9999 -9999 -9999 -9999 -9999 -9999 -9999 -9999 -9999 -9999 -9999
-9999 -9999 -9999 718.749 719.041 -9999 719.802 720.646 -9999 -9999 -9999 -9999 729.475 731.256 733.022 734.628 736.02 737.224 738.343 739.355 740.265 741.105 741.911 742.835 -9999 -9999 -9999 -9999 748.739 -9999 -9999 -9999 -9999 -9999 -9999 -9999 -9999 -9999 -9999 -9999 -9999 -9999 -9999 -9999 -9999 -9999 -9999 -9999 -9999 -9999 -9999 -9999 -9999 -9999 -9999 -9999 -9999 -9999 -9999 -9999
-9999 -9999 -9999 719.344 719.407 -9999 719.971 720.893 721.25 721.34 -9999 726.462 729.012 731.242 733.187 734.806 736.162 737.405 738.567 739.626 740.633 741.596 742.565 743.655 745.032 746.207 747.129 747.932 748.659 749.196 749.546 -9999 -9999 -9999 -9999 -9999 -9999 -9999 -9999 -9999 -9999 -9999 -9999 -9999 -9999 -9999 -9999 -9999 -9999 -9999 -9999 -9999 -9999 -9999 -9999 -9999 -9999 -9999 -9999 -9999
-9999 -9999 -9999 719.824 719.836 -9999 -9999 -9999 721.351 -9999 -9999 725.859 -9999 -9999 733.442 734.964 736.361 737.611 738.798 739.893 740.953 741.956 742.978 744.057 745.216 746.266 747.158 747.954 748.701 749.307 749.806 750.244 -9999 -9999 -9999 -9999 -9999 -9999 -9999 -9999 -9999 -9999 -9999 -9999 -9999 -9999 -9999 -9999 -9999 -9999 -9999 -9999 -9999 -9999 -9999 -9999 -9999 -9999 -9999 -9999
-9999 -9999 -9999 720.29 720.289 -9999 -9999 721.773 -9999 -9999 -9999 -9999 -9999 731.933 733.696 735.247 736.632 737.856 739.04 740.131 741.179 742.203 743.23 744.343 745.379 746.287 747.184 748.01 748.785 749.448 750.068 750.595 751.055 -9999 -9999 -9999 -9999 -9999 -9999 -9999 -9999 -9999 -9999 -9999 -9999 -9999 -9999 -9999 -9999 -9999 -9999 -9999 -9999 -9999 -9999 -9999 -9999 -9999 -9999 -9999
-9999 -9999 -9999 720.729 720.699 721.017 721.534 722.246 723.13 723.912 -9999 -9999 730.051 732.351 734.176 735.679 736.986 738.122 739.217 740.316 741.298 742.341 743.421 744.459 745.398 746.292 747.222 748.083 748.912 749.66 750.36 750.972 751.429 -9999 -9999 -9999 -9999 -9999 -9999 765.347 765.564 765.822 766.13 766.341 -9999 -9999 -9999 -9999 -9999 -9999 -9999 -9999 -9999 -9999 -9999 -9999 -9999 -9999 -9999 -9999
-9999 -9999 -9999 721.143 720.93 -9999 -9999 722.789 723.651 724.786 726.408 727.698 731.777 733.686 735.126 736.399 737.458 738.354 739.242 740.291 741.394 742.479 743.461 744.378 745.369 746.32 747.275 748.145 749.057 749.887 750.707 751.464 752.198 753.051 -9999 -9999 -9999 -9999 -9999 765.07 765.366 765.76 766.153 766.425 -9999 -9999 -9999 -9999 -9999 -9999 -9999 -9999 -9999 -9999 -9999 -9999 -9999 -9999 -9999 -9999
-9999 -9999 -9999 721.742 721.672 -9999 -9999 723.61 724.891 726.382 728.414 730.979 733.138 734.283 735.565 736.742 737.658 738.195 739.12 740.338 741.446 742.376 743.305 744.304 745.332 746.307 747.296 748.22 749.165 750.135 750.94 751.811 752.719 753.692 754.841 -9999 -9999 -9999 763.578 764.431 765.065 765.669 766.228 766.652 -9999 -9999 -9999 -9999 -9999 -9999 -9999 -9999 -9999 -9999 -9999 -9999 -9999 -9999 -9999 -9999
-9999 -9999 -9999 722.362 722.824 723.035 -9999 725.394 726.681 728.24 730.102 732.528 733.758 734.742 735.828 736.932 737.926 738.466 -9999 -9999 741.466 742.178 743.147 744.19 745.267 746.278 747.314 748.344 749.237 750.151 751.109 752.101 753.237 754.436 755.713 757.551 759.282 760.927 762.691 763.875 764.8 765.607 766.397 767.231 767.979 -9999 -9999 -9999 -9999 -9999 -9999 -9999 -9999 -9999 -9999 -9999 -9999 -9999 -9999 -9999
-9999 -9999 -9999 -9999 724.155 724.598 725.581 726.703 728.054 729.612 731.285 733.033 734.453 735.558 736.638 737.864 738.67 739.256 740.12 740.82 741.451 741.86 742.815 743.992 745.176 746.278 747.3 748.225 749.22 750.19 751.207 752.285 753.496 754.778 756.2 757.682 759.232 760.783 762.283 763.544 764.63 765.605 766.589 767.614 768.517 769.461 770.08 770.492 770.694 -9999 -9999 -9999 -9999 -9999 -9999 -9999 -9999 -9999 -9999 -9999
-9999 -9999 -9999 -9999 725.001 725.687 726.537 727.649 729.035 730.632 732.366 733.99 735.495 736.748 737.733 738.747 739.202 739.696 740.37 741.026 741.628 741.889 742.664 743.841 745.145 746.175 747.149 748.143 749.138 750.129 751.185 752.263 753.504 754.916 756.306 757.73 759.25 760.659 762.114 763.393 764.612 765.67 766.767 767.857 768.776 769.575 770.164 770.572 770.793 -9999 -9999 -9999 -9999 -9999 -9999 -9999 -9999 -9999 -9999 -9999
-9999 -9999 -9999 -9999 -9999 726.466 727.104 728.172 729.586 731.303 733.403 735.025 736.649 737.907 738.749 739.545 740.078 740.601 741.172 741.794 742.167 -9999 -9999 -9999 745.077 745.985 747.034 748.009 748.973 749.962 750.953 752.08 753.363 754.714 756.146 757.608 759.068 760.607 762.011 763.341 764.662 765.803 766.949 768.066 768.989 769.735 770.308 770.726 771.01 771.224 -9999 -9999 -9999 -9999 -9999 -9999 -9999 -9999 -9999 -9999
-9999 -9999 -9999 -9999 -9999 -9999 -9999 -9999 -9999 -9999 734.755 735.977 737.964 739.129 739.959 740.708 741.299 741.821 742.253 742.667 742.846 742.847 743.102 744.035 744.949 745.859 746.84 747.804 748.694 749.62 750.591 751.672 753.015 754.398 755.792 757.197 758.773 760.351 762.013 763.435 764.745 766.01 767.172 768.263 769.186 769.925 770.485 770.909 771.225 771.364 771.431 -9999 -9999 -9999 -9999 -9999 -9999 -9999 -9999 -9999
-9999 -9999 -9999 -9999 -9999 -9999 -9999 -9999 -9999 -9999 -9999 -9999 739.74 740.499 741.226 741.985 742.542 742.974 743.307 743.536 743.629 -9999 -9999 744.425 744.911 745.699 746.569 747.43 748.334 749.191 750.005 750.947 752.496 753.932 755.273 756.58 758.051 760.011 761.811 763.512 765.006 766.206 767.475 768.525 769.468 770.187 770.727 771.175 771.344 771.393 771.416 -9999 -9999 -9999 -9999 -9999 -9999 -9999 -9999 -9999
-9999 -9999 -9999 -9999 -9999 -9999 -9999 -9999 -9999 -9999 -9999 -9999 740.765 741.749 742.53 743.251 743.798 744.203 744.445 744.521 744.514 -9999 -9999 745.437 -9999 -9999 746.318 747.082 747.983 748.748 749.218 749.602 -9999 753.457 754.609 755.67 756.821 -9999 761.789 763.592 765.19 766.599 767.781 768.802 769.777 770.476 771.111 771.355 771.395 771.417 -9999 -9999 -9999 -9999 -9999 -9999 -9999 -9999 -9999 -9999
-9999 -9999 -9999 -9999 -9999 -9999 -9999 -9999 -9999 -9999 -9999 -9999 -9999 742.905 743.883 744.628 745.133 745.485 745.641 745.563 745.433 -9999 -9999 746.394 -9999 -9999 -9999 -9999 -9999 748.684 -9999 -9999 -9999 -9999 753.994 754.684 -9999 -9999 761.923 763.833 765.479 766.878 768.123 769.255 770.147 771.005 771.366 771.477 771.472 771.458 -9999 -9999 -9999 -9999 -9999 -9999 -9999 -9999 -9999 -9999
-9999 -9999 -9999 -9999 -9999 -9999 -9999 -9999 -9999 -9999 -9999 -9999 -9999 -9999 745.595 746.124 746.615 746.874 746.924 746.727 746.341 746.664 746.899 746.995 -9999 749.466 -9999 -9999 -9999 749.507 749.356 -9999 -9999 753.27 753.722 -9999 -9999 -9999 762.359 764.244 765.927 767.306 768.551 769.707 770.768 771.326 771.53 771.621 771.595 -9999 -9999 -9999 -9999 -9999 -9999 -9999 -9999 -9999 -9999 -9999
-9999 -9999 -9999 -9999 -9999 -9999 -9999 -9999 -9999 -9999 -9999 -9999 -9999 -9999 746.688 747.601 748.161 748.354 748.368 748.215 747.852 747.959 748.272 748.938 750.252 750.472 -9999 -9999 -9999 751.036 -9999 -9999 753.209 754.224 -9999 -9999 -9999 -9999 763.177 764.842 766.339 767.712 769.056 770.475 771.148 771.455 771.679 771.835 -9999 -9999 -9999 -9999 -9999 -9999 -9999 -9999 -9999 -9999 -9999 -9999
-9999 -9999 -9999 -9999 -9999 -9999 -9999 -9999 -9999 -9999 -9999 -9999 -9999 -9999 -9999 749.64 749.793 749.896 749.894 749.875 749.767 749.894 750.157 750.589 750.86 751.22 751.942 752.593 753.952 -9999 -9999 755.911 -9999 756.182 -9999 758.906 760.324 762.173 763.874 765.383 766.846 768.152 769.462 770.774 771.326 771.599 771.858 772.109 773.503 774.733 775.575 776.094 776.361 -9999 -9999 -9999 -9999 -9999 -9999 -9999
-9999 -9999 -9999 -9999 -9999 -9999 -9999 -9999 -9999 -9999 -9999 -9999 -9999 -9999 -9999 751.389 751.392 751.404 751.426 751.443 751.465 751.619 751.809 752.075 752.188 752.576 753.273 754.448 755.873 756.556 756.968 757.123 -9999 758.099 759.18 760.143 761.534 762.966 764.501 765.988 767.363 768.687 769.871 771.013 771.494 771.716 772.28 773.04 774.105 775.058 775.765 776.266 776.537 -9999 -9999 -9999 -9999 -9999 -9999 -9999
-9999 -9999 -9999 -9999 -9999 -9999 -9999 -9999 -9999 -9999 -9999 -9999 -9999 -9999 -9999 753.092 752.939 752.91 752.919 752.957 753.025 753.201 753.446 753.754 754.051 754.529 755.199 756.132 756.811 757.195 757.57 757.893 758.823 759.586 760.436 761.278 762.415 763.818 765.329 766.698 768.082 769.222 770.414 771.212 771.633 771.868 772.797 773.775 774.648 775.41 776.086 776.567 776.875 -9999 -9999 -9999 -9999 -9999 -9999 -9999
-9999 -9999 -9999 -9999 -9999 -9999 -9999 -9999 -9999 -9999 -9999 -9999 -9999 -9999 755.563 754.742 754.427 754.314 754.302 754.35 754.483 754.67 754.97 755.317 755.716 756.203 756.822 757.413 757.721 757.97 758.302 758.793 759.574 760.349 761.09 761.703 762.961 764.595 766.173 767.571 768.785 770.019 770.742 771.069 771.79 772.592 773.541 774.356 775.095 775.807 776.443 776.977 777.445 778.016 -9999 -9999 -9999 -9999 -9999 -9999
-9999 -9999 -9999 -9999 -9999 -9999 -9999 -9999 -9999 -9999 -9999 -9999 -9999 756.909 756.392 755.921 755.702 755.607 755.61 755.675 755.855 756.083 756.391 756.784 757.239 757.759 758.385 758.605 758.566 758.69 758.875 759.353 760.021 760.719 761.445 762.09 763.723 765.484 767.021 768.258 769.449 770.329 770.881 771.168 772.244 773.169 773.998 774.749 775.477 776.146 776.817 777.395 777.935 778.451 778.886 -9999 -9999 -9999 -9999 -9999
-9999 -9999 -9999 -9999 -9999 -9999 -9999 -9999 -9999 -9999 -9999 -9999 757.688 757.409 757.127 756.89 756.773 756.747 756.806 756.918 757.121 757.391 757.725 758.135 758.616 759.071 759.428 759.45 759.306 759.349 759.685 760.306 761.047 761.707 762.502 763.489 765.063 766.56 767.905 769.098 769.898 770.257 771.067 771.869 772.715 773.554 774.352 775.105 775.857 776.546 777.18 777.742 778.303 778.795 779.234 779.652 779.846 -9999 -9999 -9999
-9999 -9999 -9999 -9999 -9999 -9999 -9999 -9999 -9999 -9999 -9999 -9999 757.932 757.87 757.793 757.734 757.722 757.778 757.895 758.062 758.297 758.599 758.966 759.375 759.923 760.098 760.028 759.98 759.853 759.941 760.713 761.574 762.39 763.092 764.082 765.141 766.399 767.669 768.784 769.581 770.088 770.421 771.372 772.262 773.083 773.92 774.748 775.512 776.243 776.928 777.574 778.134 778.645 779.096 779.485 779.788 779.949 -9999 -9999 -9999
-9999 -9999 -9999 -9999 -9999 -9999 -9999 -9999 -9999 -9999 -9999 758.221 758.167 758.303 758.41 758.484 758.588 758.721 758.882 759.093 759.378 759.714 760.104 760.5 760.777 760.78 760.619 760.595 760.686 761.106 761.968 762.798 763.602 764.351 765.405 766.483 767.598 768.632 769.424 769.758 770.247 770.91 771.799 772.647 773.491 774.324 775.138 775.898 776.629 777.311 777.934 778.477 778.965 779.389 779.732 779.985 780.119 -9999 -9999 -9999
-9999 -9999 -9999 -9999 -9999 -9999 -9999 -9999 -9999 -9999 -9999 -9999 -9999 758.7 759.033 759.219 759.4 759.61 759.826 760.093 760.411 760.767 761.21 761.347 761.276 761.223 761.076 761.112 761.688 762.349 763.141 763.947 764.762 765.58 766.474 767.494 768.56 769.306 769.74 769.99 770.577 771.413 772.29 773.126 773.95 774.74 775.561 776.302 777.017 777.684 778.285 778.815 779.282 779.67 779.984 780.21 780.335 -9999 -9999 -9999
-9999 -9999 -9999 -9999 -9999 -9999 -9999 -9999 -9999 -9999 -9999 -9999 -9999 -9999 759.775 759.932 760.172 760.427 760.694 761.005 761.343 761.672 761.916 761.918 761.783 761.747 761.804 762.118 762.783 763.478 764.243 765.018 765.803 766.632 767.496 768.561 769.362 769.715 769.981 770.245 770.942 771.875 772.757 773.597 774.395 775.166 775.943 776.695 777.405 778.049 778.642 779.143 779.579 779.943 780.234 780.449 780.581 -9999 -9999 -9999
-9999 -9999 -9999 -9999 -9999 -9999 -9999 -9999 -9999 -9999 -9999 -9999 -9999 -9999 760.335 760.533 760.882 761.21 761.518 761.858 762.256 762.386 762.335 762.304 762.185 762.223 762.706 763.274 763.893 764.573 765.302 766.028 766.793 767.56 768.34 769.207 769.733 769.987 770.22 770.515 771.389 772.371 773.27 774.078 774.867 775.617 776.38 777.107 777.768 778.379 778.929 779.461 779.869 780.206 780.484 780.7 780.813 781.001 -9999 -9999
-9999 -9999 -9999 -9999 -9999 -9999 -9999 -9999 -9999 -9999 -9999 -9999 -9999 -9999 760.662 760.947 761.595 761.955 762.283 762.61 762.829 762.852 762.764 762.755 762.813 763.088 763.737 764.35 764.948 765.59 766.302 767.002 767.716 768.415 769.102 769.742 770.094 770.276 770.631 771.234 772.102 772.963 773.814 774.599 775.345 776.077 776.836 777.5 778.139 778.723 779.246 779.696 780.079 780.397 780.647 780.842 780.989 781.092 -9999 -9999
-9999 -9999 -9999 -9999 -9999 -9999 -9999 -9999 -9999 -9999 -9999 -9999 -9999 -9999 -9999 -9999 762.506 762.708 763.047 763.175 763.167 763.17 763.107 763.164 763.605 764.127 764.682 765.303 765.955 766.605 767.26 767.945 768.634 769.294 769.952 770.329 770.429 770.607 771.273 771.997 772.803 773.591 774.375 775.118 775.852 776.552 777.236 777.913 778.499 779.051 779.546 779.965 780.318 780.607 780.83 780.998 781.117 781.186 -9999 -9999
-9999 -9999 -9999 -9999 -9999 -9999 -9999 -9999 -9999 -9999 -9999 -9999 -9999 -9999 -9999 -9999 763.176 763.32 763.457 763.505 763.5 763.54 763.649 763.938 764.505 765.06 765.648 766.234 766.903 767.556 768.204 768.877 769.548 770.163 770.592 770.759 770.934 771.308 772.037 772.752 773.48 774.2 774.944 775.642 776.333 777.006 777.661 778.293 778.843 779.36 779.821 780.21 780.533 780.789 780.977 781.104 781.19 781.242 -9999 -9999
-9999 -9999 -9999 -9999 -9999 -9999 -9999 -9999 -9999 -9999 -9999 -9999 -9999 -9999 -9999 -9999 763.708 763.728 763.646 763.695 763.764 763.878 764.356 764.853 765.403 765.963 766.575 767.186 767.823 768.478 769.161 769.837 770.545 770.884 770.908 771.046 771.608 772.222 772.812 773.466 774.159 774.824 775.502 776.168 776.829 777.455 778.067 778.65 779.169 779.651 780.078 780.434 780.726 780.946 781.089 781.149 -9999 -9999 -9999 -9999
-9999 -9999 -9999 -9999 -9999 -9999 -9999 -9999 -9999 -9999 -9999 -9999 -9999 -9999 -9999 -9999 763.919 763.941 764.001 764.144 764.331 764.627 765.189 765.717 766.272 766.83 767.443 768.065 768.704 769.366 770.075 770.769 771.237 771.383 771.454 771.8 772.421 773.021 773.563 774.178 774.807 775.434 776.052 776.666 777.304 777.895 778.48 779.009 779.531 779.925 780.313 780.638 780.897 781.082 781.184 -9999 -9999 -9999 -9999 -9999
-9999 -9999 -9999 -9999 -9999 -9999 -9999 -9999 -9999 -9999 -9999 -9999 -9999 -9999 -9999 -9999 763.983 764.028 764.406 764.717 765.071 765.513 766.078 766.588 767.134 767.703 768.301 768.912 769.568 770.264 771.033 771.47 771.619 771.73 772.088 772.638 773.214 773.775 774.321 774.847 775.434 776.01 776.598 777.169 777.77 778.326 778.868 779.353 779.802 780.218 780.525 780.819 781.05 781.202 781.276 -9999 -9999 -9999 -9999 -9999
-9999 -9999 -9999 -9999 -9999 -9999 -9999 -9999 -9999 -9999 -9999 -9999 -9999 -9999 -9999 -9999 -9999 -9999 764.996 765.259 765.705 766.338 766.923 767.432 767.965 768.525 769.109 769.697 770.367 771.125 771.661 771.855 771.944 772.075 772.644 773.338 773.929 774.493 775.008 775.492 776.049 776.58 777.117 777.651 778.218 778.73 779.215 779.65 780.061 780.442 780.72 780.984 781.183 781.303 781.34 -9999 -9999 -9999 -9999 -9999
-9999 -9999 -9999 -9999 -9999 -9999 -9999 -9999 -9999 -9999 -9999 -9999 -9999 -9999 -9999 -9999 -9999 -9999 765.327 765.61 766.211 767.174 767.786 768.29 768.813 769.35 769.908 770.472 771.076 771.696 772.007 772.136 772.206 772.367 773.238 774.023 774.64 775.185 775.674 776.134 776.622 777.128 777.624 778.119 778.62 779.082 779.528 779.922 780.315 780.65 780.901 781.135 781.301 781.39 -9999 -9999 -9999 -9999 -9999 -9999
-9999 -9999 -9999 -9999 -9999 -9999 -9999 -9999 -9999 -9999 -9999 -9999 -9999 -9999 -9999 -9999 -9999 -9999 -9999 -9999 -9999 768.269 768.661 769.128 769.655 770.18 770.685 771.218 771.751 772.193 772.35 772.438 772.789 773.337 774.084 774.768 775.341 775.854 776.316 776.741 777.199 777.644 778.103 778.549 778.993 779.421 779.825 780.184 780.545 780.848 781.067 781.269 781.403 781.469 -9999 -9999 -9999 -9999 -9999 -9999
-9999 -9999 -9999 -9999 -9999 -9999 -9999 -9999 -9999 -9999 -9999 -9999 -9999 -9999 -9999 -9999 -9999 -9999 -9999 -9999 -9999 768.927 769.513 769.966 770.471 770.967 771.468 772 772.64 772.85 772.654 772.736 773.531 774.278 774.949 775.544 776.048 776.529 776.928 777.326 777.75 778.155 778.575 778.964 779.346 779.732 780.107 780.436 780.756 780.989 781.215 781.381 781.482 781.519 -9999 -9999 -9999 -9999 -9999 -9999
-9999 -9999 -9999 -9999 -9999 -9999 -9999 -9999 -9999 -9999 -9999 -9999 -9999 -9999 -9999 -9999 -9999 -9999 -9999 -9999 -9999 -9999 770.416 770.749 771.217 771.704 772.244 772.839 773.108 773.213 773.345 773.774 774.504 775.174 775.768 776.299 776.74 777.124 777.502 777.869 778.276 778.66 779.01 779.355 779.696 780.027 780.365 780.67 780.947 781.148 781.339 781.468 781.535 -9999 -9999 -9999 -9999 -9999 -9999 -9999
-9999 -9999 -9999 -9999 -9999 -9999 -9999 -9999 -9999 -9999 -9999 -9999 -9999 -9999 -9999 -9999 -9999 -9999 -9999 -9999 -9999 -9999 770.956 771.42 771.933 772.491 773.157 773.419 773.357 773.45 774.149 774.863 775.472 776.036 776.555 777.005 777.37 777.728 778.098 778.429 778.788 779.126 779.426 779.732 780.021 780.304 780.615 780.875 781.123 781.287 781.434 781.527 781.573 -9999 -9999 -9999 -9999 -9999 -9999 -9999
-9999 -9999 -9999 -9999 -9999 -9999 -9999 -9999 -9999 -9999 -9999 -9999 -9999 -9999 -9999 -9999 -9999 -9999 -9999 -9999 -9999 -9999 -9999 772.024 772.595 773.259 773.617 773.756 773.906 774.345 775.173 775.819 776.348 776.827 777.291 777.684 777.963 778.315 778.611 778.928 779.249 779.554 779.808 780.072 780.321 780.564 780.839 781.069 781.273 781.398 781.499 781.553 -9999 -9999 -9999 -9999 -9999 -9999 -9999 -9999
-9999 -9999 -9999 -9999 -9999 -9999 -9999 -9999 -9999 -9999 -9999 -9999 -9999 -9999 -9999 -9999 -9999 -9999 -9999 -9999 -9999 -9999 -9999 -9999 773.136 773.738 773.885 774.025 774.553 775.383 776.098 776.682 777.146 777.564 777.987 778.286 778.576 778.867 779.13 779.417 779.687 779.944 780.168 780.396 780.628 780.833 781.056 781.252 781.415 781.488 781.533 -9999 -9999 -9999 -9999 -9999 -9999 -9999 -9999 -9999
-9999 -9999 -9999 -9999 -9999 -9999 -9999 -9999 -9999 -9999 -9999 -9999 -9999 -9999 -9999 -9999 -9999 -9999 -9999 -9999 -9999 -9999 -9999 -9999 -9999 773.966 774.063 774.306 775.213 776.276 776.952 777.477 777.888 778.255 778.609 778.848 779.152 779.364 779.625 779.871 780.098 780.312 780.508 780.697 780.899 781.079 781.257 781.408 781.531 781.569 -9999 -9999 -9999 -9999 -9999 -9999 -9999 -9999 -9999 -9999
-9999 -9999 -9999 -9999 -9999 -9999 -9999 -9999 -9999 -9999 -9999 -9999 -9999 -9999 -9999 -9999 -9999 -9999 -9999 -9999 -9999 -9999 -9999 -9999 -9999 -9999 -9999 774.701 776.154 777.159 777.769 778.215 778.561 778.88 779.15 779.426 779.636 779.849 780.086 780.295 780.49 780.645 780.828 780.99 781.158 781.296 781.429 781.542 781.632 781.653 781.729 -9999 -9999 -9999 -9999 -9999 -9999 -9999 -9999 -9999
-9999 -9999 -9999 -9999 -9999 -9999 -9999 -9999 -9999 -9999 -9999 -9999 -9999 -9999 -9999 -9999 -9999 -9999 -9999 -9999 -9999 -9999 -9999 -9999 -9999 -9999 -9999 -9999 777.871 778.223 778.577 778.9 779.171 779.465 779.682 779.898 780.083 780.28 780.475 780.657 780.804 780.952 781.093 781.227 781.352 781.462 781.561 781.639 781.689 -9999 -9999 -9999 -9999 -9999 -9999 -9999 -9999 -9999 -9999 -9999
-9999 -9999 -9999 -9999 -9999 -9999 -9999 -9999 -9999 -9999 -9999 -9999 -9999 -9999 -9999 -9999 -9999 -9999 -9999 -9999 -9999 -9999 -9999 -9999 -9999 -9999 -9999 -9999 778.914 779.074 779.281 779.503 779.716 779.93 780.156 780.352 780.489 780.678 780.835 780.979 781.107 781.217 781.327 781.424 781.522 781.592 781.599 781.691 781.725 -9999 -9999 -9999 -9999 -9999 -9999 -9999 -9999 -9999 -9999 -9999
-9999 -9999 -9999 -9999 -9999 -9999 -9999 -9999 -9999 -9999 -9999 -9999 -9999 -9999 -9999 -9999 -9999 -9999 -9999 -9999 -9999 -9999 -9999 -9999 -9999 -9999 -9999 -9999 779.669 779.743 779.865 780.017 780.193 780.364 780.571 780.706 780.855 781.008 781.137 781.258 781.344 781.427 781.512 781.574 781.596 781.674 -9999 -9999 -9999 -9999 -9999 -9999 -9999 -9999 -9999 -9999 -9999 -9999 -9999 -9999
-9999 -9999 -9999 -9999 -9999 -9999 -9999 -9999 -9999 -9999 -9999 -9999 -9999 -9999 -9999 -9999 -9999 -9999 -9999 -9999 -9999 -9999 -9999 -9999 -9999 -9999 -9999 -9999 780.249 780.269 780.335 780.446 780.58 780.724 780.865 781.042 781.128 781.249 781.4 781.479 781.546 781.602 781.644 781.623 781.696 781.719 -9999 -9999 -9999 -9999 -9999 -9999 -9999 -9999 -9999 -9999 -9999 -9999 -9999 -9999
-9999 -9999 -9999 -9999 -9999 -9999 -9999 -9999 -9999 -9999 -9999 -9999 -9999 -9999 -9999 -9999 -9999 -9999 -9999 -9999 -9999 -9999 -9999 -9999 -9999 -9999 -9999 780.908 780.694 780.638 780.666 780.747 780.862 781.006 781.14 781.261 781.369 781.469 781.59 781.65 781.701 781.726 781.68 -9999 -9999 -9999 -9999 -9999 -9999 -9999 -9999 -9999 -9999 -9999 -9999 -9999 -9999 -9999 -9999 -9999
-9999 -9999 -9999 -9999 -9999 -9999 -9999 -9999 -9999 -9999 -9999 -9999 -9999 -9999 -9999 -9999 -9999 -9999 -9999 -9999 -9999 -9999 -9999 -9999 -9999 -9999 781.133 781.008 780.874 780.817 780.832 780.905 781.028 781.218 781.346 781.462 781.556 781.628 781.685 781.733 781.763 781.762 -9999 -9999 -9999 -9999 -9999 -9999 -9999 -9999 -9999 -9999 -9999 -9999 -9999 -9999 -9999 -9999 -9999 -9999
-9999 -9999 -9999 -9999 -9999 -9999 -9999 -9999 -9999 -9999 -9999 -9999 -9999 -9999 -9999 -9999 -9999 -9999 -9999 -9999 -9999 -9999 -9999 -9999 -9999 -9999 -9999 -9999 -9999 -9999 -9999 -9999 -9999 781.397 781.48 781.607 781.678 781.718 781.762 781.798 781.821 -9999 -9999 -9999 -9999 -9999 -9999 -9999 -9999 -9999 -9999 -9999 -9999 -9999 -9999 -9999 -9999 -9999 -9999 -9999
-9999 -9999 -9999 -9999 -9999 -9999 -9999 -9999 -9999 -9999 -9999 -9999 -9999 -9999 -9999 -9999 -9999 -9999 -9999 -9999 -9999 -9999 -9999 -9999 -9999 -9999 -9999 -9999 -9999 -9999 -9999 -9999 -9999 -9999 -9999 781.722 781.743 -9999 -9999 -9999 -9999 -9999 -9999 -9999 -9999 -9999 -9999 -9999 -9999 -9999 -9999 -9999 -9999 -9999 -9999 -9999 -9999 -9999 -9999 -9999
-9999 -9999 -9999 -9999 -9999 -9999 -9999 -9999 -9999 -9999 -9999 -9999 -9999 -9999 -9999 -9999 -9999 -9999 -9999 -9999 -9999 -9999 -9999 -9999 -9999 -9999 -9999 -9999 -9999 -9999 -9999 -9999 -9999 -9999 -9999 -9999 -9999 -9999 -9999 -9999 -9999 -9999 -9999 -9999 -9999 -9999 -9999 -9999 -9999 -9999 -9999 -9999 -9999 -9999 -9999 -9999 -9999 -9999 -9999 -9999
