ncols         60
nrows         65
xllcorner     739300
yllcorner     4553050
cellsize      50
NODATA_value  -9999
739.09 737.35 736.23 735.24 736.19 740.80 742.49 742.38 744.01 746.09 747.76 749.54 751.20 751.35 752.06 754.19 756.17 757.28 758.75 760.98 762.19 762.34 761.85 761.36 760.83 760.09 759.20 759.23 760.51 762.43 764.03 765.58 766.92 769.43 772.23 774.76 775.38 775.04 776.23 777.68 779.58 781.12 782.12 783.27 784.73 785.41 786.39 787.06 787.29 787.55 788.26 788.30 788.94 789.18 789.45 790.66 791.67 792.30 792.19 792.59
738.33 736.86 735.62 735.63 737.58 742.21 743.63 744.73 744.23 745.95 748.61 751.00 752.66 753.26 753.85 754.68 756.69 758.40 759.81 761.60 762.50 762.16 761.81 761.41 761.27 760.69 759.54 760.31 761.07 761.37 762.39 763.64 765.27 767.24 769.37 771.26 772.73 774.34 776.04 777.95 779.88 781.46 782.52 783.98 785.32 786.71 788.34 788.45 788.27 788.80 789.34 789.48 789.94 790.41 790.42 791.22 792.04 792.61 791.93 791.92
737.58 736.28 735.38 736.10 737.69 741.65 743.60 745.44 745.92 746.79 748.42 751.05 753.56 754.63 755.32 756.34 758.18 759.09 760.08 761.32 762.77 762.71 762.69 762.15 761.73 760.87 760.57 761.04 762.41 762.27 762.96 763.97 765.48 767.22 769.46 771.36 773.70 775.34 776.71 778.40 780.52 781.94 783.20 784.61 786.48 788.16 789.19 789.46 789.73 790.12 790.77 790.42 790.95 791.28 791.40 791.73 792.39 792.49 792.18 791.71
737.10 735.72 735.99 736.58 737.97 741.09 743.01 745.67 747.62 748.35 749.38 751.41 753.72 755.34 756.75 757.75 759.10 758.98 759.34 760.78 761.98 762.60 762.84 762.66 763.06 762.29 761.47 761.38 763.22 763.19 763.30 764.59 765.89 767.31 769.07 771.19 772.99 775.28 776.82 778.74 780.84 782.22 783.87 785.90 788.12 790.12 790.07 790.65 790.87 791.44 792.13 791.68 792.13 792.41 792.11 792.34 792.65 792.30 791.91 791.28
736.10 736.11 736.72 737.82 738.80 739.74 742.41 746.95 748.94 749.51 750.98 753.02 755.23 756.87 757.17 757.14 757.37 758.27 759.16 760.28 761.13 762.05 762.74 763.20 763.44 763.02 761.77 762.01 763.57 764.41 764.00 764.77 766.25 768.23 769.66 771.17 773.31 775.23 777.17 778.98 781.06 782.73 784.49 786.87 789.70 792.06 791.74 792.09 792.33 792.75 792.89 792.85 792.86 792.68 792.40 792.45 792.30 792.12 791.50 790.64
736.03 736.31 737.70 738.64 740.73 741.40 741.60 744.69 747.92 749.84 750.50 750.62 753.22 754.61 755.58 756.94 758.06 759.32 760.73 761.86 761.93 762.26 763.16 763.47 763.36 762.93 762.44 762.79 764.54 765.44 765.52 764.97 766.29 768.37 769.89 771.50 773.63 775.73 777.27 779.13 781.49 783.43 785.29 787.85 790.87 793.49 793.57 793.36 793.39 793.41 793.59 793.48 793.29 792.73 792.37 792.24 791.84 791.48 790.98 790.29
736.24 736.47 737.96 739.42 740.85 742.64 743.59 743.89 746.36 747.01 747.42 749.06 751.43 753.72 755.63 757.57 758.59 759.63 761.04 762.38 763.00 763.23 763.38 763.51 763.73 763.74 763.47 763.41 764.85 766.04 766.71 765.96 766.85 768.23 769.30 771.06 773.28 775.31 777.90 780.22 782.40 784.30 786.65 789.14 792.05 794.37 794.66 794.68 794.38 794.22 794.27 793.70 793.56 793.17 792.76 792.21 791.75 791.07 790.59 790.27
735.93 736.82 737.96 738.90 740.45 743.10 745.34 746.30 746.84 746.94 747.64 749.47 751.59 753.77 755.29 756.77 758.70 760.33 761.78 763.07 763.92 764.00 764.14 764.23 764.36 764.75 764.46 764.75 765.55 767.01 767.35 766.86 767.52 768.80 769.57 772.12 774.19 776.45 779.00 781.45 783.40 785.43 787.74 789.94 793.47 795.86 796.37 795.55 795.02 794.78 794.50 793.95 793.70 793.37 792.62 792.20 791.79 791.22 790.40 789.79
736.52 737.79 738.07 738.99 740.12 742.26 744.80 747.52 749.14 749.08 749.46 750.17 751.69 753.65 755.87 757.41 759.33 760.57 762.01 763.73 764.16 764.35 764.58 764.53 764.55 764.99 765.36 765.70 766.28 767.93 768.18 767.90 768.11 769.71 770.68 772.35 774.79 777.48 779.40 781.12 783.01 785.36 788.19 790.94 794.97 797.22 796.76 795.75 795.25 795.16 794.66 794.00 793.82 793.27 792.65 792.08 791.62 791.20 790.27 789.36
738.61 739.75 739.38 739.07 740.55 742.78 745.25 747.65 749.55 750.49 751.10 751.91 753.52 754.87 756.60 758.54 759.72 761.03 762.72 764.01 764.17 764.55 765.01 765.00 764.93 765.40 766.24 766.81 767.20 768.27 768.82 769.06 769.08 770.24 772.05 772.76 773.97 775.82 777.90 779.55 782.05 784.65 787.77 791.53 796.49 797.75 796.55 795.13 794.99 795.12 794.80 794.11 793.69 793.04 792.64 791.73 791.13 790.53 789.43 788.35
739.71 741.12 741.47 739.32 740.42 742.79 746.04 749.05 750.89 751.85 752.71 753.60 754.42 755.93 757.08 758.64 760.48 762.16 763.43 764.22 764.08 764.33 765.06 765.07 765.23 765.71 766.54 767.37 768.10 768.84 769.66 770.17 769.96 770.45 771.99 773.20 775.19 776.83 777.94 779.05 781.16 783.60 786.47 790.54 795.39 796.52 795.90 795.15 794.87 794.81 794.61 794.09 793.62 793.12 792.17 791.30 790.84 790.02 788.55 787.19
740.65 742.33 742.99 741.53 740.18 743.72 747.48 749.26 750.72 752.94 754.73 755.92 756.04 757.35 758.65 760.39 761.44 761.71 762.30 763.02 763.41 764.31 765.02 765.36 765.43 765.94 766.91 767.66 768.39 769.10 769.91 770.81 770.76 770.91 772.16 773.41 775.54 777.41 779.27 780.36 781.94 783.94 786.21 789.18 791.76 793.52 794.44 795.13 795.05 794.78 794.50 794.00 793.42 792.96 792.30 791.43 790.79 789.68 788.18 786.65
740.98 742.77 743.65 742.94 740.51 743.49 747.20 748.58 751.49 753.06 754.65 756.78 757.73 758.83 760.38 761.18 760.09 759.80 761.19 762.25 763.50 764.74 765.25 765.63 765.89 766.47 767.60 767.94 768.46 769.29 769.86 770.85 771.32 771.55 772.54 774.00 776.01 777.74 779.92 781.53 783.72 785.97 788.37 791.08 792.50 793.74 795.30 795.83 795.46 794.88 794.73 794.00 793.34 792.23 791.68 791.06 790.18 788.77 787.42 786.48
741.15 742.69 744.06 742.52 741.09 744.22 748.13 750.26 751.26 751.57 754.04 756.56 758.80 759.43 759.39 758.86 758.37 759.92 761.40 762.73 764.21 765.03 765.30 765.88 766.28 766.50 766.44 766.84 767.96 768.87 769.56 770.69 771.73 772.51 773.05 774.37 776.37 778.27 780.73 782.49 784.64 787.15 790.08 793.63 795.61 795.75 795.98 795.88 795.29 794.78 794.77 793.99 793.06 792.01 791.20 790.44 789.37 788.17 787.28 786.82
741.47 742.81 744.17 743.05 742.30 747.97 748.99 749.64 749.21 752.19 755.11 757.45 757.18 757.40 756.77 757.25 758.37 760.20 762.20 763.65 764.19 763.92 765.10 765.83 765.31 764.84 764.88 765.88 767.22 768.21 769.21 770.34 771.51 772.57 773.80 775.08 776.79 778.52 780.67 782.77 785.19 787.77 791.37 795.56 797.28 797.36 796.70 796.09 795.33 794.88 794.41 793.59 792.52 791.76 790.93 789.93 788.99 788.23 787.72 787.40
742.28 743.34 744.49 744.35 743.18 749.68 749.08 745.69 748.08 750.36 754.37 756.01 754.94 754.08 755.97 758.22 759.74 761.26 762.79 762.33 761.85 762.98 764.79 764.31 763.19 763.00 764.31 765.74 767.06 768.17 769.35 770.56 771.63 772.68 773.84 775.58 777.36 778.77 780.65 782.79 785.54 788.55 792.30 797.55 799.76 798.25 797.14 796.24 795.54 794.63 793.75 792.92 791.96 791.21 790.58 789.93 789.22 788.77 788.21 787.60
743.61 744.42 745.73 745.56 743.45 746.10 744.35 744.97 745.98 747.62 751.48 753.18 752.11 753.72 756.34 759.34 760.92 760.81 760.14 759.62 760.58 763.01 763.40 761.59 761.57 762.46 764.39 766.07 767.72 768.96 770.13 771.05 772.29 773.24 774.10 775.67 777.62 779.01 781.05 782.91 785.91 789.51 793.11 798.97 800.98 799.02 797.43 796.18 795.32 794.44 793.51 792.68 791.90 791.29 790.71 790.37 789.93 789.34 788.61 788.27
745.02 745.73 746.71 747.70 746.19 745.53 746.81 748.33 747.86 747.16 747.65 748.07 751.95 755.01 757.75 760.09 759.09 757.32 757.80 759.84 761.65 761.47 760.36 760.17 761.73 763.65 765.16 766.79 768.99 770.03 770.39 770.59 771.49 773.11 774.42 775.72 777.70 779.21 781.20 783.42 786.51 789.96 794.13 799.14 800.30 798.85 797.47 796.21 795.19 794.40 793.55 792.86 792.13 791.75 791.25 790.81 790.50 789.84 789.03 788.88
745.95 746.94 748.27 749.06 748.31 749.26 751.27 751.38 750.46 750.55 750.50 749.25 748.91 750.37 755.54 757.27 755.43 754.59 757.55 759.73 758.87 758.14 758.83 760.37 762.14 763.93 766.21 767.66 769.32 768.82 768.61 770.09 770.85 771.94 773.66 775.67 778.02 779.43 781.66 784.23 787.28 790.82 795.47 800.49 800.20 798.56 797.20 795.74 794.91 794.24 793.60 793.04 792.46 792.04 791.59 791.36 791.01 790.15 789.31 789.54
746.51 748.10 749.67 750.58 750.31 751.17 753.04 753.51 753.13 752.57 752.20 752.24 752.03 750.39 750.24 751.19 751.41 752.03 753.82 755.40 756.31 758.03 759.39 761.27 762.87 764.47 766.46 766.61 766.99 767.73 769.23 771.22 772.48 772.79 773.20 775.01 777.27 779.21 781.28 784.17 787.62 790.98 796.32 801.54 799.80 797.89 796.87 795.72 794.56 793.89 793.53 793.16 792.73 792.39 791.96 791.56 791.18 790.16 789.68 790.04
747.12 748.80 750.59 751.96 752.26 752.84 754.20 754.78 754.78 754.22 753.79 754.30 754.04 753.32 752.32 752.81 753.73 754.36 754.00 753.29 756.06 757.67 759.43 761.97 764.09 764.68 764.47 765.32 767.18 768.70 770.36 772.16 773.54 774.11 774.30 774.85 776.34 778.12 780.43 783.45 786.33 790.69 795.54 799.37 798.31 796.87 795.83 794.88 794.09 793.87 793.60 793.30 792.91 792.60 792.10 791.60 791.11 790.32 790.42 791.04
747.65 749.22 751.11 753.28 754.59 754.90 755.27 755.96 756.16 755.76 755.87 756.07 755.69 755.55 753.77 754.85 755.98 756.60 756.55 754.61 754.31 757.67 760.25 763.09 764.37 762.77 764.31 766.24 767.97 769.99 771.71 773.61 774.87 775.59 775.77 775.95 776.99 778.09 779.79 782.27 785.18 789.30 793.77 797.37 796.32 795.34 794.67 793.96 793.93 793.86 793.69 793.46 793.00 792.60 792.08 791.71 791.25 790.80 791.47 792.26
747.35 750.31 752.52 754.47 755.71 755.71 756.32 757.38 757.74 757.63 757.82 757.79 757.43 756.35 755.15 756.41 757.68 758.63 757.53 756.64 754.57 757.55 761.89 763.30 761.84 763.20 765.34 767.03 768.51 770.58 772.35 774.44 776.06 776.84 777.26 777.27 778.05 779.39 780.21 781.75 784.73 788.10 792.21 795.49 794.73 793.94 793.57 793.32 793.63 793.75 793.82 793.73 793.24 792.88 792.46 792.06 791.44 791.37 792.27 793.07
748.48 750.83 751.73 754.09 755.21 755.58 757.00 757.86 758.31 758.63 758.84 758.70 758.34 757.12 757.16 758.49 759.01 759.53 758.63 756.94 755.06 757.04 760.05 760.83 762.22 764.53 766.89 768.69 770.12 771.55 773.17 774.82 776.77 777.81 778.52 778.48 779.27 780.35 781.83 782.25 783.76 786.50 789.53 791.96 792.37 792.53 792.98 793.14 793.61 793.85 794.02 793.90 793.48 793.31 793.19 792.65 791.98 792.21 793.09 793.63
746.87 748.69 749.92 752.02 753.58 753.82 755.00 756.08 757.23 758.34 758.59 759.05 759.34 758.72 758.43 759.93 760.33 760.41 759.59 757.12 756.69 761.65 761.97 762.50 764.66 767.06 767.94 769.22 770.74 772.07 773.21 775.14 777.39 778.89 778.84 778.88 779.93 781.78 783.49 785.07 784.93 785.37 787.47 789.46 790.53 791.58 792.87 793.41 793.88 794.17 794.16 793.96 793.75 793.76 793.65 793.11 792.46 793.08 794.63 795.18
748.14 749.51 749.83 750.73 751.85 752.62 753.86 755.12 756.01 757.13 758.43 759.54 760.09 759.84 758.93 759.99 761.03 761.62 760.67 757.74 757.30 762.47 762.64 763.26 766.41 769.18 768.23 771.76 771.79 771.26 772.76 776.77 779.87 779.64 778.05 778.63 780.34 783.70 785.81 787.33 787.80 787.21 787.71 788.91 790.44 791.73 792.95 794.29 794.80 794.95 794.59 794.33 794.14 794.27 793.93 793.29 792.89 794.12 795.88 796.77
749.04 750.56 750.88 751.48 752.68 753.27 754.53 755.96 756.61 757.26 758.11 759.46 760.20 760.72 760.15 760.84 762.16 762.50 760.61 757.99 756.73 758.61 760.27 761.75 767.27 766.85 767.85 773.11 772.00 769.93 772.20 775.80 778.69 779.21 776.96 779.07 780.76 783.69 785.85 786.95 787.32 788.14 789.22 790.32 791.61 793.07 794.05 794.86 795.54 795.55 795.15 794.93 795.04 795.03 794.51 793.72 793.56 795.00 796.41 797.41
750.29 751.69 752.30 752.61 753.69 754.59 755.72 756.58 757.38 758.21 758.69 759.45 760.39 761.24 761.32 761.86 763.14 762.93 760.90 759.13 758.31 758.40 758.44 760.33 766.15 763.40 766.28 768.51 768.57 768.63 771.25 774.23 775.21 775.39 776.41 778.94 780.99 782.97 784.68 785.70 786.42 788.16 789.82 791.36 792.92 794.35 795.53 796.13 796.49 795.96 795.55 795.56 795.91 795.69 794.87 794.22 794.35 795.94 797.23 798.00
750.99 752.29 753.24 753.65 754.63 755.97 757.17 757.82 758.65 759.19 760.00 760.25 760.98 761.65 762.40 762.35 763.31 763.38 761.47 760.27 759.85 760.08 760.48 759.83 760.21 760.89 762.51 764.00 766.26 768.38 770.92 772.76 772.63 774.26 777.13 777.79 780.58 781.60 782.79 783.88 785.20 787.28 789.73 792.01 794.01 795.62 797.14 797.52 796.74 796.20 795.73 795.93 796.30 796.20 795.08 794.58 795.21 796.98 798.24 798.81
752.04 753.33 754.31 754.79 755.84 757.54 759.07 759.54 760.00 760.89 761.32 761.66 761.89 762.67 763.59 763.64 763.57 763.80 762.46 761.31 761.14 761.46 762.32 762.46 761.46 761.82 762.16 762.26 762.93 765.46 768.06 770.40 773.72 773.67 774.82 775.91 777.45 779.62 781.58 782.99 785.10 787.40 790.09 792.84 795.36 797.37 798.31 797.65 796.35 795.68 795.60 796.12 796.52 796.27 795.32 794.96 796.26 797.95 798.85 799.11
753.33 754.61 755.80 756.57 757.66 759.92 761.69 761.91 762.20 763.00 763.14 763.19 763.55 764.13 764.72 764.59 764.24 764.37 764.02 762.49 762.33 763.04 763.60 764.44 764.00 763.78 764.33 764.29 763.17 763.71 765.25 767.47 771.78 772.11 774.47 776.42 778.21 779.17 781.04 783.24 785.19 788.39 790.69 793.97 796.88 798.59 798.36 796.44 795.18 795.00 795.60 796.13 796.61 796.52 795.95 795.64 796.45 797.47 798.33 799.20
755.26 756.84 757.58 757.87 759.12 761.80 763.89 764.14 764.48 765.54 765.58 765.77 765.96 765.95 766.33 765.66 765.54 765.95 765.28 764.00 764.07 764.35 765.85 766.61 766.49 766.29 766.50 765.66 764.40 766.02 766.94 766.15 768.51 771.30 773.25 775.44 778.26 780.51 782.65 784.72 786.09 788.22 791.60 795.05 797.40 797.90 796.32 794.11 793.50 794.29 795.17 795.68 796.84 797.24 796.82 796.28 796.04 797.01 798.29 798.48
757.49 759.32 759.41 759.56 760.53 762.80 765.25 766.92 767.53 768.42 768.19 768.59 768.93 768.49 767.96 767.13 767.52 767.60 766.63 765.84 766.44 766.02 767.44 768.34 768.45 767.91 767.35 766.37 765.63 768.64 769.50 768.50 767.32 770.44 772.92 775.11 777.95 781.08 784.25 785.30 786.37 788.48 792.13 795.01 796.16 794.58 793.12 791.58 791.75 792.97 794.56 796.03 799.03 799.72 797.80 797.23 796.90 797.15 797.81 798.10
759.05 760.87 760.69 761.06 762.44 764.60 767.29 769.40 770.66 771.92 771.68 772.22 771.95 770.73 769.64 768.67 769.13 769.00 768.07 767.62 768.21 768.16 768.66 769.66 769.86 769.37 767.90 766.54 766.50 769.34 771.08 770.99 769.44 768.77 771.57 774.43 777.54 780.59 782.38 782.63 785.17 789.22 792.12 792.41 792.35 790.41 790.07 789.73 790.69 792.02 793.81 795.65 797.09 797.76 797.86 797.87 797.74 797.86 798.22 798.53
758.71 761.09 762.32 762.98 764.16 766.26 769.58 772.41 773.76 775.27 775.40 774.96 774.04 772.50 770.49 770.11 770.54 770.41 769.64 769.14 769.82 770.28 770.61 770.85 770.58 769.92 768.72 767.60 768.21 770.41 772.15 772.71 772.03 769.92 772.83 775.41 777.63 779.89 779.85 781.20 784.29 789.01 789.58 787.54 787.05 787.55 788.69 789.72 791.27 792.98 794.17 795.06 796.29 797.24 797.71 797.89 798.20 798.50 798.89 799.12
758.86 761.40 763.70 764.71 765.67 768.38 771.74 775.24 776.52 776.88 776.44 776.07 774.67 772.81 771.38 771.57 771.90 771.66 770.71 770.77 771.28 771.59 771.87 771.83 770.85 769.92 768.78 768.32 769.65 772.01 773.11 773.49 772.50 771.18 775.54 777.10 777.32 777.49 777.79 779.58 781.34 783.59 784.54 784.15 785.45 788.28 789.99 791.23 792.89 794.53 795.46 795.80 796.53 797.33 797.79 798.21 798.69 798.97 799.48 799.93
759.71 762.19 764.68 766.71 767.47 769.66 773.42 775.96 777.20 777.07 776.70 776.10 774.32 773.34 772.69 772.86 773.55 773.20 772.32 772.45 772.73 772.63 772.59 771.94 770.81 769.81 769.03 769.73 770.58 772.76 774.12 774.26 773.43 771.76 773.56 775.48 775.20 775.74 777.04 778.20 779.15 781.09 782.77 784.50 786.82 789.63 791.10 792.69 794.28 795.84 796.28 796.69 797.38 797.95 798.43 798.91 799.32 799.64 800.25 800.85
761.50 764.40 766.54 768.67 769.21 770.25 772.73 774.44 776.24 776.51 775.42 774.69 774.04 773.81 773.82 774.17 774.51 774.53 773.91 774.10 773.89 773.23 772.33 771.24 770.69 769.69 769.90 770.77 771.82 773.11 774.64 775.39 774.89 773.50 773.16 774.00 774.07 775.60 777.48 779.13 780.74 782.45 784.22 785.72 787.49 790.35 792.63 794.29 795.67 797.09 797.52 797.94 798.26 798.56 798.94 799.52 800.06 800.56 801.18 801.70
762.89 765.84 768.40 769.12 768.99 770.06 771.27 772.66 774.53 774.93 774.34 773.88 773.99 774.34 774.72 775.40 775.77 775.69 775.37 775.04 774.15 773.25 772.35 771.44 770.96 770.74 771.70 772.55 772.98 774.28 775.30 776.15 776.26 775.32 774.57 775.73 774.74 775.62 777.50 779.86 781.94 783.39 785.23 786.74 788.48 790.78 793.38 796.19 797.83 798.87 799.19 799.13 799.27 799.53 799.95 800.45 800.95 801.47 802.13 802.68
764.55 766.64 767.48 767.66 768.31 769.12 770.24 771.74 773.33 773.79 773.18 773.63 774.65 775.56 775.92 776.57 776.83 776.85 776.68 775.62 774.41 773.29 772.41 771.59 771.48 772.16 773.35 774.03 774.19 775.54 776.52 777.04 777.05 775.94 775.40 776.12 775.45 776.53 779.29 781.26 782.83 784.41 786.67 788.00 789.62 792.72 795.21 797.66 799.70 799.88 800.14 800.25 800.29 800.52 801.02 801.59 801.98 802.60 803.24 803.57
765.51 765.92 765.98 766.50 767.15 768.23 769.37 771.21 772.83 772.87 772.42 773.44 775.34 776.24 777.00 777.83 777.79 777.68 777.37 775.75 774.71 773.71 772.91 772.27 772.26 772.98 774.60 775.72 775.82 776.22 777.33 778.47 778.11 777.04 776.53 777.04 776.94 777.63 780.20 782.21 783.78 785.26 786.97 788.66 790.45 792.83 795.54 797.61 799.77 800.30 801.10 801.06 801.27 801.63 802.22 802.96 803.38 803.88 804.35 804.54
764.15 764.85 765.86 766.54 767.11 767.54 768.54 770.36 771.32 771.46 772.21 773.10 774.34 775.48 777.07 778.10 778.23 778.38 777.71 776.06 775.45 774.40 773.32 772.77 773.32 774.15 774.75 775.97 777.12 777.67 778.20 779.34 779.73 779.15 779.08 779.14 778.19 778.53 781.10 782.86 784.18 785.78 787.38 789.17 791.10 793.15 795.62 798.55 800.28 801.07 801.91 801.97 802.38 802.87 803.43 804.06 804.55 804.85 805.12 805.11
763.86 765.03 766.12 766.88 767.69 768.23 769.04 769.65 770.58 771.37 772.23 773.28 774.56 775.84 777.11 778.47 779.10 778.81 777.67 776.70 775.87 774.59 773.57 773.50 774.19 775.44 776.62 777.01 777.92 779.03 779.93 780.43 780.40 781.02 781.53 781.70 780.96 779.71 780.85 783.20 785.16 786.69 788.35 790.07 791.56 793.72 795.80 798.49 800.54 801.43 802.29 802.86 803.56 804.03 804.43 804.90 805.12 805.30 805.32 804.94
764.39 765.32 766.50 767.52 768.63 769.49 770.17 770.77 771.63 772.68 773.28 774.08 775.52 777.36 778.52 779.40 779.73 779.22 777.95 776.45 775.50 774.90 774.78 774.74 775.25 776.45 777.79 778.41 778.76 779.84 781.52 781.94 782.11 782.99 783.75 784.04 783.55 782.01 781.19 783.32 785.78 787.75 789.12 790.88 792.37 794.12 796.08 798.11 800.33 801.56 802.59 803.39 804.21 804.86 805.16 805.28 805.39 805.05 804.68 804.31
765.02 766.12 767.09 768.18 769.30 770.37 771.22 771.64 772.67 773.98 775.11 775.90 777.17 778.65 779.92 780.40 780.06 779.18 777.69 776.40 776.46 776.39 776.74 776.23 776.75 777.88 779.05 780.09 780.58 781.14 782.47 783.23 783.75 785.09 785.83 786.49 785.16 783.45 782.42 783.19 785.72 787.88 789.83 791.52 793.16 794.87 796.65 797.95 799.80 801.31 802.49 803.72 804.64 805.33 805.63 805.40 805.10 804.40 803.87 803.70
765.73 766.88 767.90 769.21 770.31 771.16 772.25 772.89 773.76 775.15 776.16 777.53 778.56 779.86 780.67 780.88 780.17 779.30 778.21 778.28 778.80 779.00 778.95 777.80 778.72 779.98 780.68 781.52 782.56 782.99 784.02 784.68 785.51 786.98 787.74 787.56 785.84 784.45 783.23 783.44 785.71 787.72 789.59 791.76 793.52 794.97 796.34 797.34 799.00 800.92 802.25 803.69 804.81 805.22 805.60 805.36 804.74 804.07 803.36 802.89
766.46 768.02 769.29 770.50 771.48 772.31 773.23 774.23 775.00 776.29 777.53 779.01 779.98 780.47 780.36 780.09 779.46 779.90 780.17 780.72 781.36 781.23 780.41 780.09 781.37 781.79 782.82 784.00 784.87 785.24 786.23 786.64 787.83 789.22 789.05 787.97 786.27 785.00 783.83 784.28 786.15 787.88 789.53 791.91 793.19 794.19 795.36 796.55 799.04 800.95 802.44 803.85 804.76 805.14 805.91 805.17 804.40 803.75 802.83 802.08
767.33 769.02 770.45 771.68 772.60 773.51 774.80 776.03 776.58 778.01 779.60 780.89 780.64 779.81 779.00 778.87 779.51 780.30 781.50 782.60 783.16 782.46 781.91 782.16 784.05 784.30 784.97 786.44 787.29 787.94 788.84 789.37 790.65 791.12 790.29 788.93 787.23 785.97 784.94 785.11 786.24 787.32 789.04 791.56 792.44 793.69 795.24 796.73 799.54 801.12 803.10 804.21 804.64 805.12 805.19 804.20 803.77 803.04 802.18 801.28
768.57 769.92 771.39 772.91 773.95 775.00 776.39 777.62 778.29 779.52 781.15 780.87 779.64 778.15 777.88 779.19 780.26 781.38 782.32 783.26 784.02 783.96 783.55 784.49 785.96 786.29 787.42 789.13 790.13 791.30 791.81 792.77 793.96 793.65 791.82 790.01 788.26 787.23 786.16 786.09 787.11 787.63 788.93 791.16 792.31 793.98 795.69 797.75 800.09 802.37 803.87 804.28 804.22 804.34 803.96 803.04 802.23 801.65 801.02 800.15
769.43 770.47 772.08 774.19 775.41 776.25 777.53 778.63 779.07 779.88 780.37 778.82 777.73 776.68 777.55 779.35 780.57 781.66 783.00 784.23 785.03 785.72 785.91 786.36 787.71 788.32 789.92 791.73 793.21 795.02 796.22 797.19 796.98 795.25 793.40 791.34 789.14 788.11 787.31 787.25 788.23 788.68 789.31 790.99 792.23 793.76 795.77 798.25 800.49 803.32 804.13 804.00 803.66 804.14 803.10 802.33 801.25 800.50 799.85 799.04
768.94 770.66 772.61 774.27 775.48 776.47 777.42 777.62 777.56 778.39 778.08 776.43 775.67 775.73 777.16 778.66 780.19 781.45 783.22 784.68 786.07 787.25 787.67 788.46 789.78 791.01 792.95 794.97 796.83 798.78 801.10 801.41 799.15 796.69 794.62 792.28 789.94 789.10 789.02 788.94 790.19 790.10 790.06 791.45 792.48 793.68 795.87 797.93 800.22 803.24 804.03 803.55 803.54 803.55 802.46 802.01 800.92 799.69 798.66 798.11
768.67 770.92 772.53 773.77 775.81 776.84 776.03 775.11 776.10 776.49 775.91 774.72 774.32 775.48 776.58 778.40 780.29 781.69 783.46 785.05 786.69 788.40 789.33 790.43 792.01 793.57 795.58 798.01 800.25 802.70 805.03 802.71 799.81 797.37 795.47 792.90 790.93 791.25 790.83 790.58 791.30 791.33 791.00 792.43 793.10 794.47 796.31 797.61 800.45 803.00 803.23 803.31 803.60 802.99 801.87 801.18 800.02 799.24 798.11 797.36
767.99 769.44 771.87 774.15 775.86 775.55 774.01 772.92 774.00 773.62 772.83 773.12 774.45 775.74 777.06 778.63 779.99 781.51 783.45 785.37 787.18 789.13 790.62 792.30 794.09 796.18 798.54 800.87 803.92 806.54 805.79 803.00 800.07 797.86 796.57 793.95 792.53 792.97 792.17 792.28 792.41 792.52 792.10 793.31 794.52 795.09 797.16 798.49 800.64 802.44 802.92 803.10 803.01 802.32 801.30 800.49 799.77 799.32 798.23 796.93
767.21 769.14 771.30 773.09 773.15 773.02 772.49 771.17 771.85 771.43 772.37 773.94 774.64 775.70 776.85 777.98 779.58 781.22 783.59 785.44 787.40 789.17 791.04 793.30 795.52 798.07 801.02 803.37 806.48 808.05 805.51 803.31 800.65 798.51 796.90 795.08 794.73 793.93 794.39 794.52 793.78 793.68 793.72 794.55 795.99 796.38 797.83 799.15 801.03 803.50 803.92 803.56 802.69 801.78 800.74 799.78 799.23 798.49 797.63 796.84
766.56 767.86 770.07 770.47 769.28 769.61 769.51 769.58 770.14 770.95 773.01 774.75 775.80 776.62 777.63 778.88 779.82 780.96 782.98 785.06 787.28 789.49 791.53 794.09 796.79 799.61 802.65 805.89 808.31 807.32 805.40 803.56 801.47 799.43 797.40 796.42 795.59 795.42 796.28 795.62 795.32 794.69 795.49 796.70 797.64 798.09 798.95 799.45 801.05 803.53 803.96 803.09 802.00 800.77 800.22 799.11 798.50 797.80 796.61 795.79
764.28 765.92 765.84 766.06 766.84 767.15 767.68 768.76 770.07 771.98 773.22 774.17 775.62 776.99 778.10 779.83 781.13 782.81 784.30 785.93 787.89 789.54 791.94 794.72 797.48 800.57 804.64 809.13 808.96 806.86 805.17 803.47 801.20 799.44 798.05 797.50 796.27 796.89 797.25 796.67 795.88 795.74 796.99 798.33 799.25 799.40 800.62 801.04 801.76 803.08 803.68 802.23 801.35 799.97 799.15 798.46 797.87 797.55 796.71 795.22
763.17 764.28 764.86 766.14 767.54 767.62 768.32 769.69 770.49 771.59 772.34 774.04 775.58 776.76 777.73 779.64 781.19 783.24 785.19 787.15 789.17 791.03 793.54 795.65 798.22 801.40 806.07 808.52 808.21 806.42 804.65 803.23 801.37 800.27 799.05 798.35 798.07 798.73 798.13 797.43 796.85 797.15 798.08 799.52 800.46 801.05 801.65 801.51 802.00 802.88 803.15 801.45 800.38 799.08 798.30 797.54 797.09 796.85 796.07 794.92
763.77 765.15 765.78 767.03 768.86 769.24 769.29 770.94 771.55 772.92 773.33 774.60 776.56 778.39 779.44 781.10 782.29 784.15 786.12 788.11 790.64 792.80 795.52 797.42 800.00 803.02 806.07 807.63 807.54 806.48 804.89 803.60 802.97 801.56 800.19 799.48 799.23 800.17 799.33 798.71 797.97 798.83 799.96 800.67 801.85 801.96 802.32 801.92 801.71 801.25 801.63 800.41 799.71 798.45 797.52 796.57 796.12 796.09 795.06 794.51
765.08 766.82 767.46 768.42 769.77 770.79 770.86 771.68 772.58 773.63 774.92 775.09 776.88 778.87 780.95 782.87 783.99 785.61 787.49 789.57 792.36 795.47 798.39 801.13 803.71 806.27 807.91 808.31 808.03 806.97 805.89 804.92 803.84 802.22 801.10 800.61 800.90 801.05 800.49 799.40 799.00 800.00 801.47 801.80 802.09 802.10 802.24 802.33 801.39 800.38 799.94 799.09 798.38 797.77 796.75 795.68 795.10 794.85 794.66 794.29
766.64 768.19 769.09 770.20 771.04 772.19 771.99 772.68 773.97 774.70 776.40 776.88 778.05 779.99 782.54 784.93 786.23 787.30 789.14 791.91 794.71 798.83 802.48 805.81 809.40 810.41 809.75 809.33 808.74 808.00 807.41 806.23 804.34 803.17 802.53 801.90 802.08 802.09 801.13 800.24 800.74 801.30 802.15 802.54 801.95 802.10 802.03 801.71 800.28 798.98 798.34 797.34 796.34 796.24 795.99 794.89 794.02 794.20 794.49 794.42
768.51 770.57 771.52 772.51 773.43 773.97 773.96 774.92 776.03 776.47 777.95 779.21 780.13 781.42 783.54 785.92 787.68 789.21 791.58 794.38 797.89 802.30 806.29 810.25 813.50 812.65 810.94 809.77 808.95 808.41 808.22 806.50 805.13 804.39 803.81 803.37 803.19 802.81 802.02 801.74 802.41 802.63 802.85 802.47 801.78 801.50 801.76 801.74 799.84 798.36 797.64 796.73 795.11 794.81 795.46 794.40 793.67 793.86 793.82 794.00
771.46 772.08 772.93 773.84 774.99 776.16 776.31 776.83 777.60 777.87 778.77 780.49 781.96 783.21 785.35 787.49 788.71 790.58 793.71 796.97 800.97 805.81 810.82 814.05 814.24 812.92 811.06 809.53 808.89 808.32 807.92 806.93 806.22 805.49 804.76 804.64 804.79 803.82 803.17 803.32 803.84 804.15 803.29 802.72 801.84 801.23 801.07 801.03 799.85 797.83 796.60 796.01 794.77 793.47 794.18 793.74 793.10 793.98 793.66 793.27
773.10 773.35 773.71 774.84 776.47 777.61 777.82 778.57 779.01 779.84 780.68 781.69 783.47 785.10 786.50 788.98 790.72 792.70 796.19 800.50 804.91 810.40 815.84 816.68 814.54 812.36 810.49 809.28 808.67 808.26 807.78 807.01 806.33 806.11 806.12 805.99 805.04 805.11 804.96 804.79 804.80 804.62 803.46 802.22 801.05 800.14 799.28 798.92 798.17 796.35 795.51 794.53 793.73 793.08 792.56 792.33 792.18 793.10 793.10 792.73
773.91 774.44 774.87 775.80 776.69 777.86 778.91 779.84 780.82 781.84 782.43 783.05 785.00 786.21 787.90 790.54 792.84 795.15 799.37 804.79 809.84 815.74 819.16 817.00 813.99 811.43 809.48 808.45 807.61 807.60 807.41 806.63 805.95 806.44 806.55 805.88 805.01 804.65 804.22 804.17 803.76 803.68 803.15 802.02 800.84 799.54 798.07 796.72 795.77 794.71 794.04 793.03 792.67 791.72 790.84 790.58 791.15 792.20 792.24 791.74
774.47 775.24 776.05 776.98 777.73 778.70 780.12 780.95 781.97 783.34 783.70 784.30 786.51 787.56 789.49 791.69 794.47 798.07 802.86 808.68 814.49 818.66 818.94 815.34 812.55 810.31 808.51 807.34 806.47 806.13 805.84 805.50 805.55 806.01 805.53 804.91 804.73 804.28 804.02 803.85 803.37 802.65 802.51 801.44 800.47 799.01 798.14 796.66 795.47 794.67 793.98 793.21 792.51 791.56 790.61 790.02 789.56 790.99 791.69 790.55
