ncols 60
nrows 65
xllcorner 739300.0
yllcorner 4553050.0
cellsize 50.0
nodata_value -9999
-9999 -9999 -9999 -9999 -9999 -9999 -9999 -9999 -9999 -9999 -9999 -9999 -9999 -9999 -9999 -9999 -9999 -9999 -9999 -9999 -9999 -9999 -9999 -9999 -9999 -9999 -9999 -9999 -9999 -9999 -9999 -9999 -9999 -9999 -9999 -9999 -9999 -9999 -9999 -9999 -9999 -9999 -9999 -9999 -9999 -9999 -9999 -9999 -9999 -9999 -9999 -9999 -9999 -9999 -9999 -9999 -9999 -9999 -9999 -9999
-9999 -9999 -9999 -9999 -9999 -9999 -9999 -9999 -9999 -9999 -9999 -9999 -9999 -9999 -9999 -9999 -9999 -9999 -9999 -9999 0.000484577 -9999 -9999 -9999 -9999 -9999 -9999 -9999 -9999 -9999 -9999 -9999 -9999 -9999 -9999 -9999 -9999 -9999 -9999 -9999 -9999 -9999 -9999 -9999 -9999 -9999 -9999 -9999 -9999 -9999 -9999 -9999 -9999 -9999 -9999 -9999 -9999 -9999 -9999 -9999
-9999 -9999 0.000273039 0.000469771 0.000456413 0.000462897 0.000468041 0.000462854 -9999 -9999 -9999 -9999 -9999 -9999 -9999 -9999 -9999 -9999 -9999 0.000464988 0.000462709 0.000484643 -9999 -9999 -9999 -9999 -9999 -9999 -9999 -9999 -9999 -9999 -9999 -9999 -9999 -9999 -9999 -9999 -9999 -9999 -9999 -9999 -9999 -9999 -9999 -9999 -9999 -9999 -9999 -9999 -9999 -9999 -9999 -9999 -9999 -9999 -9999 -9999 -9999 -9999
-9999 0.00036526 0.000321658 0.000340294 0.000472296 0.000483607 0.000480727 0.00048235 0.000473697 -9999 -9999 -9999 -9999 -9999 -9999 -9999 0.000479167 0.000477266 0.000525086 0.000456876 0.000465599 0.000461556 -9999 -9999 -9999 -9999 -9999 -9999 -9999 -9999 -9999 -9999 -9999 -9999 -9999 -9999 -9999 -9999 -9999 -9999 -9999 -9999 -9999 -9999 -9999 -9999 -9999 -9999 -9999 -9999 -9999 -9999 -9999 -9999 -9999 -9999 -9999 -9999 -9999 -9999
0.000386703 0.000291242 0.000231024 0.000477139 0.000285786 0.00033928 0.000476635 0.000484423 0.000472847 -9999 -9999 -9999 -9999 -9999 0.000491113 0.000262025 0.000357843 0.000316635 0.000335318 0.000376073 0.0004747 0.00048488 0.000475226 -9999 -9999 -9999 -9999 -9999 -9999 -9999 -9999 -9999 -9999 -9999 -9999 -9999 -9999 -9999 -9999 -9999 -9999 -9999 -9999 -9999 -9999 -9999 -9999 -9999 -9999 -9999 -9999 -9999 -9999 -9999 -9999 -9999 -9999 -9999 -9999 -9999
0.00032597 0.000264509 0.00033334 0.000492673 0.00049326 0.000485448 0.000346151 0.00015937 0.000156408 0.000484583 0.000477058 0.000474964 0.000158601 0.000150518 0.000326264 0.000448627 0.000473062 0.000459217 0.00045144 0.000462992 0.000475809 0.000461531 0.000466783 0.000472453 -9999 -9999 -9999 -9999 -9999 -9999 -9999 -9999 -9999 -9999 -9999 -9999 -9999 -9999 -9999 -9999 -9999 -9999 -9999 -9999 -9999 -9999 -9999 -9999 -9999 -9999 -9999 -9999 -9999 -9999 -9999 -9999 -9999 -9999 -9999 -9999
0.000298771 0.000252507 0.000284665 0.000476414 0.000497716 0.000488191 0.000496015 0.00035155 0.000150503 0.000158219 0.000304258 0.000348632 0.00027428 0.000263795 0.000457381 0.000462496 0.000488756 0.000474297 0.000454835 0.000473094 0.000480564 0.000455489 0.000472221 0.000477113 -9999 -9999 -9999 -9999 -9999 -9999 -9999 -9999 -9999 -9999 -9999 -9999 -9999 -9999 -9999 -9999 -9999 -9999 -9999 -9999 -9999 -9999 -9999 -9999 -9999 -9999 -9999 -9999 -9999 -9999 -9999 -9999 -9999 -9999 -9999 -9999
0.000334702 0.000316765 0.000235935 0.000227126 0.000481882 0.000489431 0.00050151 0.000480385 0.000256153 0.000277994 0.000286015 0.000368574 0.000478606 0.000464993 0.000481355 0.000451089 0.000473354 0.000473223 0.000461505 0.000461899 0.000468473 0.000466643 0.000476037 0.000457986 -9999 -9999 -9999 -9999 -9999 -9999 -9999 -9999 -9999 -9999 -9999 -9999 -9999 -9999 -9999 -9999 -9999 -9999 -9999 -9999 -9999 -9999 -9999 -9999 -9999 -9999 -9999 -9999 -9999 -9999 -9999 -9999 -9999 -9999 -9999 -9999
-9999 0.000286195 0.000299206 0.000225826 0.000242426 0.000475584 0.000480631 0.000477847 0.000480186 0.000478604 0.00045844 0.000476403 0.000462165 0.000469242 0.000464393 0.000457192 0.000463491 0.000478108 0.000485175 0.000478426 0.000482356 0.000475454 0.000460156 0.000487279 -9999 -9999 -9999 -9999 -9999 -9999 -9999 -9999 -9999 -9999 -9999 -9999 -9999 -9999 -9999 -9999 -9999 -9999 -9999 -9999 -9999 -9999 -9999 -9999 -9999 -9999 -9999 -9999 -9999 -9999 -9999 -9999 -9999 -9999 -9999 -9999
-9999 -9999 0.000479296 0.000295878 0.000485668 0.000477163 0.000490374 0.000490406 0.000478014 0.00048455 0.00049177 0.000468538 0.000467383 0.000462966 0.000480917 0.00046788 0.000473319 0.000479517 0.000484887 0.000496312 0.000489457 0.000469287 0.00046626 -9999 -9999 -9999 -9999 -9999 -9999 -9999 -9999 -9999 -9999 -9999 -9999 -9999 -9999 -9999 -9999 -9999 -9999 -9999 -9999 -9999 -9999 -9999 -9999 -9999 -9999 -9999 -9999 -9999 -9999 -9999 -9999 -9999 -9999 -9999 -9999 -9999
-9999 -9999 0.000482989 0.00027584 0.000442375 0.000466751 0.000484614 0.000491376 0.000475138 0.000477015 0.000471161 0.00048003 0.000474962 0.000464123 0.000471154 0.000482055 0.000477175 0.000486995 0.000469716 0.000487004 0.000476786 0.000474538 0.00047012 -9999 -9999 -9999 -9999 -9999 -9999 -9999 -9999 -9999 -9999 -9999 -9999 -9999 -9999 -9999 -9999 -9999 -9999 -9999 -9999 -9999 -9999 -9999 -9999 -9999 -9999 -9999 -9999 -9999 -9999 -9999 -9999 -9999 -9999 -9999 -9999 -9999
-9999 -9999 0.000499024 0.000474569 0.000287382 0.000153644 0.000497741 0.000475666 0.000490437 0.000475521 0.000487666 0.000485626 0.000484524 0.000469749 0.000480512 0.000485542 0.00047041 0.000468171 0.000472456 0.000481772 0.000461454 0.00046843 0.000460378 -9999 -9999 -9999 -9999 -9999 -9999 -9999 -9999 -9999 -9999 -9999 -9999 -9999 -9999 -9999 -9999 -9999 -9999 -9999 -9999 -9999 -9999 -9999 -9999 -9999 -9999 -9999 -9999 -9999 -9999 -9999 -9999 -9999 -9999 -9999 -9999 -9999
-9999 -9999 -9999 0.000466394 0.000268114 0.000157013 0.000528401 0.000465652 0.000155693 0.000148181 0.000148563 0.000147672 0.000484405 0.000483369 0.000476698 0.000482058 0.000481367 0.000313836 0.000463886 0.000468224 0.000470252 0.000465984 0.000495653 0.00048604 -9999 -9999 -9999 -9999 0.000493657 -9999 -9999 -9999 -9999 -9999 -9999 -9999 -9999 -9999 -9999 -9999 -9999 -9999 -9999 -9999 -9999 -9999 -9999 -9999 -9999 -9999 -9999 -9999 -9999 -9999 -9999 -9999 -9999 -9999 -9999 -9999
-9999 -9999 -9999 0.000470621 0.000298278 0.000149867 0.000475665 0.000482443 0.000490411 0.000302949 0.000150311 0.000466885 0.00048319 0.000495155 0.000495629 0.000487808 0.000277178 0.00044726 0.00049514 0.000491993 0.000487636 0.00047436 0.000478725 0.000467953 0.000480403 0.000492995 0.00049155 0.00047775 0.000466481 0.00048093 0.000473736 -9999 -9999 -9999 -9999 -9999 -9999 -9999 -9999 -9999 -9999 -9999 -9999 -9999 -9999 -9999 -9999 -9999 -9999 -9999 -9999 -9999 -9999 -9999 -9999 -9999 -9999 -9999 -9999 -9999
-9999 -9999 -9999 0.000458609 0.000344794 0.000149102 0.00014953 0.000153071 0.00028961 0.000154492 0.000155123 0.000483591 0.000148812 0.000150351 0.000344405 0.000280933 0.000480528 0.000472573 0.00048162 0.000491028 0.000481295 0.000479941 0.000487169 0.000483403 0.000481376 0.000473002 0.000538109 0.000467907 0.000475026 0.000466852 0.000472831 0.000483879 -9999 -9999 -9999 -9999 -9999 -9999 -9999 -9999 -9999 -9999 -9999 -9999 -9999 -9999 -9999 -9999 -9999 -9999 -9999 -9999 -9999 -9999 -9999 -9999 -9999 -9999 -9999 -9999
-9999 -9999 -9999 0.000458923 0.000279669 0.000149084 0.000153297 0.000335739 0.000154687 0.000155817 0.000148172 0.000153586 0.000153622 0.00033047 0.000477611 0.000484389 0.000483943 0.000477682 0.000482297 0.000487113 0.000484567 0.000460979 0.000482802 0.000471553 0.000478529 0.000342848 0.000342745 0.000269081 0.000266994 0.000282879 0.000490029 0.000483243 0.000499734 -9999 -9999 -9999 -9999 -9999 -9999 -9999 -9999 -9999 -9999 -9999 -9999 -9999 -9999 -9999 -9999 -9999 -9999 -9999 -9999 -9999 -9999 -9999 -9999 -9999 -9999 -9999
-9999 -9999 -9999 0.000487519 0.000321434 0.000232983 0.000234855 0.00023904 0.0002566 0.00031736 0.000147836 0.000150396 0.000292104 0.000470226 0.000487779 0.000478143 0.000482934 0.000497931 0.000493845 0.000471283 0.000484282 0.000475869 0.000496334 0.000489795 0.00030462 0.00032178 0.00048325 0.000484674 0.000485285 0.000473791 0.000487351 0.000491243 0.000487281 -9999 -9999 -9999 -9999 -9999 -9999 0.000426472 0.000476666 0.000461112 0.000490497 0.000483044 -9999 -9999 -9999 -9999 -9999 -9999 -9999 -9999 -9999 -9999 -9999 -9999 -9999 -9999 -9999 -9999
-9999 -9999 -9999 0.000472084 0.000480151 0.000155421 0.000147994 0.000481461 0.000480821 0.000245162 0.000275647 0.000369005 0.000447613 0.000485392 0.000493011 0.000486247 0.000481193 0.000476331 0.000268567 0.000479083 0.000473978 0.000488616 0.000465177 0.000369373 0.000483446 0.000463714 0.000475339 0.000487363 0.000484609 0.00047501 0.000469876 0.000466754 0.000487798 0.000481583 -9999 -9999 -9999 -9999 -9999 0.000476465 0.000452466 0.000475232 0.000479053 0.000487898 -9999 -9999 -9999 -9999 -9999 -9999 -9999 -9999 -9999 -9999 -9999 -9999 -9999 -9999 -9999 -9999
-9999 -9999 -9999 0.000482513 0.00049261 0.000150499 0.000153604 0.000494898 0.000476645 0.000490026 0.000472639 0.000284966 0.000228676 0.000326445 0.000448354 0.000488788 0.00049139 0.000246281 0.000476449 0.000497231 0.000468348 0.000268888 0.000282388 0.000455279 0.000485108 0.000484462 0.000479707 0.000489456 0.00047535 0.000479662 0.000288871 0.000272022 0.000337089 0.000280982 0.000503191 -9999 -9999 -9999 0.000462322 0.000457851 0.000468909 0.000471286 0.000474853 0.000468399 -9999 -9999 -9999 -9999 -9999 -9999 -9999 -9999 -9999 -9999 -9999 -9999 -9999 -9999 -9999 -9999
-9999 -9999 -9999 0.000484001 0.000485156 0.00047082 0.000147883 0.000488412 0.00046783 0.000477025 0.000483275 0.000493091 0.000482293 0.000470468 0.000248318 0.000279644 0.000274843 0.000260326 0.000160794 0.000153327 0.000269856 0.000483242 0.000489116 0.000479614 0.00046981 0.000480461 0.000484785 0.000465063 0.000274167 0.000319626 0.000468285 0.000476168 0.000464667 0.000474281 0.000372421 0.000475215 0.000492295 0.000482424 0.000464733 0.000468496 0.000458853 0.000476747 0.000484021 0.000462726 0.000470487 -9999 -9999 -9999 -9999 -9999 -9999 -9999 -9999 -9999 -9999 -9999 -9999 -9999 -9999 -9999
-9999 -9999 -9999 -9999 0.000463124 0.000464998 0.000486359 0.000476101 0.000478258 0.000481646 0.00049435 0.000474104 0.000479505 0.000489261 0.000283498 0.000475485 0.000480767 0.000483745 0.000230941 0.000294048 0.000490233 0.000485689 0.000478579 0.0004691 0.000488681 0.000490677 0.000476047 0.000277119 0.000465438 0.000487194 0.000471706 0.000466737 0.000470611 0.000482048 0.000474669 0.000360851 0.000364538 0.000466255 0.000472066 0.000478175 0.000478268 0.000484795 0.000469884 0.000461768 0.000484089 0.000472616 0.000498093 0.000473084 0.000474065 -9999 -9999 -9999 -9999 -9999 -9999 -9999 -9999 -9999 -9999 -9999
-9999 -9999 -9999 -9999 0.000494465 0.000485237 0.000484058 0.00047695 0.000493046 0.00048817 0.000483111 0.00049684 0.000474703 0.000475951 0.000302314 0.000485926 0.000473528 0.000492887 0.000489998 0.000256978 0.000272188 0.000477985 0.000489156 0.000481233 0.000481598 0.000487049 0.000282336 0.000463121 0.000470656 0.000472394 0.000491765 0.000473457 0.000490197 0.000466507 0.000488872 0.000468095 0.000492633 0.000281193 0.00046396 0.000458122 0.000461026 0.000471514 0.000479705 0.000480878 0.000474187 0.000468559 0.000494857 0.000469758 0.000478826 -9999 -9999 -9999 -9999 -9999 -9999 -9999 -9999 -9999 -9999 -9999
-9999 -9999 -9999 -9999 -9999 0.000478014 0.000496861 0.000488618 0.000478173 0.000499011 0.000479924 0.000476964 0.000483882 0.000475689 0.000278018 0.000471902 0.000491722 0.00046621 0.000478105 0.000462834 0.00030393 0.000154294 0.000167766 0.000170947 0.000284182 0.000288456 0.000493585 0.000478188 0.000464873 0.000480082 0.000490043 0.000479848 0.000469303 0.000478561 0.000473707 0.000475948 0.000461376 0.000489262 0.000282996 0.000460643 0.000494298 0.000485315 0.000473377 0.000492232 0.000468554 0.00048269 0.000479548 0.000470453 0.000485576 0.000474473 -9999 -9999 -9999 -9999 -9999 -9999 -9999 -9999 -9999 -9999
-9999 -9999 -9999 -9999 -9999 -9999 -9999 -9999 -9999 -9999 0.000473463 0.000480678 0.000474826 0.000490522 0.000275723 0.000494363 0.000494272 0.000481626 0.000482094 0.000471625 0.000269697 0.000237895 0.000241759 0.000239174 0.00047245 0.00046409 0.000473764 0.000486783 0.000478561 0.000474791 0.000476366 0.000487561 0.000474647 0.000474211 0.000462104 0.000485827 0.000478214 0.000465324 0.0004791 0.000316109 0.000318071 0.000458456 0.000481427 0.000492269 0.000488787 0.000469252 0.000283198 0.000484965 0.000472751 0.000476702 0.000486521 -9999 -9999 -9999 -9999 -9999 -9999 -9999 -9999 -9999
-9999 -9999 -9999 -9999 -9999 -9999 -9999 -9999 -9999 -9999 -9999 -9999 0.0004922 0.000477026 0.000293615 0.000479777 0.000474705 0.000472117 0.000486924 0.000490596 0.00026883 0.00015026 0.000148916 0.000479578 0.000484631 0.000469043 0.000482996 0.000472079 0.000463509 0.00047044 0.000500462 0.000489141 0.000488177 0.000487267 0.000489463 0.000484078 0.000470675 0.000468701 0.000467258 0.000453681 0.000460277 0.000308697 0.000479052 0.000487083 0.0003651 0.000269182 0.000495911 0.000472314 0.000475925 0.000474779 0.000466866 -9999 -9999 -9999 -9999 -9999 -9999 -9999 -9999 -9999
-9999 -9999 -9999 -9999 -9999 -9999 -9999 -9999 -9999 -9999 -9999 -9999 0.000474023 0.000492487 0.000333422 0.000493705 0.000473211 0.00048785 0.000489305 0.000483597 0.000214773 0.00015463 0.000169116 0.000484599 0.000170876 0.000157453 0.000503653 0.000465074 0.000469301 0.000484193 0.000487376 0.000479607 0.000155768 0.000482834 0.00046181 0.00046627 0.000481414 0.000153932 0.000493766 0.00046827 0.000464122 0.000487961 0.000267815 0.000288072 0.000469221 0.000467344 0.000465071 0.000475301 0.000467229 0.000485778 -9999 -9999 -9999 -9999 -9999 -9999 -9999 -9999 -9999 -9999
-9999 -9999 -9999 -9999 -9999 -9999 -9999 -9999 -9999 -9999 -9999 -9999 -9999 0.000472838 0.0003219 0.000489002 0.000497531 0.000497451 0.000485248 0.000496632 0.000300257 0.000155445 0.000156202 0.000466161 0.000158425 0.00015713 0.000157034 0.000156362 0.000149891 0.000485132 0.000149466 0.000153197 0.000152742 0.000149343 0.00047578 0.000442538 0.000173343 0.000155566 0.000475263 0.000474259 0.000464677 0.000483395 0.000480094 0.000490948 0.000466863 0.000452263 0.000478709 0.000468748 0.000483065 0.000484531 -9999 -9999 -9999 -9999 -9999 -9999 -9999 -9999 -9999 -9999
-9999 -9999 -9999 -9999 -9999 -9999 -9999 -9999 -9999 -9999 -9999 -9999 -9999 -9999 0.00047984 0.00026597 0.000494529 0.000483168 0.000492593 0.000475676 0.000253584 0.000265595 0.000247672 0.000464189 0.000154103 0.000277008 0.000159675 0.000149765 0.000149595 0.000489373 0.000475465 0.000148886 0.000148573 0.000459765 0.000463019 0.00016595 0.000168484 0.000153767 0.000471106 0.000468108 0.000475385 0.000453555 0.000474019 0.000489032 0.000494773 0.000482767 0.000500281 0.0004996 0.00048239 -9999 -9999 -9999 -9999 -9999 -9999 -9999 -9999 -9999 -9999 -9999
-9999 -9999 -9999 -9999 -9999 -9999 -9999 -9999 -9999 -9999 -9999 -9999 -9999 -9999 0.000489389 0.000344654 0.000499498 0.00048398 0.000496236 0.000476019 0.000267968 0.000492026 0.000490446 0.000244964 0.000297811 0.000261487 0.000162575 0.000156755 0.000202862 0.000474176 0.000152561 0.000153858 0.000498364 0.000467986 0.000153692 0.00016617 0.000156892 0.000155496 0.000472016 0.000476029 0.000463907 0.00046498 0.000482046 0.000468927 0.000490709 0.000474313 0.00048908 0.000475486 -9999 -9999 -9999 -9999 -9999 -9999 -9999 -9999 -9999 -9999 -9999 -9999
-9999 -9999 -9999 -9999 -9999 -9999 -9999 -9999 -9999 -9999 -9999 -9999 -9999 -9999 -9999 0.00049325 0.000324216 0.000481177 0.000482644 0.0004774 0.000272522 0.000487925 0.000483014 0.000476149 0.000485055 0.000473983 0.000248463 0.00030622 0.000275879 0.000160052 0.000157964 0.000474318 0.000153508 0.000489166 0.000178018 0.000263867 0.00026191 0.000490393 0.00046979 0.000465619 0.000462532 0.000462964 0.000484144 0.000472238 0.000469138 0.000470967 0.000501152 0.00049579 0.000480012 0.000476789 0.000484899 0.000465206 0.000478957 -9999 -9999 -9999 -9999 -9999 -9999 -9999
-9999 -9999 -9999 -9999 -9999 -9999 -9999 -9999 -9999 -9999 -9999 -9999 -9999 -9999 -9999 0.000481619 0.000268836 0.000486745 0.00047072 0.000282429 0.000458365 0.000494577 0.000469446 0.000492433 0.000479004 0.000482926 0.00047155 0.000454975 0.000196569 0.000226523 0.000267866 0.000479634 0.000153937 0.000293944 0.00027036 0.000476317 0.000490292 0.000307483 0.000320422 0.000470199 0.00048768 0.000479827 0.000486579 0.000480455 0.000483454 0.000475707 0.000491469 0.000465886 0.000472815 0.000472894 0.000455831 0.000470877 0.00049519 -9999 -9999 -9999 -9999 -9999 -9999 -9999
-9999 -9999 -9999 -9999 -9999 -9999 -9999 -9999 -9999 -9999 -9999 -9999 -9999 -9999 -9999 0.000493911 0.000365869 0.000480907 0.000484526 0.000327529 0.000465873 0.000460726 0.000472302 0.000485424 0.000464143 0.000467285 0.000465951 0.000477844 0.000242984 0.000491438 0.000485176 0.000246515 0.000343787 0.000493864 0.00048817 0.000469919 0.000478814 0.000487169 0.000485209 0.000478088 0.000484771 0.000484061 0.000478007 0.000493201 0.000485206 0.000473555 0.00047931 0.000467142 0.000468076 0.000476296 0.000472794 0.000485723 0.000471807 -9999 -9999 -9999 -9999 -9999 -9999 -9999
-9999 -9999 -9999 -9999 -9999 -9999 -9999 -9999 -9999 -9999 -9999 -9999 -9999 -9999 0.000461913 0.000351262 0.000464445 0.000492659 0.000485785 0.00036777 0.000468622 0.000460202 0.000480959 0.000498693 0.000474727 0.000487456 0.000473835 0.000468035 0.000247149 0.00048967 0.000482333 0.000483567 0.000263493 0.000468581 0.000493391 0.000474621 0.000500701 0.000466443 0.000482184 0.000470381 0.000455871 0.000487924 0.000474775 0.000489668 0.000482925 0.000500544 0.000494579 0.000483625 0.000471088 0.00048788 0.000466033 0.000479887 0.000482916 0.000497671 -9999 -9999 -9999 -9999 -9999 -9999
-9999 -9999 -9999 -9999 -9999 -9999 -9999 -9999 -9999 -9999 -9999 -9999 -9999 0.000490467 0.000470839 0.000330004 0.000495792 0.000480746 0.000484494 0.000360571 0.000479344 0.000470369 0.000484689 0.000485802 0.000489369 0.000474207 0.00049849 0.000262285 0.000307912 0.000490558 0.000475238 0.000484258 0.000455833 0.000218597 0.000477651 0.000482788 0.000476719 0.000490174 0.000462282 0.000451037 0.000484842 0.000468909 0.00048824 0.000478672 0.000482335 0.000491767 0.000490391 0.000346387 0.000265619 0.00026626 0.000469946 0.000463053 0.000480494 0.000471594 0.00048591 -9999 -9999 -9999 -9999 -9999
-9999 -9999 -9999 -9999 -9999 -9999 -9999 -9999 -9999 -9999 -9999 -9999 0.00047452 0.000466132 0.000470415 0.000483583 0.000483561 0.000492123 0.000474246 0.00046435 0.000470824 0.000479922 0.000480643 0.000489148 0.000493035 0.000486381 0.000476473 0.000345516 0.00046812 0.000473708 0.000486096 0.000490377 0.000468576 0.000284829 0.000470051 0.000472724 0.000502253 0.000480444 0.000474482 0.000470465 0.000494536 0.000502273 0.000471048 0.000486329 0.000253446 0.0003252 0.000268016 0.000251126 0.000467101 0.00046421 0.000284085 0.000286437 0.000480479 0.000475333 0.000477388 0.000468574 0.000461213 -9999 -9999 -9999
-9999 -9999 -9999 -9999 -9999 -9999 -9999 -9999 -9999 -9999 -9999 -9999 0.00046679 0.00047282 0.000460773 0.000474532 0.000492586 0.000485769 0.000477603 0.000483695 0.000478046 0.000480441 0.000473822 0.000478875 0.00047752 0.000482328 0.000476844 0.000350287 0.000472782 0.000500591 0.000498654 0.000481954 0.000471102 0.000299174 0.000486307 0.00049735 0.000491024 0.000475909 0.000483344 0.000479319 0.000484475 0.000480314 0.00048706 0.000279253 0.000259299 0.000479255 0.00047369 0.000485318 0.000470519 0.000470381 0.00048942 0.00046699 0.000485654 0.000476041 0.000478648 0.000462581 0.000473641 -9999 -9999 -9999
-9999 -9999 -9999 -9999 -9999 -9999 -9999 -9999 -9999 -9999 -9999 0.00049324 0.000488028 0.000476743 0.000467295 0.000463357 0.000474178 0.000490957 0.000472309 0.000473801 0.000488964 0.000492132 0.000489193 0.000470763 0.00048705 0.000491417 0.000326407 0.000500268 0.000481161 0.000489971 0.000475233 0.000474903 0.000484197 0.000295328 0.000447816 0.000492528 0.000482163 0.000282254 0.000293735 0.000312878 0.000277783 0.00027792 0.000254681 0.000224857 0.000460795 0.000457367 0.000460609 0.000474904 0.000476035 0.000471151 0.00047992 0.000469973 0.000478079 0.000481171 0.000465643 0.000475071 0.000798659 -9999 -9999 -9999
-9999 -9999 -9999 -9999 -9999 -9999 -9999 -9999 -9999 -9999 -9999 -9999 -9999 0.000482669 0.000469155 0.000473507 0.000487215 0.000493755 0.000475498 0.000475676 0.000489604 0.000486239 0.000491111 0.000481151 0.00047662 0.000331031 0.000259028 0.000266779 0.000491414 0.000486758 0.000498526 0.000484746 0.00047464 0.000477622 0.000171912 0.000186112 0.000107236 0.00042408 0.000496205 0.0004853 0.000482182 0.000490121 0.000488943 0.000468649 0.000459633 0.00046546 0.000464725 0.00046925 0.000488244 0.000481856 0.000484977 0.000465376 0.000473032 0.000482081 0.000459677 0.000792576 0.000803926 -9999 -9999 -9999
-9999 -9999 -9999 -9999 -9999 -9999 -9999 -9999 -9999 -9999 -9999 -9999 -9999 -9999 0.000468755 0.00048358 0.000469623 0.000482759 0.000479974 0.000485888 0.000488364 0.000481968 0.000489536 0.000492556 0.000278329 0.000313466 0.000494677 0.00048051 0.000288181 0.000470332 0.000473636 0.000482766 0.000478099 0.000469657 0.000474698 0.000476365 0.000106291 0.000352129 0.00050431 0.000500937 0.000479698 0.000470619 0.000465012 0.00046598 0.000457992 0.000453313 0.000484331 0.000472499 0.000484851 0.000479923 0.000485399 0.000470095 0.000464896 0.00048585 0.000791496 0.000788352 0.000796664 -9999 -9999 -9999
-9999 -9999 -9999 -9999 -9999 -9999 -9999 -9999 -9999 -9999 -9999 -9999 -9999 -9999 0.000464148 0.0004793 0.000471719 0.000485596 0.000467617 0.000481433 0.000476199 0.000495734 0.000507477 0.000479016 0.000276295 0.000475587 0.000491579 0.000483644 0.000471631 0.000476377 0.000478981 0.000481517 0.000469598 0.000486862 0.000481448 0.000502884 0.000133096 0.000423733 0.000484059 0.00048708 0.000495176 0.000496164 0.000475554 0.000449076 0.000464278 0.000438646 0.000439628 0.000469708 0.000483044 0.000495087 0.000474578 0.000494622 0.000462316 0.000474409 0.00079741 0.000793326 0.000797028 0.000790217 -9999 -9999
-9999 -9999 -9999 -9999 -9999 -9999 -9999 -9999 -9999 -9999 -9999 -9999 -9999 -9999 0.000485103 0.000480593 0.000473896 0.000492093 0.00047802 0.000496516 0.000486657 0.000470838 0.000474503 0.000253297 0.000268974 0.00026946 0.000486741 0.00048796 0.000487755 0.000459091 0.000467435 0.000458328 0.000462662 0.000455757 0.000493171 0.000478854 0.00028909 0.000179296 0.00026334 0.000473637 0.000460012 0.000470724 0.000472253 0.00045547 0.000454098 0.00045959 0.000457593 0.000462168 0.000478578 0.000482882 0.000478944 0.000474008 0.000467875 0.000796775 0.000793332 0.000800262 0.000801441 0.000806769 -9999 -9999
-9999 -9999 -9999 -9999 -9999 -9999 -9999 -9999 -9999 -9999 -9999 -9999 -9999 -9999 -9999 -9999 0.000471458 0.000480189 0.000477871 0.000476366 0.000476812 0.000485476 0.000487928 0.000286315 0.000487548 0.000478246 0.000277736 0.000271736 0.000478432 0.000476739 0.000458004 0.00045446 0.000438351 0.000447874 0.000454966 0.000457007 0.000464962 0.000265971 0.000484489 0.000262304 0.000461848 0.000471922 0.000465803 0.000461729 0.000478715 0.000462334 0.000476307 0.00044584 0.000818878 0.000815995 0.000441821 0.000471914 0.000473247 0.000803959 0.000807574 0.000816221 0.000818715 0.000818688 -9999 -9999
-9999 -9999 -9999 -9999 -9999 -9999 -9999 -9999 -9999 -9999 -9999 -9999 -9999 -9999 -9999 -9999 0.000484131 0.000498483 0.000476054 0.000469828 0.000478606 0.0004841 0.000284561 0.000313752 0.000478024 0.000467189 0.000474357 0.000260932 0.000473066 0.000485377 0.000457109 0.000448484 0.000483324 0.000465852 0.000451498 0.000459777 0.000456087 0.000234657 0.000287594 0.000478405 0.000456142 0.000471536 0.00046866 0.00046977 0.000472322 0.000450915 0.000807574 0.00081599 0.000818882 0.000812999 0.000816449 0.000809102 0.000461394 0.000461027 0.000809102 0.000814795 0.000818459 0.000817626 -9999 -9999
-9999 -9999 -9999 -9999 -9999 -9999 -9999 -9999 -9999 -9999 -9999 -9999 -9999 -9999 -9999 -9999 0.000478686 0.000483029 0.0004799 0.000473963 0.000481274 0.000466087 0.000465851 0.000312468 0.000476195 0.000468163 0.000486393 0.000488041 0.000469337 0.000468776 0.000449619 0.000460285 0.000477721 0.000473861 0.000461759 0.000468924 0.000476497 0.00047085 0.000286515 0.000482387 0.000480618 0.000450806 0.000468986 0.000469746 0.000487635 0.000797091 0.000800698 0.000805493 0.000818795 0.000815987 0.000818463 0.000813001 0.000816449 0.000457586 0.000816223 0.000818703 -9999 -9999 -9999 -9999
-9999 -9999 -9999 -9999 -9999 -9999 -9999 -9999 -9999 -9999 -9999 -9999 -9999 -9999 -9999 -9999 0.000502161 0.000495201 0.000469905 0.000460174 0.000473634 0.000454759 0.000459107 0.000260619 0.000476166 0.000469127 0.000458701 0.000462912 0.000467472 0.000482312 0.00046406 0.000478843 0.000484091 0.000468372 0.000465517 0.000475489 0.000458585 0.000481305 0.000215573 0.000478748 0.000479653 0.0004611 0.000456444 0.00044082 0.000815987 0.000803008 0.000817605 0.000806381 0.000818694 0.000816221 0.000815989 0.000812994 0.000816221 0.000485121 0.000459314 -9999 -9999 -9999 -9999 -9999
-9999 -9999 -9999 -9999 -9999 -9999 -9999 -9999 -9999 -9999 -9999 -9999 -9999 -9999 -9999 -9999 0.000489367 0.000479376 0.000468195 0.000479422 0.000472543 0.000465509 0.000459962 0.000345322 0.000467369 0.000463395 0.000485632 0.000468665 0.000463572 0.000476941 0.000472834 0.000474713 0.00048331 0.000467317 0.000456479 0.000487929 0.000457715 0.000458083 0.00046564 0.000255157 0.000470561 0.00046235 0.000453985 0.000463381 0.000818679 0.000814305 0.000818691 0.000801424 0.000798041 0.000801443 0.000805003 0.000806381 0.000818461 0.000814795 0.000451772 -9999 -9999 -9999 -9999 -9999
-9999 -9999 -9999 -9999 -9999 -9999 -9999 -9999 -9999 -9999 -9999 -9999 -9999 -9999 -9999 -9999 -9999 -9999 0.000470849 0.000466729 0.000451607 0.000455806 0.000474507 0.000460351 0.000448026 0.000476824 0.000463975 0.000454926 0.00045705 0.000458257 0.000446633 0.000472862 0.000478637 0.000448662 0.000478244 0.000480926 0.000486968 0.000489328 0.000483421 0.000171625 0.000476109 0.000447403 0.000451288 0.000454488 0.000818892 0.000814305 0.000804446 0.000779236 0.000790627 0.000797724 0.000803009 0.000804474 0.000816448 0.000815991 0.000465298 -9999 -9999 -9999 -9999 -9999
-9999 -9999 -9999 -9999 -9999 -9999 -9999 -9999 -9999 -9999 -9999 -9999 -9999 -9999 -9999 -9999 -9999 -9999 0.000492839 0.000474644 0.000470733 0.000486457 0.000471063 0.000459992 0.000446696 0.000442586 0.000455666 0.000460426 0.000451069 0.000452873 0.000455078 0.000459273 0.000448926 0.000470411 0.000482703 0.000475781 0.000481042 0.000484682 0.000477825 0.000302407 0.0002938 0.000466186 0.000453754 0.000467227 0.000801421 0.000781318 0.000784769 0.000770108 0.000817611 0.000797057 0.000815984 0.000816449 0.000815981 0.000814795 -9999 -9999 -9999 -9999 -9999 -9999
-9999 -9999 -9999 -9999 -9999 -9999 -9999 -9999 -9999 -9999 -9999 -9999 -9999 -9999 -9999 -9999 -9999 -9999 -9999 -9999 -9999 0.000492404 0.000483904 0.000457997 0.00047521 0.000449217 0.000457419 0.000442423 0.000434206 0.000441 0.000462805 0.000462504 0.000453064 0.000477345 0.000472851 0.000486683 0.000480378 0.000472296 0.000477486 0.000265087 0.000544356 0.000252013 0.000454986 0.000437819 0.000464243 0.000786883 0.000786878 0.000778858 0.000818675 0.000805007 0.000818801 0.000818471 0.000816222 0.00048043 -9999 -9999 -9999 -9999 -9999 -9999
-9999 -9999 -9999 -9999 -9999 -9999 -9999 -9999 -9999 -9999 -9999 -9999 -9999 -9999 -9999 -9999 -9999 -9999 -9999 -9999 -9999 0.000493244 0.000477263 0.000470115 0.000466521 0.000451059 0.000453126 0.000449098 0.000448703 0.000460656 0.000451708 0.000449472 0.000453534 0.000452034 0.000476063 0.000490579 0.000481272 0.000487587 0.000321255 0.000296421 0.000500092 0.000279871 0.000478924 0.000469487 0.000426463 0.000783041 0.000805954 0.000792958 0.000816449 0.000818918 0.000818883 0.000817618 0.00080396 0.000485232 -9999 -9999 -9999 -9999 -9999 -9999
-9999 -9999 -9999 -9999 -9999 -9999 -9999 -9999 -9999 -9999 -9999 -9999 -9999 -9999 -9999 -9999 -9999 -9999 -9999 -9999 -9999 -9999 0.000467468 0.000457245 0.000454112 0.000451553 0.000438036 0.000437065 0.000431652 0.000453571 0.000460137 0.000445407 0.000443579 0.000452223 0.000480303 0.000477339 0.000487308 0.000286399 0.000276923 0.000292197 0.000481871 0.000478679 0.000306837 0.000480429 0.000442357 0.000459589 0.000791831 0.000798039 0.000813005 0.000818461 0.000818971 0.000488505 0.000468287 -9999 -9999 -9999 -9999 -9999 -9999 -9999
-9999 -9999 -9999 -9999 -9999 -9999 -9999 -9999 -9999 -9999 -9999 -9999 -9999 -9999 -9999 -9999 -9999 -9999 -9999 -9999 -9999 -9999 0.000472329 0.000459098 0.000448071 0.000442018 0.000447627 0.000453224 0.000452323 0.000454916 0.000452984 0.000455636 0.000469077 0.000467935 0.000455473 0.000472279 0.000282098 0.000490879 0.000489778 0.000491108 0.000492402 0.000492716 0.000265451 0.000472089 0.000465318 0.000442724 0.000464746 0.00045238 0.000463675 0.000465348 0.000471706 0.000464952 0.000453336 -9999 -9999 -9999 -9999 -9999 -9999 -9999
-9999 -9999 -9999 -9999 -9999 -9999 -9999 -9999 -9999 -9999 -9999 -9999 -9999 -9999 -9999 -9999 -9999 -9999 -9999 -9999 -9999 -9999 -9999 0.000466525 0.00045205 0.000441205 0.000434599 0.000445576 0.000440037 0.000454681 0.000460889 0.000456826 0.000456696 0.000468295 0.000435934 0.00046318 0.000310171 0.000469219 0.000330506 0.000483656 0.000490407 0.000487694 0.000310428 0.000477745 0.000438368 0.000427865 0.000444292 0.000436607 0.000433918 0.000437492 0.000497363 0.000486832 -9999 -9999 -9999 -9999 -9999 -9999 -9999 -9999
-9999 -9999 -9999 -9999 -9999 -9999 -9999 -9999 -9999 -9999 -9999 -9999 -9999 -9999 -9999 -9999 -9999 -9999 -9999 -9999 -9999 -9999 -9999 -9999 0.000456907 0.000448797 0.000445884 0.000447555 0.000475368 0.000452539 0.000456115 0.000452082 0.000462552 0.000467584 0.000459564 0.000261642 0.000482684 0.000355187 0.000462924 0.000459554 0.000479016 0.000307465 0.000278661 0.000477318 0.000448311 0.000451787 0.000465678 0.000435968 0.000449874 0.00044158 0.000448839 -9999 -9999 -9999 -9999 -9999 -9999 -9999 -9999 -9999
-9999 -9999 -9999 -9999 -9999 -9999 -9999 -9999 -9999 -9999 -9999 -9999 -9999 -9999 -9999 -9999 -9999 -9999 -9999 -9999 -9999 -9999 -9999 -9999 -9999 0.000448038 0.000442182 0.000453374 0.000439343 0.000463278 0.000454486 0.000443164 0.000447119 0.000440995 0.000448434 0.000267647 0.000489549 0.000290731 0.000459346 0.000463928 0.000464079 0.000356327 0.000475956 0.000460063 0.000444361 0.000456954 0.000446394 0.000452988 0.00046323 0.000441527 -9999 -9999 -9999 -9999 -9999 -9999 -9999 -9999 -9999 -9999
-9999 -9999 -9999 -9999 -9999 -9999 -9999 -9999 -9999 -9999 -9999 -9999 -9999 -9999 -9999 -9999 -9999 -9999 -9999 -9999 -9999 -9999 -9999 -9999 -9999 -9999 -9999 0.000461257 0.000438854 0.000455966 0.000441622 0.000457065 0.000456637 0.000445808 0.000296504 0.000450095 0.000344488 0.000481975 0.000460266 0.000455284 0.000480638 0.000367359 0.000472927 0.000451697 0.000469315 0.000460764 0.000456139 0.000456455 0.000458113 0.000453114 0.000495236 -9999 -9999 -9999 -9999 -9999 -9999 -9999 -9999 -9999
-9999 -9999 -9999 -9999 -9999 -9999 -9999 -9999 -9999 -9999 -9999 -9999 -9999 -9999 -9999 -9999 -9999 -9999 -9999 -9999 -9999 -9999 -9999 -9999 -9999 -9999 -9999 -9999 0.000440611 0.00043771 0.000466727 0.000479915 0.000445757 0.000445547 0.000464465 0.000449935 0.000361181 0.000447546 0.00045168 0.000474784 0.000322076 0.00046777 0.000457875 0.000463394 0.000467969 0.000456598 0.000446392 0.000463706 0.000483637 -9999 -9999 -9999 -9999 -9999 -9999 -9999 -9999 -9999 -9999 -9999
-9999 -9999 -9999 -9999 -9999 -9999 -9999 -9999 -9999 -9999 -9999 -9999 -9999 -9999 -9999 -9999 -9999 -9999 -9999 -9999 -9999 -9999 -9999 -9999 -9999 -9999 -9999 -9999 0.000453107 0.000459439 0.000459672 0.000448616 0.000451996 0.000460912 0.000436737 0.000442041 0.00028648 0.000448535 0.000469438 0.000466419 0.000484822 0.000460178 0.000453174 0.00047494 0.000463359 0.000459017 0.000456388 0.000472414 0.000493201 -9999 -9999 -9999 -9999 -9999 -9999 -9999 -9999 -9999 -9999 -9999
-9999 -9999 -9999 -9999 -9999 -9999 -9999 -9999 -9999 -9999 -9999 -9999 -9999 -9999 -9999 -9999 -9999 -9999 -9999 -9999 -9999 -9999 -9999 -9999 -9999 -9999 -9999 -9999 0.000441499 0.000444831 0.000447311 0.000468806 0.000467137 0.000472815 0.000439468 0.000251476 0.000449671 0.000438576 0.000448124 0.000468231 0.000472433 0.000444126 0.000443485 0.000464101 0.000476394 0.00046902 -9999 -9999 -9999 -9999 -9999 -9999 -9999 -9999 -9999 -9999 -9999 -9999 -9999 -9999
-9999 -9999 -9999 -9999 -9999 -9999 -9999 -9999 -9999 -9999 -9999 -9999 -9999 -9999 -9999 -9999 -9999 -9999 -9999 -9999 -9999 -9999 -9999 -9999 -9999 -9999 -9999 -9999 0.000447371 0.000455737 0.000444702 0.000469566 0.000462195 0.000464438 0.000440344 0.000454987 0.000466412 0.000471156 0.000462749 0.000462848 0.000468092 0.000459695 0.000454344 0.000466692 0.000475876 0.000480916 -9999 -9999 -9999 -9999 -9999 -9999 -9999 -9999 -9999 -9999 -9999 -9999 -9999 -9999
-9999 -9999 -9999 -9999 -9999 -9999 -9999 -9999 -9999 -9999 -9999 -9999 -9999 -9999 -9999 -9999 -9999 -9999 -9999 -9999 -9999 -9999 -9999 -9999 -9999 -9999 -9999 0.000448732 0.000465559 0.000485443 0.000438476 0.000459963 0.00047159 0.000476509 0.000465972 0.000453918 0.000454314 0.000466489 0.000460428 0.000463895 0.000478946 0.000448427 0.000469397 -9999 -9999 -9999 -9999 -9999 -9999 -9999 -9999 -9999 -9999 -9999 -9999 -9999 -9999 -9999 -9999 -9999
-9999 -9999 -9999 -9999 -9999 -9999 -9999 -9999 -9999 -9999 -9999 -9999 -9999 -9999 -9999 -9999 -9999 -9999 -9999 -9999 -9999 -9999 -9999 -9999 -9999 -9999 0.000449432 0.000460034 0.000469909 0.000473864 0.000467208 0.000457738 0.000467483 0.000454063 0.00046368 0.000464608 0.000459764 0.000456548 0.000470213 0.000462807 0.000470978 0.000468678 -9999 -9999 -9999 -9999 -9999 -9999 -9999 -9999 -9999 -9999 -9999 -9999 -9999 -9999 -9999 -9999 -9999 -9999
-9999 -9999 -9999 -9999 -9999 -9999 -9999 -9999 -9999 -9999 -9999 -9999 -9999 -9999 -9999 -9999 -9999 -9999 -9999 -9999 -9999 -9999 -9999 -9999 -9999 -9999 -9999 -9999 -9999 -9999 -9999 -9999 -9999 0.000486164 0.000466367 0.000468252 0.000465828 0.000468153 0.000450903 0.000459986 0.000473893 -9999 -9999 -9999 -9999 -9999 -9999 -9999 -9999 -9999 -9999 -9999 -9999 -9999 -9999 -9999 -9999 -9999 -9999 -9999
-9999 -9999 -9999 -9999 -9999 -9999 -9999 -9999 -9999 -9999 -9999 -9999 -9999 -9999 -9999 -9999 -9999 -9999 -9999 -9999 -9999 -9999 -9999 -9999 -9999 -9999 -9999 -9999 -9999 -9999 -9999 -9999 -9999 -9999 -9999 0.000480616 0.000467331 -9999 -9999 -9999 -9999 -9999 -9999 -9999 -9999 -9999 -9999 -9999 -9999 -9999 -9999 -9999 -9999 -9999 -9999 -9999 -9999 -9999 -9999 -9999
-9999 -9999 -9999 -9999 -9999 -9999 -9999 -9999 -9999 -9999 -9999 -9999 -9999 -9999 -9999 -9999 -9999 -9999 -9999 -9999 -9999 -9999 -9999 -9999 -9999 -9999 -9999 -9999 -9999 -9999 -9999 -9999 -9999 -9999 -9999 -9999 -9999 -9999 -9999 -9999 -9999 -9999 -9999 -9999 -9999 -9999 -9999 -9999 -9999 -9999 -9999 -9999 -9999 -9999 -9999 -9999 -9999 -9999 -9999 -9999
