ncols 60
nrows 65
xllcorner 739300.0
yllcorner 4553050.0
cellsize 50.0
nodata_value -9999
-9999 -9999 -9999 -9999 -9999 -9999 -9999 -9999 -9999 -9999 -9999 -9999 -9999 -9999 -9999 -9999 -9999 -9999 -9999 -9999 -9999 -9999 -9999 -9999 -9999 -9999 -9999 -9999 -9999 -9999 -9999 -9999 -9999 -9999 -9999 -9999 -9999 -9999 -9999 -9999 -9999 -9999 -9999 -9999 -9999 -9999 -9999 -9999 -9999 -9999 -9999 -9999 -9999 -9999 -9999 -9999 -9999 -9999 -9999 -9999
-9999 -9999 -9999 -9999 -9999 -9999 -9999 -9999 -9999 -9999 -9999 -9999 -9999 -9999 -9999 -9999 -9999 -9999 -9999 -9999 1.95185e-05 -9999 -9999 -9999 -9999 -9999 -9999 -9999 -9999 -9999 -9999 -9999 -9999 -9999 -9999 -9999 -9999 -9999 -9999 -9999 -9999 -9999 -9999 -9999 -9999 -9999 -9999 -9999 -9999 -9999 -9999 -9999 -9999 -9999 -9999 -9999 -9999 -9999 -9999 -9999
-9999 -9999 1.39413e-05 8.38305e-05 4.8702e-05 1.43196e-05 7.8734e-06 1.10648e-05 -9999 -9999 -9999 -9999 -9999 -9999 -9999 -9999 -9999 -9999 -9999 3.07424e-05 3.50366e-05 2.31001e-05 -9999 -9999 -9999 -9999 -9999 -9999 -9999 -9999 -9999 -9999 -9999 -9999 -9999 -9999 -9999 -9999 -9999 -9999 -9999 -9999 -9999 -9999 -9999 -9999 -9999 -9999 -9999 -9999 -9999 -9999 -9999 -9999 -9999 -9999 -9999 -9999 -9999 -9999
-9999 1.42312e-05 3.57263e-05 2.02187e-05 4.05503e-05 1.93279e-05 2.45147e-05 1.59026e-05 9.40145e-06 -9999 -9999 -9999 -9999 -9999 -9999 -9999 2.22001e-05 2.05096e-05 4.11741e-05 4.97177e-05 3.68984e-05 3.48067e-05 -9999 -9999 -9999 -9999 -9999 -9999 -9999 -9999 -9999 -9999 -9999 -9999 -9999 -9999 -9999 -9999 -9999 -9999 -9999 -9999 -9999 -9999 -9999 -9999 -9999 -9999 -9999 -9999 -9999 -9999 -9999 -9999 -9999 -9999 -9999 -9999 -9999 -9999
2.25872e-05 3.55357e-05 3.90126e-05 3.57123e-05 1.80278e-05 1.80847e-05 3.18136e-05 1.25748e-05 8.86827e-06 -9999 -9999 -9999 -9999 -9999 2.07308e-05 2.90503e-05 1.0611e-05 9.18231e-06 5.23721e-06 6.51193e-06 2.92292e-05 2.27535e-05 2.60659e-05 -9999 -9999 -9999 -9999 -9999 -9999 -9999 -9999 -9999 -9999 -9999 -9999 -9999 -9999 -9999 -9999 -9999 -9999 -9999 -9999 -9999 -9999 -9999 -9999 -9999 -9999 -9999 -9999 -9999 -9999 -9999 -9999 -9999 -9999 -9999 -9999 -9999
1.30726e-05 4.18371e-05 1.01115e-05 1.58768e-05 1.32386e-05 1.9203e-05 2.1333e-05 0.00108337 0.00117367 1.27474e-05 1.73539e-05 2.40281e-05 0.00111601 0.00125605 2.78871e-05 5.72511e-05 4.09422e-05 5.34924e-05 5.81343e-05 3.35772e-05 2.77495e-05 2.6266e-05 3.92628e-05 2.13349e-05 -9999 -9999 -9999 -9999 -9999 -9999 -9999 -9999 -9999 -9999 -9999 -9999 -9999 -9999 -9999 -9999 -9999 -9999 -9999 -9999 -9999 -9999 -9999 -9999 -9999 -9999 -9999 -9999 -9999 -9999 -9999 -9999 -9999 -9999 -9999 -9999
1.39355e-05 2.8065e-05 1.9219e-05 1.23843e-05 9.87317e-06 2.33765e-05 1.15198e-05 1.95669e-05 0.00125636 0.00113556 9.41848e-06 7.2154e-06 8.60875e-06 1.77001e-05 5.1224e-05 3.98253e-05 2.52961e-05 2.94006e-05 4.48198e-05 3.43117e-05 3.01679e-05 4.18739e-05 3.17319e-05 1.66352e-05 -9999 -9999 -9999 -9999 -9999 -9999 -9999 -9999 -9999 -9999 -9999 -9999 -9999 -9999 -9999 -9999 -9999 -9999 -9999 -9999 -9999 -9999 -9999 -9999 -9999 -9999 -9999 -9999 -9999 -9999 -9999 -9999 -9999 -9999 -9999 -9999
1.43211e-05 2.71672e-05 1.61813e-05 2.34585e-05 1.61359e-05 1.45767e-05 5.88538e-06 1.7512e-05 2.12926e-05 1.13907e-05 1.73669e-05 1.24028e-05 2.96785e-05 3.83294e-05 3.58583e-05 5.34384e-05 3.11427e-05 2.77462e-05 4.34811e-05 3.50494e-05 2.0083e-05 2.60745e-05 2.56474e-05 3.56834e-05 -9999 -9999 -9999 -9999 -9999 -9999 -9999 -9999 -9999 -9999 -9999 -9999 -9999 -9999 -9999 -9999 -9999 -9999 -9999 -9999 -9999 -9999 -9999 -9999 -9999 -9999 -9999 -9999 -9999 -9999 -9999 -9999 -9999 -9999 -9999 -9999
-9999 1.82175e-05 2.39493e-05 4.64599e-05 2.26097e-05 2.96439e-05 1.40591e-05 9.55287e-06 9.49299e-06 3.05086e-05 3.92722e-05 3.82148e-05 4.0152e-05 3.88456e-05 3.13911e-05 3.20098e-05 3.95867e-05 2.1231e-05 1.39134e-05 2.54027e-05 1.77431e-05 2.10424e-05 3.17355e-05 1.83603e-05 -9999 -9999 -9999 -9999 -9999 -9999 -9999 -9999 -9999 -9999 -9999 -9999 -9999 -9999 -9999 -9999 -9999 -9999 -9999 -9999 -9999 -9999 -9999 -9999 -9999 -9999 -9999 -9999 -9999 -9999 -9999 -9999 -9999 -9999 -9999 -9999
-9999 -9999 2.41795e-05 6.76248e-05 2.65719e-05 3.2925e-05 1.43774e-05 1.32523e-05 1.06677e-05 1.20859e-05 1.80428e-05 3.22759e-05 2.90758e-05 3.56029e-05 3.35159e-05 3.60599e-05 3.55634e-05 1.6347e-05 1.6224e-05 1.1148e-05 1.11871e-05 2.5384e-05 2.52211e-05 -9999 -9999 -9999 -9999 -9999 -9999 -9999 -9999 -9999 -9999 -9999 -9999 -9999 -9999 -9999 -9999 -9999 -9999 -9999 -9999 -9999 -9999 -9999 -9999 -9999 -9999 -9999 -9999 -9999 -9999 -9999 -9999 -9999 -9999 -9999 -9999 -9999
-9999 -9999 1.22735e-05 4.85828e-05 9.35573e-05 2.50064e-05 7.98245e-06 8.42424e-06 1.0996e-05 1.01603e-05 1.67792e-05 1.16767e-05 1.88716e-05 2.43853e-05 1.7839e-05 1.73036e-05 1.61351e-05 1.98279e-05 1.69504e-05 1.61033e-05 2.0908e-05 2.17295e-05 2.61553e-05 -9999 -9999 -9999 -9999 -9999 -9999 -9999 -9999 -9999 -9999 -9999 -9999 -9999 -9999 -9999 -9999 -9999 -9999 -9999 -9999 -9999 -9999 -9999 -9999 -9999 -9999 -9999 -9999 -9999 -9999 -9999 -9999 -9999 -9999 -9999 -9999 -9999
-9999 -9999 7.4752e-06 2.65472e-05 0.000102176 0.00121907 5.48644e-06 1.0255e-05 6.60904e-06 1.14389e-05 6.88659e-06 6.77177e-06 8.07321e-06 1.99333e-05 1.84453e-05 1.37892e-05 1.38641e-05 2.36758e-05 2.70073e-05 2.73844e-05 3.04233e-05 2.87289e-05 2.90673e-05 -9999 -9999 -9999 -9999 -9999 -9999 -9999 -9999 -9999 -9999 -9999 -9999 -9999 -9999 -9999 -9999 -9999 -9999 -9999 -9999 -9999 -9999 -9999 -9999 -9999 -9999 -9999 -9999 -9999 -9999 -9999 -9999 -9999 -9999 -9999 -9999 -9999
-9999 -9999 -9999 2.98744e-05 0.000101812 0.00115996 1.46779e-05 1.70058e-05 0.00117316 0.00130557 0.00129743 0.00131631 7.55563e-06 7.24884e-06 9.50351e-06 7.54249e-06 1.87579e-05 8.50918e-06 3.34975e-05 2.73619e-05 2.80089e-05 2.24824e-05 1.32619e-05 2.14627e-05 -9999 -9999 -9999 -9999 1.60275e-05 -9999 -9999 -9999 -9999 -9999 -9999 -9999 -9999 -9999 -9999 -9999 -9999 -9999 -9999 -9999 -9999 -9999 -9999 -9999 -9999 -9999 -9999 -9999 -9999 -9999 -9999 -9999 -9999 -9999 -9999 -9999
-9999 -9999 -9999 1.55129e-05 5.41202e-05 0.00126626 4.64569e-06 4.04279e-06 3.96056e-06 3.55785e-06 0.00126573 6.16386e-06 6.21391e-06 5.0368e-06 5.13352e-06 1.4083e-05 5.68736e-06 4.79293e-05 1.7732e-05 1.44617e-05 1.20451e-05 1.50325e-05 9.69694e-06 2.12903e-05 1.71922e-05 2.06319e-05 1.7245e-05 4.05395e-05 3.36486e-05 3.06767e-05 2.20389e-05 -9999 -9999 -9999 -9999 -9999 -9999 -9999 -9999 -9999 -9999 -9999 -9999 -9999 -9999 -9999 -9999 -9999 -9999 -9999 -9999 -9999 -9999 -9999 -9999 -9999 -9999 -9999 -9999 -9999
-9999 -9999 -9999 4.13774e-05 4.87118e-05 0.00128619 0.0012784 0.00122768 7.12448e-06 0.00121638 0.0012026 3.50668e-06 0.00129226 0.00125964 5.50334e-06 9.67109e-06 1.91863e-05 2.41886e-05 1.65851e-05 8.7743e-06 7.55188e-06 1.42978e-05 1.93831e-05 8.26098e-06 9.92521e-06 4.18501e-05 3.60387e-05 5.36054e-05 4.61566e-05 3.92798e-05 2.50851e-05 2.2063e-05 -9999 -9999 -9999 -9999 -9999 -9999 -9999 -9999 -9999 -9999 -9999 -9999 -9999 -9999 -9999 -9999 -9999 -9999 -9999 -9999 -9999 -9999 -9999 -9999 -9999 -9999 -9999 -9999
-9999 -9999 -9999 3.42876e-05 6.26821e-05 0.0012866 0.00122899 1.35169e-05 0.00120467 0.00117849 0.00130578 0.00123087 0.00122701 1.31143e-05 2.24975e-05 1.52689e-05 8.08461e-06 7.1881e-06 1.51232e-05 1.69804e-05 1.53155e-05 3.26253e-05 1.7047e-05 3.13936e-05 3.87297e-05 8.29801e-06 1.87027e-05 4.12797e-05 3.21711e-05 1.95323e-05 2.49651e-05 3.13916e-05 1.11328e-05 -9999 -9999 -9999 -9999 -9999 -9999 -9999 -9999 -9999 -9999 -9999 -9999 -9999 -9999 -9999 -9999 -9999 -9999 -9999 -9999 -9999 -9999 -9999 -9999 -9999 -9999 -9999
-9999 -9999 -9999 1.37687e-05 2.78125e-05 3.51283e-06 1.05822e-05 1.29364e-05 4.22626e-05 3.08491e-05 0.0013129 0.00125875 1.35132e-05 1.73805e-05 1.0907e-05 6.71019e-06 9.84962e-06 2.8025e-06 1.42856e-05 1.61719e-05 2.08615e-05 1.91221e-05 1.05996e-05 2.84677e-05 1.74026e-05 9.23584e-06 5.40016e-05 3.73897e-05 1.98105e-05 1.97872e-05 2.64927e-05 2.43167e-05 2.23207e-05 -9999 -9999 -9999 -9999 -9999 -9999 5.43948e-05 3.99895e-05 4.25348e-05 1.24547e-05 7.52226e-06 -9999 -9999 -9999 -9999 -9999 -9999 -9999 -9999 -9999 -9999 -9999 -9999 -9999 -9999 -9999 -9999
-9999 -9999 -9999 1.62719e-05 1.25886e-05 0.00117437 0.00130396 9.33221e-06 1.57453e-05 3.72943e-05 3.68697e-05 9.44293e-06 1.38353e-05 8.68136e-06 3.48574e-06 5.62592e-06 4.49436e-06 1.32112e-05 2.52034e-05 1.60372e-05 1.22523e-05 9.34157e-06 4.60275e-05 1.26961e-05 4.47203e-05 6.58116e-05 5.68662e-05 2.79851e-05 2.38276e-05 1.75165e-05 3.35195e-05 3.95357e-05 1.70738e-05 2.51092e-05 -9999 -9999 -9999 -9999 -9999 5.84807e-05 5.29771e-05 2.49664e-05 8.50658e-06 3.08024e-06 -9999 -9999 -9999 -9999 -9999 -9999 -9999 -9999 -9999 -9999 -9999 -9999 -9999 -9999 -9999 -9999
-9999 -9999 -9999 7.30087e-06 1.22924e-05 0.00125594 0.00122901 7.37047e-06 1.14358e-05 1.16992e-05 1.94311e-05 1.56355e-05 2.17994e-05 3.89021e-05 1.03826e-05 4.71199e-06 1.34132e-05 3.8253e-05 3.33232e-05 1.2531e-05 4.14906e-05 2.97907e-05 1.2431e-05 6.47336e-05 2.74232e-05 2.90485e-05 3.18407e-05 2.58875e-05 2.3417e-05 2.34105e-05 8.20489e-06 1.42349e-05 7.94845e-06 1.25915e-05 1.37577e-05 -9999 -9999 -9999 6.65775e-05 5.80374e-05 3.22731e-05 2.7645e-05 8.9393e-06 5.71916e-06 -9999 -9999 -9999 -9999 -9999 -9999 -9999 -9999 -9999 -9999 -9999 -9999 -9999 -9999 -9999 -9999
-9999 -9999 -9999 6.12885e-06 9.78609e-06 9.53109e-06 0.00131183 1.11683e-05 1.40536e-05 8.11358e-06 1.17785e-05 1.27099e-05 1.78379e-05 7.14763e-05 3.52157e-05 4.15307e-05 2.95265e-05 6.32252e-05 0.00104946 0.00122879 3.07811e-05 3.88194e-05 3.13338e-05 2.8575e-05 2.63021e-05 3.33629e-05 1.51124e-05 4.27991e-05 2.14592e-05 1.41881e-05 3.67154e-05 3.44788e-05 5.17818e-05 3.38331e-05 1.317e-05 5.89618e-05 2.85444e-05 4.17463e-05 5.63918e-05 4.80336e-05 4.3101e-05 2.13392e-05 7.92883e-06 6.29186e-06 8.13145e-06 -9999 -9999 -9999 -9999 -9999 -9999 -9999 -9999 -9999 -9999 -9999 -9999 -9999 -9999 -9999
-9999 -9999 -9999 -9999 1.53196e-05 1.74887e-05 7.77704e-06 4.98791e-06 1.10749e-05 1.49515e-05 1.3061e-05 1.5614e-05 2.54635e-05 3.0561e-05 2.12883e-05 6.42645e-05 4.44686e-05 4.70252e-05 6.75701e-05 3.27197e-05 1.67175e-05 1.61615e-05 1.9247e-05 2.89789e-05 2.23724e-05 9.93483e-06 4.52385e-05 1.49727e-05 3.47093e-05 2.85212e-05 2.94352e-05 2.39547e-05 2.90553e-05 2.45238e-05 3.5838e-05 7.81019e-06 9.53267e-06 5.94085e-05 3.99771e-05 3.83774e-05 2.12431e-05 1.90614e-05 1.234e-05 7.9598e-06 4.16154e-06 1.82934e-05 8.71068e-06 1.43947e-05 1.78339e-05 -9999 -9999 -9999 -9999 -9999 -9999 -9999 -9999 -9999 -9999 -9999
-9999 -9999 -9999 -9999 7.2397e-06 8.90521e-06 6.77852e-06 6.59406e-06 1.01543e-05 6.98534e-06 1.14869e-05 1.37409e-05 1.35675e-05 3.78555e-05 1.51152e-05 3.39755e-05 1.96344e-05 1.75043e-05 3.47901e-05 4.61213e-05 4.17681e-05 2.02793e-05 1.26675e-05 1.33825e-05 7.71236e-06 2.26466e-05 2.45894e-05 4.01066e-05 2.35065e-05 3.8483e-05 1.89166e-05 2.11642e-05 1.29541e-05 2.72757e-05 2.60385e-05 3.29162e-05 4.44728e-05 2.34609e-05 5.44961e-05 6.1038e-05 3.93073e-05 1.56002e-05 1.51335e-05 8.58549e-06 8.74946e-06 1.46828e-05 1.12925e-05 1.57562e-05 1.90871e-05 -9999 -9999 -9999 -9999 -9999 -9999 -9999 -9999 -9999 -9999 -9999
-9999 -9999 -9999 -9999 -9999 6.4757e-06 7.3724e-06 6.94538e-06 9.19999e-06 6.53512e-06 9.67832e-06 8.38529e-06 1.14251e-05 1.95119e-05 1.01137e-05 2.88783e-05 1.92825e-05 3.74726e-05 2.09269e-05 7.36092e-05 6.19445e-05 0.00119974 0.00115765 0.00113829 2.47608e-05 1.15708e-05 2.79139e-05 2.17375e-05 1.95629e-05 2.47407e-05 1.44289e-05 1.71575e-05 1.57991e-05 2.15624e-05 3.0901e-05 2.06771e-05 2.88669e-05 3.6513e-05 1.48818e-05 6.75211e-05 3.01991e-05 2.28268e-05 1.50964e-05 8.27588e-06 1.661e-05 1.37708e-05 1.71481e-05 1.95418e-05 2.00415e-05 2.06671e-05 -9999 -9999 -9999 -9999 -9999 -9999 -9999 -9999 -9999 -9999
-9999 -9999 -9999 -9999 -9999 -9999 -9999 -9999 -9999 -9999 7.02993e-06 1.025e-05 1.42108e-05 1.52346e-05 2.72367e-05 2.59525e-05 1.08795e-05 2.62345e-05 3.69214e-05 3.95641e-05 7.00648e-05 4.23853e-05 3.64138e-05 5.0219e-05 2.44948e-05 2.19024e-05 1.73076e-05 1.27782e-05 1.05261e-05 1.06177e-05 1.32984e-05 8.59221e-06 1.2013e-05 1.2928e-05 3.39295e-05 1.61233e-05 2.608e-05 2.35124e-05 2.50604e-05 1.07077e-05 5.16549e-06 5.01788e-05 1.73911e-05 9.36911e-06 1.74818e-05 2.36972e-05 6.5269e-06 2.22296e-05 2.51988e-05 2.20019e-05 1.80051e-05 -9999 -9999 -9999 -9999 -9999 -9999 -9999 -9999 -9999
-9999 -9999 -9999 -9999 -9999 -9999 -9999 -9999 -9999 -9999 -9999 -9999 1.164e-05 1.68955e-05 1.08389e-05 1.38453e-05 1.1745e-05 1.7224e-05 1.26703e-05 3.18097e-05 3.93044e-05 0.00126158 0.00129005 1.15138e-05 1.21507e-05 2.5359e-05 1.56017e-05 1.88903e-05 1.75141e-05 1.27237e-05 7.65513e-06 8.01386e-06 6.90531e-06 9.5267e-06 8.48176e-06 1.99228e-05 1.97275e-05 3.14661e-05 3.30777e-05 5.46041e-05 5.06286e-05 8.73435e-06 3.0717e-05 3.4337e-05 1.00062e-05 5.80603e-06 2.83701e-05 3.18067e-05 2.32998e-05 1.94317e-05 1.86196e-05 -9999 -9999 -9999 -9999 -9999 -9999 -9999 -9999 -9999
-9999 -9999 -9999 -9999 -9999 -9999 -9999 -9999 -9999 -9999 -9999 -9999 1.28006e-05 2.04089e-05 8.98015e-06 2.90227e-05 1.64751e-05 1.44465e-05 1.22744e-05 2.01563e-05 5.02386e-05 0.00121092 0.00113354 1.7477e-05 0.00110563 0.00113162 2.88294e-05 1.20845e-05 9.2353e-06 1.03731e-05 9.57313e-06 1.29437e-05 0.00118406 4.30629e-06 2.36892e-05 2.30939e-05 1.23749e-05 0.00121618 9.54086e-06 1.79127e-05 2.18658e-05 2.30745e-05 7.64246e-06 4.70635e-06 2.91632e-05 2.8369e-05 2.19151e-05 2.89319e-05 2.71714e-05 1.53193e-05 -9999 -9999 -9999 -9999 -9999 -9999 -9999 -9999 -9999 -9999
-9999 -9999 -9999 -9999 -9999 -9999 -9999 -9999 -9999 -9999 -9999 -9999 -9999 2.0627e-05 1.03461e-05 2.7208e-05 1.36011e-05 1.79184e-05 1.79967e-05 2.10841e-05 3.71725e-05 0.00119487 0.00116402 3.87875e-05 0.00111039 0.00113597 0.00115528 0.00116549 0.00126952 5.32039e-06 0.00127701 0.00123206 0.00123622 0.00128108 1.32768e-05 1.18988e-05 0.00110166 0.00119743 9.62279e-06 2.45931e-05 3.14833e-05 2.78227e-05 2.25548e-05 2.22698e-05 2.24629e-05 3.5652e-05 1.51386e-05 1.86997e-05 1.12387e-05 1.04873e-05 -9999 -9999 -9999 -9999 -9999 -9999 -9999 -9999 -9999 -9999
-9999 -9999 -9999 -9999 -9999 -9999 -9999 -9999 -9999 -9999 -9999 -9999 -9999 -9999 2.55818e-05 2.10078e-05 1.23517e-05 2.39507e-05 2.53348e-05 3.14322e-05 3.50994e-05 2.28942e-05 4.32543e-05 6.53824e-05 0.00120524 3.67451e-05 0.00108721 0.00127215 0.00127516 6.70222e-06 1.30777e-05 0.00128981 0.00129697 1.91227e-05 1.40733e-05 0.0011429 0.00108094 0.00122354 2.33157e-05 2.61254e-05 3.21743e-05 4.52974e-05 1.9286e-05 1.88975e-05 1.15432e-05 1.29721e-05 6.37889e-06 5.20478e-06 4.46468e-06 -9999 -9999 -9999 -9999 -9999 -9999 -9999 -9999 -9999 -9999 -9999
-9999 -9999 -9999 -9999 -9999 -9999 -9999 -9999 -9999 -9999 -9999 -9999 -9999 -9999 2.88331e-05 1.26179e-05 1.8888e-05 1.32673e-05 2.48741e-05 5.32789e-05 2.75531e-05 3.17522e-05 3.55547e-05 2.40695e-05 1.61343e-05 3.92372e-05 0.00100774 0.00115174 0.000832578 3.76214e-05 0.00123855 0.00122663 5.04493e-06 1.28559e-05 0.00122038 0.00109354 0.00115532 0.00119316 3.09916e-05 1.95281e-05 2.4705e-05 2.19576e-05 1.65771e-05 1.68187e-05 9.69974e-06 6.14073e-06 7.36415e-06 6.84582e-06 -9999 -9999 -9999 -9999 -9999 -9999 -9999 -9999 -9999 -9999 -9999 -9999
-9999 -9999 -9999 -9999 -9999 -9999 -9999 -9999 -9999 -9999 -9999 -9999 -9999 -9999 -9999 2.48009e-05 1.74406e-05 3.37722e-05 4.65183e-05 3.98884e-05 3.06424e-05 4.14427e-05 3.10062e-05 1.85649e-05 5.7373e-05 7.06875e-05 7.441e-05 4.74992e-05 8.43091e-05 0.00108633 0.00112228 4.65e-05 0.00122951 1.70474e-05 0.00106336 2.55262e-05 1.08211e-05 2.6242e-05 2.58257e-05 3.81874e-05 3.0141e-05 2.36198e-05 1.86818e-05 2.07757e-05 1.3821e-05 1.09514e-05 2.31465e-06 7.03506e-06 1.04126e-05 2.23017e-05 1.79649e-05 3.05931e-05 2.15524e-05 -9999 -9999 -9999 -9999 -9999 -9999 -9999
-9999 -9999 -9999 -9999 -9999 -9999 -9999 -9999 -9999 -9999 -9999 -9999 -9999 -9999 -9999 3.63865e-05 1.57072e-05 3.5543e-05 4.9405e-05 1.94638e-05 8.09785e-05 4.07957e-05 4.30201e-05 2.43489e-05 5.03812e-05 3.77574e-05 7.30858e-05 0.000100493 0.00011112 3.18049e-05 4.58055e-05 4.42966e-05 0.0012239 6.93043e-06 9.32471e-06 2.35118e-05 2.59861e-05 9.20168e-06 1.08643e-05 4.34379e-05 2.2074e-05 1.87935e-05 1.37219e-05 8.29222e-06 1.33978e-05 1.3135e-05 2.15035e-06 2.78192e-05 3.61625e-05 2.65454e-05 4.01332e-05 2.63691e-05 2.06523e-05 -9999 -9999 -9999 -9999 -9999 -9999 -9999
-9999 -9999 -9999 -9999 -9999 -9999 -9999 -9999 -9999 -9999 -9999 -9999 -9999 -9999 -9999 3.73512e-05 1.66631e-05 2.861e-05 3.80005e-05 1.61771e-05 5.50583e-05 6.67797e-05 4.61176e-05 3.82091e-05 5.78164e-05 4.72313e-05 6.50019e-05 4.8323e-05 4.93179e-05 7.43039e-05 5.41171e-05 3.80229e-05 3.99025e-05 3.353e-05 3.27984e-05 2.86673e-05 3.96436e-05 3.4816e-05 2.46969e-05 1.9081e-05 1.19871e-05 1.69974e-05 1.01667e-05 4.13877e-06 2.07801e-06 1.22812e-05 9.82912e-06 2.73414e-05 4.05e-05 2.79843e-05 5.10202e-05 2.39247e-05 1.70872e-05 -9999 -9999 -9999 -9999 -9999 -9999 -9999
-9999 -9999 -9999 -9999 -9999 -9999 -9999 -9999 -9999 -9999 -9999 -9999 -9999 -9999 5.63386e-05 1.16499e-05 5.5181e-05 3.64451e-05 4.5783e-05 1.69076e-05 6.20275e-05 4.99285e-05 4.73609e-05 2.18451e-05 3.65938e-05 2.14807e-05 2.57506e-05 7.10652e-05 3.58427e-05 3.54258e-05 1.72281e-05 4.406e-05 4.22746e-05 6.72832e-05 1.86663e-05 2.02918e-05 1.22133e-05 4.07948e-05 2.10117e-05 2.66302e-05 4.43932e-05 1.87236e-05 1.19086e-05 2.01741e-06 1.61186e-06 4.97266e-06 1.44072e-05 1.72664e-05 3.27135e-05 3.15878e-05 2.5347e-05 2.17475e-05 1.21405e-05 2.30965e-06 -9999 -9999 -9999 -9999 -9999 -9999
-9999 -9999 -9999 -9999 -9999 -9999 -9999 -9999 -9999 -9999 -9999 -9999 -9999 2.4293e-05 5.50239e-05 1.25659e-05 2.87089e-05 2.67147e-05 3.45948e-05 2.14932e-05 4.28845e-05 4.92839e-05 2.68389e-05 2.5491e-05 1.58208e-05 2.33884e-05 3.54402e-05 7.60111e-05 7.22222e-05 4.40472e-05 2.24579e-05 2.184e-05 8.45993e-05 0.00010832 4.32354e-05 2.6263e-05 1.62371e-05 3.51294e-05 5.76934e-05 8.28001e-05 3.58101e-05 1.80664e-05 9.26652e-06 7.83293e-06 9.93137e-06 1.17129e-05 3.26677e-05 1.00725e-05 1.25158e-05 1.4753e-05 5.29772e-05 4.745e-05 2.77201e-05 2.09026e-05 1.81835e-05 -9999 -9999 -9999 -9999 -9999
-9999 -9999 -9999 -9999 -9999 -9999 -9999 -9999 -9999 -9999 -9999 -9999 3.24362e-05 4.15997e-05 3.4877e-05 4.13929e-05 3.00481e-05 2.98206e-05 3.97551e-05 3.80841e-05 4.49104e-05 3.33067e-05 3.35813e-05 1.93968e-05 1.7261e-05 2.50684e-05 6.75933e-05 4.71331e-05 0.000109064 3.4639e-05 2.99732e-05 3.02054e-05 4.49226e-05 0.00011748 6.19873e-05 3.77694e-05 1.74334e-05 2.57632e-05 5.64186e-05 5.99729e-05 1.80063e-05 9.38681e-06 2.68313e-05 1.86248e-05 3.83095e-05 2.5268e-05 1.61967e-05 1.68574e-05 6.15988e-05 5.6406e-05 1.16256e-05 9.49581e-06 2.71085e-05 2.1626e-05 2.15271e-05 2.90377e-05 3.06745e-05 -9999 -9999 -9999
-9999 -9999 -9999 -9999 -9999 -9999 -9999 -9999 -9999 -9999 -9999 -9999 3.28306e-05 2.56338e-05 3.12706e-05 4.93541e-05 3.40779e-05 2.69397e-05 2.85538e-05 2.82814e-05 2.93224e-05 3.30148e-05 3.1676e-05 4.01602e-05 2.70524e-05 4.34611e-05 6.81473e-05 2.49494e-05 5.31824e-05 1.77246e-05 1.97824e-05 1.98127e-05 3.35144e-05 4.31404e-05 1.71973e-05 1.77683e-05 1.88459e-05 5.04665e-05 6.23021e-05 6.80035e-05 3.22733e-05 3.00043e-05 3.98163e-05 1.78397e-05 2.18511e-05 7.63391e-05 4.93931e-05 4.59913e-05 3.74036e-05 3.33629e-05 3.53789e-05 3.37916e-05 2.84828e-05 2.8781e-05 2.77889e-05 3.65225e-05 3.98291e-05 -9999 -9999 -9999
-9999 -9999 -9999 -9999 -9999 -9999 -9999 -9999 -9999 -9999 -9999 1.43466e-05 2.1823e-05 2.28068e-05 3.55488e-05 3.63744e-05 5.85623e-05 2.24309e-05 3.61446e-05 3.36257e-05 3.87884e-05 2.17027e-05 2.16364e-05 4.88128e-05 3.27832e-05 4.4427e-05 2.91831e-05 7.90221e-05 4.46186e-05 2.14598e-05 3.24146e-05 2.2777e-05 3.27725e-05 5.92205e-05 3.14933e-05 2.82188e-05 3.49765e-05 6.04166e-05 3.59753e-05 3.94121e-05 2.90951e-05 2.8493e-05 2.61281e-05 3.73604e-05 0.000111827 8.46956e-05 5.36848e-05 4.10606e-05 4.01745e-05 4.18502e-05 3.46145e-05 3.58462e-05 2.69892e-05 2.66313e-05 3.06491e-05 3.89131e-05 9.525e-07 -9999 -9999 -9999
-9999 -9999 -9999 -9999 -9999 -9999 -9999 -9999 -9999 -9999 -9999 -9999 -9999 3.20693e-05 3.16448e-05 4.13879e-05 2.57809e-05 2.09812e-05 2.47259e-05 3.15413e-05 3.05923e-05 2.89393e-05 2.7235e-05 3.78879e-05 5.555e-05 2.34196e-05 2.99182e-05 3.38303e-05 4.15014e-05 4.10322e-05 2.1894e-05 4.84626e-05 4.10843e-05 6.29395e-05 3.95977e-05 4.20982e-05 3.46799e-05 0.000272329 7.59835e-05 6.26205e-05 5.13918e-05 5.83048e-05 4.56796e-05 6.13834e-05 4.76802e-05 4.45791e-05 6.14052e-05 2.91782e-05 2.74146e-05 2.31678e-05 2.2765e-05 2.68487e-05 2.27733e-05 2.75858e-05 3.59292e-05 1.08086e-06 1.0732e-06 -9999 -9999 -9999
-9999 -9999 -9999 -9999 -9999 -9999 -9999 -9999 -9999 -9999 -9999 -9999 -9999 -9999 2.69267e-05 4.02158e-05 3.62894e-05 3.2683e-05 2.7823e-05 1.73087e-05 2.2218e-05 3.05193e-05 3.71814e-05 5.40018e-05 3.31816e-05 2.74329e-05 6.89277e-05 5.21224e-05 2.16913e-05 4.09902e-05 2.62973e-05 4.09528e-05 3.8774e-05 7.10088e-05 0.000127659 0.000104534 4.12585e-05 0.000305253 0.000151337 6.39536e-05 3.10299e-05 4.27349e-05 4.12907e-05 4.53395e-05 5.26872e-05 8.16223e-05 2.2813e-05 2.6036e-05 1.44716e-05 2.35718e-05 3.08068e-05 2.06081e-05 2.3756e-05 2.87967e-05 9.94085e-07 1.04681e-06 9.08476e-07 -9999 -9999 -9999
-9999 -9999 -9999 -9999 -9999 -9999 -9999 -9999 -9999 -9999 -9999 -9999 -9999 -9999 3.18772e-05 3.07687e-05 3.11457e-05 2.27973e-05 3.20241e-05 1.88021e-05 4.08447e-05 3.73981e-05 4.53503e-05 8.01136e-05 2.68584e-05 6.48733e-05 3.40332e-05 3.77434e-05 4.3808e-05 4.66419e-05 3.22567e-05 2.88046e-05 6.89745e-05 5.04223e-05 0.000113059 9.50436e-05 3.06858e-05 0.000296844 4.57959e-05 2.79537e-05 2.2805e-05 3.20495e-05 6.19898e-05 8.2916e-05 6.67415e-05 0.000106212 0.000122823 4.18673e-05 8.47547e-06 1.23685e-05 1.50915e-05 2.14429e-05 2.81427e-05 3.09564e-05 6.98702e-07 7.68714e-07 7.30236e-07 7.25531e-07 -9999 -9999
-9999 -9999 -9999 -9999 -9999 -9999 -9999 -9999 -9999 -9999 -9999 -9999 -9999 -9999 2.38285e-05 3.91949e-05 2.68892e-05 2.15994e-05 3.34292e-05 2.0205e-05 4.86501e-05 4.3227e-05 6.26178e-05 2.70591e-05 2.6237e-05 3.48276e-05 4.44766e-05 5.06277e-05 4.68493e-05 5.78473e-05 4.83084e-05 8.10189e-05 9.44742e-05 8.4808e-05 0.000112075 0.00016051 5.80876e-05 6.6604e-05 2.62285e-05 4.687e-05 9.28844e-05 7.452e-05 6.10862e-05 7.07085e-05 6.11867e-05 6.34051e-05 6.83777e-05 3.54713e-05 1.08655e-05 2.04328e-05 2.38608e-05 2.20298e-05 2.67549e-05 5.32861e-07 5.95685e-07 5.71776e-07 5.94234e-07 5.26635e-07 -9999 -9999
-9999 -9999 -9999 -9999 -9999 -9999 -9999 -9999 -9999 -9999 -9999 -9999 -9999 -9999 -9999 -9999 2.03965e-05 2.38635e-05 2.06243e-05 3.34484e-05 5.07825e-05 4.20058e-05 5.66184e-05 2.9454e-05 8.21735e-05 7.22966e-05 2.58011e-05 2.5023e-05 4.08299e-05 3.72224e-05 6.94818e-05 8.44019e-05 0.000127512 0.000115327 9.3612e-05 9.90292e-05 0.000125611 8.47101e-05 4.37092e-05 5.27959e-05 8.04984e-05 4.47844e-05 3.23753e-05 4.13099e-05 4.31947e-05 5.55422e-05 2.3052e-05 6.29165e-05 3.12017e-07 3.23248e-07 7.62798e-05 3.40468e-05 2.05457e-05 4.10583e-07 4.52964e-07 3.75104e-07 3.3299e-07 3.27628e-07 -9999 -9999
-9999 -9999 -9999 -9999 -9999 -9999 -9999 -9999 -9999 -9999 -9999 -9999 -9999 -9999 -9999 -9999 1.9333e-05 1.81879e-05 1.80198e-05 4.33284e-05 3.70711e-05 5.03294e-05 2.63986e-05 2.53006e-05 9.12738e-05 7.71385e-05 7.94372e-05 3.26121e-05 4.90052e-05 4.42861e-05 5.68504e-05 9.3844e-05 4.28545e-05 5.6618e-05 9.18135e-05 7.51322e-05 0.000107564 9.47145e-05 6.85556e-05 6.91378e-05 8.46646e-05 4.71289e-05 4.54407e-05 3.47031e-05 3.98048e-05 8.14977e-05 6.86382e-07 3.41303e-07 3.13101e-07 3.19499e-07 3.21788e-07 3.73156e-07 3.60245e-05 4.25527e-05 3.78111e-07 3.39527e-07 3.21982e-07 3.21886e-07 -9999 -9999
-9999 -9999 -9999 -9999 -9999 -9999 -9999 -9999 -9999 -9999 -9999 -9999 -9999 -9999 -9999 -9999 4.92467e-05 2.10593e-05 2.34462e-05 2.97038e-05 3.32366e-05 4.94671e-05 7.01344e-05 2.47175e-05 8.91188e-05 9.53202e-05 5.69769e-05 5.25236e-05 6.0536e-05 5.08616e-05 0.00010509 7.74179e-05 4.48483e-05 3.70267e-05 8.9006e-05 5.46661e-05 4.38353e-05 4.33941e-05 6.11541e-05 7.86834e-05 5.70084e-05 0.000106578 4.43012e-05 3.56068e-05 3.83353e-05 8.02886e-07 7.14025e-07 4.7771e-07 3.2396e-07 3.37608e-07 3.23217e-07 3.3253e-07 3.40528e-07 3.25928e-05 3.31859e-07 3.19269e-07 -9999 -9999 -9999 -9999
-9999 -9999 -9999 -9999 -9999 -9999 -9999 -9999 -9999 -9999 -9999 -9999 -9999 -9999 -9999 -9999 1.08726e-05 1.24584e-05 3.2358e-05 4.13658e-05 4.22782e-05 7.14417e-05 0.000101804 2.3733e-05 9.2475e-05 9.32948e-05 6.01594e-05 8.19193e-05 7.21454e-05 5.52332e-05 3.98347e-05 4.53426e-05 3.94476e-05 5.2563e-05 6.98304e-05 5.13917e-05 8.59162e-05 3.28787e-05 7.30077e-05 0.000112769 5.20697e-05 6.87494e-05 9.5369e-05 0.000140565 7.42952e-07 8.14768e-07 6.5748e-07 6.15767e-07 3.38799e-07 3.66873e-07 3.52384e-07 3.33384e-07 3.31493e-07 1.95812e-05 2.93861e-05 -9999 -9999 -9999 -9999 -9999
-9999 -9999 -9999 -9999 -9999 -9999 -9999 -9999 -9999 -9999 -9999 -9999 -9999 -9999 -9999 -9999 2.98867e-05 3.49347e-05 3.5035e-05 3.87419e-05 4.67557e-05 6.3968e-05 8.99003e-05 2.29282e-05 6.70278e-05 6.81515e-05 3.92003e-05 4.32486e-05 5.80521e-05 4.41514e-05 4.26825e-05 4.10862e-05 2.98486e-05 4.56213e-05 8.78447e-05 3.45642e-05 8.65101e-05 8.33485e-05 0.000107079 3.09828e-05 6.58663e-05 6.98755e-05 8.83213e-05 8.39324e-05 6.93824e-07 7.47085e-07 6.56422e-07 8.81002e-07 6.40839e-07 4.8536e-07 4.4791e-07 3.75254e-07 3.22242e-07 3.3133e-07 4.27713e-05 -9999 -9999 -9999 -9999 -9999
-9999 -9999 -9999 -9999 -9999 -9999 -9999 -9999 -9999 -9999 -9999 -9999 -9999 -9999 -9999 -9999 -9999 -9999 5.04968e-05 3.85668e-05 9.4647e-05 7.62575e-05 4.08603e-05 7.41432e-05 7.85363e-05 4.17884e-05 5.54176e-05 5.4616e-05 5.17995e-05 4.77596e-05 9.69787e-05 5.31848e-05 5.04182e-05 0.000106034 3.05385e-05 1.33774e-05 2.58292e-05 3.70233e-05 0.000110963 4.0343e-05 7.20537e-05 0.000102439 0.000101656 9.01498e-05 8.41262e-07 1.00256e-06 1.20179e-06 1.2831e-06 9.29782e-07 5.36934e-07 4.46881e-07 4.00953e-07 3.29377e-07 3.45317e-07 2.75886e-05 -9999 -9999 -9999 -9999 -9999
-9999 -9999 -9999 -9999 -9999 -9999 -9999 -9999 -9999 -9999 -9999 -9999 -9999 -9999 -9999 -9999 -9999 -9999 1.84671e-05 1.84734e-05 3.7476e-05 3.17399e-05 3.19455e-05 4.40436e-05 0.000119449 0.000109173 5.92308e-05 5.627e-05 9.38634e-05 6.65417e-05 7.62155e-05 5.61374e-05 7.87939e-05 2.40119e-05 7.92133e-06 1.49485e-05 2.65963e-05 3.80961e-05 0.000101027 8.50309e-05 3.76585e-05 0.000106408 7.78887e-05 6.97626e-05 1.9318e-06 2.98027e-06 1.83635e-06 1.88171e-06 6.69075e-07 5.77764e-07 3.58899e-07 3.42791e-07 3.47401e-07 3.34322e-07 -9999 -9999 -9999 -9999 -9999 -9999
-9999 -9999 -9999 -9999 -9999 -9999 -9999 -9999 -9999 -9999 -9999 -9999 -9999 -9999 -9999 -9999 -9999 -9999 -9999 -9999 -9999 2.91261e-05 3.81278e-05 4.90052e-05 6.52104e-05 9.93421e-05 6.22388e-05 8.16221e-05 9.4967e-05 7.64398e-05 4.84004e-05 5.3482e-05 4.81985e-05 1.40936e-05 2.13453e-05 1.60207e-05 3.07086e-05 4.59665e-05 0.000126692 2.54376e-05 0.000102334 3.71237e-05 0.000113442 0.000128421 7.70603e-05 3.2524e-06 2.01708e-06 1.62652e-06 4.60665e-07 4.4626e-07 3.23609e-07 3.2076e-07 3.59002e-07 1.63937e-05 -9999 -9999 -9999 -9999 -9999 -9999
-9999 -9999 -9999 -9999 -9999 -9999 -9999 -9999 -9999 -9999 -9999 -9999 -9999 -9999 -9999 -9999 -9999 -9999 -9999 -9999 -9999 1.54363e-05 2.99591e-05 3.32121e-05 5.12774e-05 6.23718e-05 5.46002e-05 4.42873e-05 5.20926e-05 3.51936e-05 3.75517e-05 3.32703e-05 2.82149e-05 3.47726e-05 3.11829e-05 1.37636e-05 3.30775e-05 4.07559e-05 2.49083e-05 2.42947e-05 9.20241e-05 2.85094e-05 0.00011087 9.15528e-05 0.000165337 5.78445e-06 1.82978e-06 1.17781e-06 4.15784e-07 3.23231e-07 3.12737e-07 3.17015e-07 3.64104e-07 1.95158e-05 -9999 -9999 -9999 -9999 -9999 -9999
-9999 -9999 -9999 -9999 -9999 -9999 -9999 -9999 -9999 -9999 -9999 -9999 -9999 -9999 -9999 -9999 -9999 -9999 -9999 -9999 -9999 -9999 2.97035e-05 5.1187e-05 3.89439e-05 4.62867e-05 5.96105e-05 5.99395e-05 5.18389e-05 3.25051e-05 1.51572e-05 1.7369e-05 3.95589e-05 3.77909e-05 3.16358e-05 1.88246e-05 4.23778e-05 2.20055e-05 2.59783e-05 2.27101e-05 5.94898e-05 7.25751e-05 2.57103e-05 9.94341e-05 0.000117159 9.18071e-05 2.06738e-06 9.816e-07 4.36108e-07 3.17195e-07 3.10235e-07 1.59441e-05 3.2185e-05 -9999 -9999 -9999 -9999 -9999 -9999 -9999
-9999 -9999 -9999 -9999 -9999 -9999 -9999 -9999 -9999 -9999 -9999 -9999 -9999 -9999 -9999 -9999 -9999 -9999 -9999 -9999 -9999 -9999 2.43706e-05 3.49885e-05 5.42965e-05 5.08038e-05 4.2673e-05 3.49031e-05 1.96348e-05 1.25636e-05 1.24856e-05 1.11798e-05 1.74833e-05 2.2966e-05 4.75794e-05 2.86801e-05 1.26934e-05 6.59216e-05 4.66104e-05 6.172e-05 3.35127e-05 4.77389e-05 2.37132e-05 7.34831e-05 8.76104e-05 0.000123634 6.71611e-05 6.42022e-05 4.07511e-05 3.62072e-05 2.80666e-05 3.1559e-05 4.69833e-05 -9999 -9999 -9999 -9999 -9999 -9999 -9999
-9999 -9999 -9999 -9999 -9999 -9999 -9999 -9999 -9999 -9999 -9999 -9999 -9999 -9999 -9999 -9999 -9999 -9999 -9999 -9999 -9999 -9999 -9999 3.70807e-05 4.63612e-05 3.36101e-05 5.02868e-05 3.78006e-05 1.85763e-05 1.36788e-05 9.55311e-06 1.40992e-05 3.00432e-05 1.5294e-05 7.91748e-05 6.41792e-05 1.24002e-05 6.49586e-05 1.90457e-05 5.58523e-05 4.3515e-05 5.78777e-05 2.14226e-05 8.05993e-05 0.000112812 0.000157358 8.04161e-05 0.000107134 9.5502e-05 6.32518e-05 1.1947e-05 1.9966e-05 -9999 -9999 -9999 -9999 -9999 -9999 -9999 -9999
-9999 -9999 -9999 -9999 -9999 -9999 -9999 -9999 -9999 -9999 -9999 -9999 -9999 -9999 -9999 -9999 -9999 -9999 -9999 -9999 -9999 -9999 -9999 -9999 2.96585e-05 3.08956e-05 3.49622e-05 1.91852e-05 8.42962e-06 1.08786e-05 1.32866e-05 1.94641e-05 2.82866e-05 3.31387e-05 4.82601e-05 2.0996e-05 5.54155e-05 3.41104e-05 7.24674e-05 6.14303e-05 5.85669e-05 2.65807e-05 2.23132e-05 6.1348e-05 0.00011921 8.74539e-05 5.86011e-05 9.48212e-05 6.27813e-05 8.93287e-05 4.47616e-05 -9999 -9999 -9999 -9999 -9999 -9999 -9999 -9999 -9999
-9999 -9999 -9999 -9999 -9999 -9999 -9999 -9999 -9999 -9999 -9999 -9999 -9999 -9999 -9999 -9999 -9999 -9999 -9999 -9999 -9999 -9999 -9999 -9999 -9999 2.8815e-05 2.07968e-05 1.42939e-05 1.66258e-05 1.07906e-05 1.31022e-05 3.22079e-05 4.24115e-05 5.92179e-05 7.46399e-05 2.92998e-05 4.55761e-05 2.03983e-05 7.5416e-05 7.30613e-05 7.98264e-05 1.93117e-05 5.02059e-05 7.30162e-05 0.000113753 6.32077e-05 6.59266e-05 6.69336e-05 4.27906e-05 6.80059e-05 -9999 -9999 -9999 -9999 -9999 -9999 -9999 -9999 -9999 -9999
-9999 -9999 -9999 -9999 -9999 -9999 -9999 -9999 -9999 -9999 -9999 -9999 -9999 -9999 -9999 -9999 -9999 -9999 -9999 -9999 -9999 -9999 -9999 -9999 -9999 -9999 -9999 1.01979e-05 1.71772e-05 1.4317e-05 3.32162e-05 3.09616e-05 3.53525e-05 6.47684e-05 2.69845e-05 8.26324e-05 1.14858e-05 5.03668e-05 6.57707e-05 7.09063e-05 4.39438e-05 7.65107e-06 7.15765e-05 8.07881e-05 5.28007e-05 3.99358e-05 5.18548e-05 5.78944e-05 3.65771e-05 4.6566e-05 9.99016e-06 -9999 -9999 -9999 -9999 -9999 -9999 -9999 -9999 -9999
-9999 -9999 -9999 -9999 -9999 -9999 -9999 -9999 -9999 -9999 -9999 -9999 -9999 -9999 -9999 -9999 -9999 -9999 -9999 -9999 -9999 -9999 -9999 -9999 -9999 -9999 -9999 -9999 1.65571e-05 2.57659e-05 2.37662e-05 2.12939e-05 3.71233e-05 4.92492e-05 5.46172e-05 7.80957e-05 2.74425e-05 9.16433e-05 7.51841e-05 4.10046e-05 1.64977e-05 5.99151e-05 5.39659e-05 4.15409e-05 3.55991e-05 4.95739e-05 6.63066e-05 3.44704e-05 2.692e-05 -9999 -9999 -9999 -9999 -9999 -9999 -9999 -9999 -9999 -9999 -9999
-9999 -9999 -9999 -9999 -9999 -9999 -9999 -9999 -9999 -9999 -9999 -9999 -9999 -9999 -9999 -9999 -9999 -9999 -9999 -9999 -9999 -9999 -9999 -9999 -9999 -9999 -9999 -9999 2.15724e-05 2.37905e-05 2.85869e-05 3.51469e-05 4.03413e-05 3.6641e-05 6.84714e-05 0.000114183 1.55446e-05 7.19779e-05 5.24606e-05 4.30406e-05 4.37827e-05 6.41577e-05 7.24967e-05 3.60063e-05 4.00175e-05 3.52638e-05 4.61487e-05 2.14379e-05 1.22369e-05 -9999 -9999 -9999 -9999 -9999 -9999 -9999 -9999 -9999 -9999 -9999
-9999 -9999 -9999 -9999 -9999 -9999 -9999 -9999 -9999 -9999 -9999 -9999 -9999 -9999 -9999 -9999 -9999 -9999 -9999 -9999 -9999 -9999 -9999 -9999 -9999 -9999 -9999 -9999 3.26774e-05 3.45033e-05 3.46166e-05 2.14417e-05 2.8962e-05 2.69276e-05 6.30513e-05 3.96698e-05 7.42533e-05 7.01608e-05 6.85286e-05 6.02115e-05 4.05854e-05 6.97934e-05 8.11939e-05 2.89911e-05 2.97614e-05 3.52726e-05 -9999 -9999 -9999 -9999 -9999 -9999 -9999 -9999 -9999 -9999 -9999 -9999 -9999 -9999
-9999 -9999 -9999 -9999 -9999 -9999 -9999 -9999 -9999 -9999 -9999 -9999 -9999 -9999 -9999 -9999 -9999 -9999 -9999 -9999 -9999 -9999 -9999 -9999 -9999 -9999 -9999 -9999 3.14608e-05 3.13938e-05 3.96848e-05 2.83613e-05 2.82359e-05 2.74546e-05 5.44977e-05 3.77475e-05 3.96422e-05 3.50777e-05 5.06022e-05 3.36891e-05 3.78279e-05 4.64411e-05 4.53013e-05 3.53976e-05 1.41602e-05 1.46471e-05 -9999 -9999 -9999 -9999 -9999 -9999 -9999 -9999 -9999 -9999 -9999 -9999 -9999 -9999
-9999 -9999 -9999 -9999 -9999 -9999 -9999 -9999 -9999 -9999 -9999 -9999 -9999 -9999 -9999 -9999 -9999 -9999 -9999 -9999 -9999 -9999 -9999 -9999 -9999 -9999 -9999 2.88542e-05 2.39994e-05 1.61968e-05 4.02664e-05 2.73177e-05 1.68578e-05 2.35884e-05 2.03949e-05 4.47947e-05 4.10058e-05 3.51328e-05 2.87912e-05 2.74839e-05 2.98106e-05 5.82165e-05 2.9268e-05 -9999 -9999 -9999 -9999 -9999 -9999 -9999 -9999 -9999 -9999 -9999 -9999 -9999 -9999 -9999 -9999 -9999
-9999 -9999 -9999 -9999 -9999 -9999 -9999 -9999 -9999 -9999 -9999 -9999 -9999 -9999 -9999 -9999 -9999 -9999 -9999 -9999 -9999 -9999 -9999 -9999 -9999 -9999 2.5733e-05 2.52877e-05 1.80198e-05 2.00065e-05 2.29027e-05 3.33937e-05 2.09191e-05 3.77841e-05 2.31173e-05 3.07147e-05 3.55656e-05 4.20812e-05 3.00278e-05 3.99856e-05 3.24599e-05 2.73057e-05 -9999 -9999 -9999 -9999 -9999 -9999 -9999 -9999 -9999 -9999 -9999 -9999 -9999 -9999 -9999 -9999 -9999 -9999
-9999 -9999 -9999 -9999 -9999 -9999 -9999 -9999 -9999 -9999 -9999 -9999 -9999 -9999 -9999 -9999 -9999 -9999 -9999 -9999 -9999 -9999 -9999 -9999 -9999 -9999 -9999 -9999 -9999 -9999 -9999 -9999 -9999 1.53084e-05 2.70921e-05 3.20193e-05 3.37975e-05 2.35394e-05 4.36737e-05 4.19317e-05 2.59045e-05 -9999 -9999 -9999 -9999 -9999 -9999 -9999 -9999 -9999 -9999 -9999 -9999 -9999 -9999 -9999 -9999 -9999 -9999 -9999
-9999 -9999 -9999 -9999 -9999 -9999 -9999 -9999 -9999 -9999 -9999 -9999 -9999 -9999 -9999 -9999 -9999 -9999 -9999 -9999 -9999 -9999 -9999 -9999 -9999 -9999 -9999 -9999 -9999 -9999 -9999 -9999 -9999 -9999 -9999 1.89297e-05 1.93194e-05 -9999 -9999 -9999 -9999 -9999 -9999 -9999 -9999 -9999 -9999 -9999 -9999 -9999 -9999 -9999 -9999 -9999 -9999 -9999 -9999 -9999 -9999 -9999
-9999 -9999 -9999 -9999 -9999 -9999 -9999 -9999 -9999 -9999 -9999 -9999 -9999 -9999 -9999 -9999 -9999 -9999 -9999 -9999 -9999 -9999 -9999 -9999 -9999 -9999 -9999 -9999 -9999 -9999 -9999 -9999 -9999 -9999 -9999 -9999 -9999 -9999 -9999 -9999 -9999 -9999 -9999 -9999 -9999 -9999 -9999 -9999 -9999 -9999 -9999 -9999 -9999 -9999 -9999 -9999 -9999 -9999 -9999 -9999
