ncols         60
nrows         65
xllcorner     739300
yllcorner     4553050
cellsize      50
NODATA_value  -9999
5.0E-5 5.0E-5 5.0E-5 5.0E-5 4.0E-4 4.0E-4 4.0E-4 4.0E-4 4.0E-4 4.0E-4 4.0E-4 4.0E-4 4.0E-4 1.0E-4 1.0E-4 1.0E-4 1.0E-4 1.0E-4 1.0E-4 1.0E-4 1.0E-4 1.0E-4 1.0E-4 1.0E-4 1.0E-4 1.0E-4 5.0E-5 5.0E-5 1.0E-4 1.0E-4 1.0E-4 1.0E-4 1.0E-4 1.0E-4 1.0E-4 1.0E-4 1.0E-4 1.0E-4 1.0E-4 1.0E-4 1.0E-4 1.0E-4 1.0E-4 1.0E-4 1.0E-4 1.0E-4 1.0E-4 1.0E-4 1.0E-4 1.0E-4 1.0E-4 1.0E-4 1.0E-4 1.0E-4 1.0E-4 1.0E-4 1.0E-4 1.0E-4 1.0E-4 1.0E-4 
5.0E-5 5.0E-5 5.0E-5 5.0E-5 1.0E-4 1.0E-4 1.0E-4 1.0E-4 1.0E-4 1.0E-4 1.0E-4 1.0E-4 1.0E-4 1.0E-4 1.0E-4 1.0E-4 1.0E-4 1.0E-4 1.0E-4 1.0E-4 1.0E-4 1.0E-4 1.0E-4 1.0E-4 1.0E-4 1.0E-4 5.0E-5 5.0E-5 1.0E-4 1.0E-4 1.0E-4 1.0E-4 1.0E-4 1.0E-4 1.0E-4 1.0E-4 1.0E-4 1.0E-4 1.0E-4 1.0E-4 1.0E-4 1.0E-4 1.0E-4 1.0E-4 1.0E-4 1.0E-4 1.0E-4 1.0E-4 1.0E-4 1.0E-4 1.0E-4 1.0E-4 1.0E-4 1.0E-4 1.0E-4 1.0E-4 1.0E-4 1.0E-4 1.0E-4 1.0E-4 
5.0E-5 5.0E-5 5.0E-5 5.0E-5 1.0E-4 1.0E-4 1.0E-4 1.0E-4 1.0E-4 1.0E-4 1.0E-4 1.0E-4 1.0E-4 1.0E-4 1.0E-4 1.0E-4 1.0E-4 1.0E-4 1.0E-4 1.0E-4 1.0E-4 1.0E-4 1.0E-4 1.0E-4 1.0E-4 1.0E-4 1.0E-4 1.0E-4 5.0E-5 5.0E-5 1.0E-4 1.0E-4 1.0E-4 1.0E-4 1.0E-4 1.0E-4 1.0E-4 1.0E-4 1.0E-4 1.0E-4 1.0E-4 1.0E-4 1.0E-4 1.0E-4 1.0E-4 1.0E-4 1.0E-4 1.0E-4 1.0E-4 1.0E-4 1.0E-4 1.0E-4 1.0E-4 1.0E-4 1.0E-4 1.0E-4 1.0E-4 1.0E-4 1.0E-4 1.0E-4 
5.0E-5 5.0E-5 5.0E-5 5.0E-5 1.0E-4 1.0E-4 1.0E-4 1.0E-4 1.0E-4 1.0E-4 1.0E-4 1.0E-4 1.0E-4 1.0E-4 1.0E-4 1.0E-4 1.0E-4 1.0E-4 1.0E-4 1.0E-4 1.0E-4 1.0E-4 1.0E-4 1.0E-4 1.0E-4 1.0E-4 1.0E-4 1.0E-4 5.0E-5 5.0E-5 1.0E-4 1.0E-4 1.0E-4 1.0E-4 1.0E-4 1.0E-4 1.0E-4 1.0E-4 1.0E-4 1.0E-4 1.0E-4 1.0E-4 1.0E-4 1.0E-4 1.0E-4 1.0E-4 1.0E-4 1.0E-4 1.0E-4 1.0E-4 1.0E-4 1.0E-4 1.0E-4 1.0E-4 1.0E-4 1.0E-4 1.0E-4 1.0E-4 1.0E-4 1.0E-4 
5.0E-5 5.0E-5 5.0E-5 5.0E-5 1.0E-4 1.0E-4 1.0E-4 1.0E-4 1.0E-4 1.0E-4 1.0E-4 1.0E-4 1.0E-4 1.0E-4 1.0E-4 1.0E-4 1.0E-4 1.0E-4 1.0E-4 1.0E-4 1.0E-4 1.0E-4 1.0E-4 1.0E-4 1.0E-4 1.0E-4 1.0E-4 1.0E-4 5.0E-5 5.0E-5 5.0E-5 5.0E-5 1.0E-4 1.0E-4 1.0E-4 1.0E-4 1.0E-4 1.0E-4 1.0E-4 1.0E-4 1.0E-4 1.0E-4 1.0E-4 1.0E-4 1.0E-4 1.0E-4 1.0E-4 1.0E-4 1.0E-4 1.0E-4 1.0E-4 1.0E-4 1.0E-4 1.0E-4 1.0E-4 1.0E-4 1.0E-4 1.0E-4 1.0E-4 1.0E-4 
5.0E-5 5.0E-5 5.0E-5 5.0E-5 1.0E-4 1.0E-4 1.0E-4 1.0E-4 1.0E-4 1.0E-4 1.0E-4 1.0E-4 1.0E-4 1.0E-4 1.0E-4 1.0E-4 1.0E-4 1.0E-4 1.0E-4 1.0E-4 1.0E-4 1.0E-4 1.0E-4 1.0E-4 1.0E-4 1.0E-4 1.0E-4 1.0E-4 5.0E-5 5.0E-5 5.0E-5 5.0E-5 1.0E-4 1.0E-4 1.0E-4 1.0E-4 1.0E-4 1.0E-4 1.0E-4 1.0E-4 1.0E-4 1.0E-4 1.0E-4 1.0E-4 1.0E-4 1.0E-4 1.0E-4 1.0E-4 1.0E-4 1.0E-4 1.0E-4 1.0E-4 1.0E-4 1.0E-4 1.0E-4 1.0E-4 1.0E-4 1.0E-4 1.0E-4 1.0E-4 
5.0E-5 5.0E-5 5.0E-5 5.0E-5 1.0E-4 1.0E-4 1.0E-4 1.0E-4 1.0E-4 1.0E-4 1.0E-4 1.0E-4 1.0E-4 1.0E-4 1.0E-4 1.0E-4 1.0E-4 1.0E-4 1.0E-4 1.0E-4 1.0E-4 1.0E-4 1.0E-4 1.0E-4 1.0E-4 1.0E-4 1.0E-4 1.0E-4 1.0E-4 1.0E-4 5.0E-5 5.0E-5 1.0E-4 1.0E-4 1.0E-4 1.0E-4 1.0E-4 1.0E-4 1.0E-4 1.0E-4 1.0E-4 1.0E-4 1.0E-4 1.0E-4 1.0E-4 1.0E-4 1.0E-4 1.0E-4 1.0E-4 1.0E-4 1.0E-4 1.0E-4 1.0E-4 1.0E-4 1.0E-4 1.0E-4 1.0E-4 1.0E-4 1.0E-4 1.0E-4 
5.0E-5 5.0E-5 5.0E-5 5.0E-5 1.0E-4 1.0E-4 1.0E-4 1.0E-4 1.0E-4 1.0E-4 1.0E-4 1.0E-4 1.0E-4 1.0E-4 1.0E-4 1.0E-4 1.0E-4 1.0E-4 1.0E-4 1.0E-4 1.0E-4 1.0E-4 1.0E-4 1.0E-4 1.0E-4 1.0E-4 1.0E-4 1.0E-4 1.0E-4 1.0E-4 5.0E-5 5.0E-5 1.0E-4 1.0E-4 1.0E-4 1.0E-4 1.0E-4 1.0E-4 1.0E-4 1.0E-4 1.0E-4 1.0E-4 1.0E-4 1.0E-4 1.0E-4 1.0E-4 1.0E-4 1.0E-4 1.0E-4 1.0E-4 1.0E-4 1.0E-4 1.0E-4 1.0E-4 1.0E-4 1.0E-4 1.0E-4 1.0E-4 1.0E-4 1.0E-4 
5.0E-5 5.0E-5 5.0E-5 5.0E-5 1.0E-4 1.0E-4 1.0E-4 1.0E-4 1.0E-4 1.0E-4 1.0E-4 1.0E-4 1.0E-4 1.0E-4 1.0E-4 1.0E-4 1.0E-4 1.0E-4 1.0E-4 1.0E-4 1.0E-4 1.0E-4 1.0E-4 1.0E-4 1.0E-4 1.0E-4 1.0E-4 1.0E-4 1.0E-4 1.0E-4 5.0E-5 5.0E-5 5.0E-5 5.0E-5 1.0E-4 1.0E-4 1.0E-4 1.0E-4 1.0E-4 1.0E-4 1.0E-4 1.0E-4 1.0E-4 1.0E-4 1.0E-4 1.0E-4 1.0E-4 1.0E-4 1.0E-4 1.0E-4 1.0E-4 1.0E-4 1.0E-4 1.0E-4 1.0E-4 1.0E-4 1.0E-4 1.0E-4 1.0E-4 1.0E-4 
5.0E-5 5.0E-5 5.0E-5 5.0E-5 1.0E-4 1.0E-4 1.0E-4 1.0E-4 1.0E-4 1.0E-4 1.0E-4 1.0E-4 1.0E-4 1.0E-4 1.0E-4 1.0E-4 1.0E-4 1.0E-4 1.0E-4 1.0E-4 1.0E-4 1.0E-4 1.0E-4 1.0E-4 1.0E-4 1.0E-4 1.0E-4 1.0E-4 1.0E-4 1.0E-4 5.0E-5 5.0E-5 5.0E-5 5.0E-5 1.0E-4 1.0E-4 1.0E-4 1.0E-4 1.0E-4 1.0E-4 1.0E-4 1.0E-4 1.0E-4 1.0E-4 1.0E-4 1.0E-4 1.0E-4 1.0E-4 1.0E-4 1.0E-4 1.0E-4 1.0E-4 1.0E-4 1.0E-4 1.0E-4 1.0E-4 1.0E-4 1.0E-4 1.0E-4 1.0E-4 
5.0E-5 5.0E-5 5.0E-5 5.0E-5 1.0E-4 1.0E-4 1.0E-4 1.0E-4 1.0E-4 1.0E-4 1.0E-4 1.0E-4 1.0E-4 1.0E-4 1.0E-4 1.0E-4 1.0E-4 1.0E-4 1.0E-4 1.0E-4 1.0E-4 1.0E-4 1.0E-4 1.0E-4 1.0E-4 1.0E-4 1.0E-4 1.0E-4 1.0E-4 1.0E-4 1.0E-4 1.0E-4 5.0E-5 5.0E-5 1.0E-4 1.0E-4 1.0E-4 1.0E-4 1.0E-4 1.0E-4 1.0E-4 1.0E-4 1.0E-4 1.0E-4 1.0E-4 1.0E-4 1.0E-4 1.0E-4 1.0E-4 1.0E-4 1.0E-4 1.0E-4 1.0E-4 1.0E-4 1.0E-4 1.0E-4 1.0E-4 1.0E-4 1.0E-4 1.0E-4 
5.0E-5 5.0E-5 5.0E-5 5.0E-5 1.0E-4 1.0E-4 1.0E-4 1.0E-4 1.0E-4 1.0E-4 1.0E-4 1.0E-4 1.0E-4 1.0E-4 1.0E-4 1.0E-4 1.0E-4 1.0E-4 1.0E-4 1.0E-4 1.0E-4 1.0E-4 1.0E-4 1.0E-4 1.0E-4 1.0E-4 1.0E-4 1.0E-4 1.0E-4 1.0E-4 1.0E-4 1.0E-4 5.0E-5 5.0E-5 1.0E-4 1.0E-4 1.0E-4 1.0E-4 1.0E-4 1.0E-4 1.0E-4 1.0E-4 1.0E-4 1.0E-4 1.0E-4 1.0E-4 1.0E-4 1.0E-4 1.0E-4 1.0E-4 1.0E-4 1.0E-4 1.0E-4 1.0E-4 1.0E-4 1.0E-4 1.0E-4 1.0E-4 1.0E-4 1.0E-4 
5.0E-5 5.0E-5 1.0E-4 1.0E-4 5.0E-5 5.0E-5 1.0E-4 1.0E-4 5.0E-5 5.0E-5 1.0E-4 1.0E-4 1.0E-4 1.0E-4 1.0E-4 1.0E-4 1.0E-4 1.0E-4 1.0E-4 1.0E-4 1.0E-4 1.0E-4 1.0E-4 1.0E-4 1.0E-4 1.0E-4 1.0E-4 1.0E-4 1.0E-4 1.0E-4 1.0E-4 1.0E-4 1.0E-4 1.0E-4 1.0E-4 1.0E-4 1.0E-4 1.0E-4 1.0E-4 1.0E-4 1.0E-4 1.0E-4 1.0E-4 1.0E-4 1.0E-4 1.0E-4 1.0E-4 1.0E-4 1.0E-4 1.0E-4 1.0E-4 1.0E-4 1.0E-4 1.0E-4 1.0E-4 1.0E-4 1.0E-4 1.0E-4 5.0E-5 5.0E-5 
5.0E-5 5.0E-5 1.0E-4 1.0E-4 5.0E-5 5.0E-5 1.0E-4 1.0E-4 5.0E-5 5.0E-5 1.0E-4 1.0E-4 1.0E-4 1.0E-4 1.0E-4 1.0E-4 1.0E-4 1.0E-4 1.0E-4 1.0E-4 1.0E-4 1.0E-4 1.0E-4 1.0E-4 1.0E-4 1.0E-4 1.0E-4 1.0E-4 1.0E-4 1.0E-4 1.0E-4 1.0E-4 1.0E-4 1.0E-4 1.0E-4 1.0E-4 1.0E-4 1.0E-4 1.0E-4 1.0E-4 1.0E-4 1.0E-4 1.0E-4 1.0E-4 1.0E-4 1.0E-4 1.0E-4 1.0E-4 1.0E-4 1.0E-4 1.0E-4 1.0E-4 1.0E-4 1.0E-4 1.0E-4 1.0E-4 1.0E-4 1.0E-4 5.0E-5 5.0E-5 
1.0E-4 1.0E-4 1.0E-4 1.0E-4 5.0E-5 5.0E-5 5.0E-5 5.0E-5 5.0E-5 5.0E-5 1.0E-4 1.0E-4 1.0E-4 1.0E-4 1.0E-4 1.0E-4 1.0E-4 1.0E-4 1.0E-4 1.0E-4 1.0E-4 1.0E-4 1.0E-4 1.0E-4 1.0E-4 1.0E-4 1.0E-4 1.0E-4 1.0E-4 1.0E-4 1.0E-4 1.0E-4 1.0E-4 1.0E-4 1.0E-4 1.0E-4 1.0E-4 1.0E-4 1.0E-4 1.0E-4 1.0E-4 1.0E-4 1.0E-4 1.0E-4 1.0E-4 1.0E-4 1.0E-4 1.0E-4 1.0E-4 1.0E-4 1.0E-4 1.0E-4 1.0E-4 1.0E-4 1.0E-4 1.0E-4 5.0E-5 5.0E-5 1.0E-4 1.0E-4 
1.0E-4 1.0E-4 1.0E-4 1.0E-4 5.0E-5 5.0E-5 5.0E-5 5.0E-5 5.0E-5 5.0E-5 1.0E-4 1.0E-4 1.0E-4 1.0E-4 1.0E-4 1.0E-4 1.0E-4 1.0E-4 1.0E-4 1.0E-4 1.0E-4 1.0E-4 1.0E-4 1.0E-4 1.0E-4 1.0E-4 1.0E-4 1.0E-4 1.0E-4 1.0E-4 1.0E-4 1.0E-4 1.0E-4 1.0E-4 1.0E-4 1.0E-4 1.0E-4 1.0E-4 1.0E-4 1.0E-4 1.0E-4 1.0E-4 1.0E-4 1.0E-4 1.0E-4 1.0E-4 1.0E-4 1.0E-4 1.0E-4 1.0E-4 1.0E-4 1.0E-4 1.0E-4 1.0E-4 1.0E-4 1.0E-4 5.0E-5 5.0E-5 1.0E-4 1.0E-4 
1.0E-4 1.0E-4 1.0E-4 1.0E-4 5.0E-5 5.0E-5 5.0E-5 5.0E-5 5.0E-5 5.0E-5 5.0E-5 5.0E-5 1.0E-4 1.0E-4 1.0E-4 1.0E-4 1.0E-4 1.0E-4 1.0E-4 1.0E-4 1.0E-4 1.0E-4 1.0E-4 1.0E-4 1.0E-4 1.0E-4 1.0E-4 1.0E-4 1.0E-4 1.0E-4 1.0E-4 1.0E-4 1.0E-4 1.0E-4 1.0E-4 1.0E-4 1.0E-4 1.0E-4 1.0E-4 1.0E-4 1.0E-4 1.0E-4 1.0E-4 1.0E-4 1.0E-4 1.0E-4 1.0E-4 1.0E-4 1.0E-4 1.0E-4 1.0E-4 1.0E-4 1.0E-4 1.0E-4 1.0E-4 1.0E-4 5.0E-5 5.0E-5 1.0E-4 1.0E-4 
1.0E-4 1.0E-4 1.0E-4 1.0E-4 5.0E-5 5.0E-5 5.0E-5 5.0E-5 5.0E-5 5.0E-5 5.0E-5 5.0E-5 1.0E-4 1.0E-4 1.0E-4 1.0E-4 1.0E-4 1.0E-4 1.0E-4 1.0E-4 1.0E-4 1.0E-4 1.0E-4 1.0E-4 1.0E-4 1.0E-4 1.0E-4 1.0E-4 1.0E-4 1.0E-4 1.0E-4 1.0E-4 1.0E-4 1.0E-4 1.0E-4 1.0E-4 1.0E-4 1.0E-4 1.0E-4 1.0E-4 1.0E-4 1.0E-4 1.0E-4 1.0E-4 1.0E-4 1.0E-4 1.0E-4 1.0E-4 1.0E-4 1.0E-4 1.0E-4 1.0E-4 1.0E-4 1.0E-4 1.0E-4 1.0E-4 5.0E-5 5.0E-5 1.0E-4 1.0E-4 
1.0E-4 1.0E-4 1.0E-4 1.0E-4 1.0E-4 1.0E-4 1.0E-4 1.0E-4 1.0E-4 1.0E-4 1.0E-4 1.0E-4 5.0E-5 5.0E-5 5.0E-5 5.0E-5 5.0E-5 5.0E-5 1.0E-4 1.0E-4 1.0E-4 1.0E-4 1.0E-4 1.0E-4 1.0E-4 1.0E-4 1.0E-4 1.0E-4 1.0E-4 1.0E-4 1.0E-4 1.0E-4 1.0E-4 1.0E-4 1.0E-4 1.0E-4 1.0E-4 1.0E-4 1.0E-4 1.0E-4 1.0E-4 1.0E-4 1.0E-4 1.0E-4 1.0E-4 1.0E-4 1.0E-4 1.0E-4 1.0E-4 1.0E-4 1.0E-4 1.0E-4 1.0E-4 1.0E-4 5.0E-5 5.0E-5 1.0E-4 1.0E-4 1.0E-4 1.0E-4 
1.0E-4 1.0E-4 1.0E-4 1.0E-4 1.0E-4 1.0E-4 1.0E-4 1.0E-4 1.0E-4 1.0E-4 1.0E-4 1.0E-4 5.0E-5 5.0E-5 5.0E-5 5.0E-5 5.0E-5 5.0E-5 1.0E-4 1.0E-4 1.0E-4 1.0E-4 1.0E-4 1.0E-4 1.0E-4 1.0E-4 1.0E-4 1.0E-4 1.0E-4 1.0E-4 1.0E-4 1.0E-4 1.0E-4 1.0E-4 1.0E-4 1.0E-4 1.0E-4 1.0E-4 1.0E-4 1.0E-4 1.0E-4 1.0E-4 1.0E-4 1.0E-4 1.0E-4 1.0E-4 1.0E-4 1.0E-4 1.0E-4 1.0E-4 1.0E-4 1.0E-4 1.0E-4 1.0E-4 5.0E-5 5.0E-5 1.0E-4 1.0E-4 1.0E-4 1.0E-4 
1.0E-4 1.0E-4 1.0E-4 1.0E-4 1.0E-4 1.0E-4 1.0E-4 1.0E-4 1.0E-4 1.0E-4 1.0E-4 1.0E-4 1.0E-4 1.0E-4 1.0E-4 1.0E-4 5.0E-5 5.0E-5 5.0E-5 5.0E-5 5.0E-5 5.0E-5 1.0E-4 1.0E-4 1.0E-4 1.0E-4 1.0E-4 1.0E-4 1.0E-4 1.0E-4 1.0E-4 1.0E-4 1.0E-4 1.0E-4 1.0E-4 1.0E-4 1.0E-4 1.0E-4 1.0E-4 1.0E-4 1.0E-4 1.0E-4 1.0E-4 1.0E-4 1.0E-4 1.0E-4 1.0E-4 1.0E-4 1.0E-4 1.0E-4 1.0E-4 1.0E-4 5.0E-5 5.0E-5 1.0E-4 1.0E-4 1.0E-4 1.0E-4 1.0E-4 1.0E-4 
1.0E-4 1.0E-4 1.0E-4 1.0E-4 1.0E-4 1.0E-4 1.0E-4 1.0E-4 1.0E-4 1.0E-4 1.0E-4 1.0E-4 1.0E-4 1.0E-4 1.0E-4 1.0E-4 5.0E-5 5.0E-5 5.0E-5 5.0E-5 5.0E-5 5.0E-5 1.0E-4 1.0E-4 1.0E-4 1.0E-4 1.0E-4 1.0E-4 1.0E-4 1.0E-4 1.0E-4 1.0E-4 1.0E-4 1.0E-4 1.0E-4 1.0E-4 1.0E-4 1.0E-4 1.0E-4 1.0E-4 1.0E-4 1.0E-4 1.0E-4 1.0E-4 1.0E-4 1.0E-4 1.0E-4 1.0E-4 1.0E-4 1.0E-4 1.0E-4 1.0E-4 5.0E-5 5.0E-5 1.0E-4 1.0E-4 1.0E-4 1.0E-4 1.0E-4 1.0E-4 
1.0E-4 1.0E-4 1.0E-4 1.0E-4 1.0E-4 1.0E-4 1.0E-4 1.0E-4 1.0E-4 1.0E-4 1.0E-4 1.0E-4 1.0E-4 1.0E-4 1.0E-4 1.0E-4 1.0E-4 1.0E-4 1.0E-4 1.0E-4 5.0E-5 5.0E-5 1.0E-4 1.0E-4 1.0E-4 1.0E-4 1.0E-4 1.0E-4 1.0E-4 1.0E-4 1.0E-4 1.0E-4 1.0E-4 1.0E-4 1.0E-4 1.0E-4 1.0E-4 1.0E-4 1.0E-4 1.0E-4 1.0E-4 1.0E-4 1.0E-4 1.0E-4 1.0E-4 1.0E-4 1.0E-4 1.0E-4 1.0E-4 1.0E-4 5.0E-5 5.0E-5 1.0E-4 1.0E-4 1.0E-4 1.0E-4 1.0E-4 1.0E-4 1.0E-4 1.0E-4 
1.0E-4 1.0E-4 1.0E-4 1.0E-4 1.0E-4 1.0E-4 1.0E-4 1.0E-4 1.0E-4 1.0E-4 1.0E-4 1.0E-4 1.0E-4 1.0E-4 1.0E-4 1.0E-4 1.0E-4 1.0E-4 1.0E-4 1.0E-4 5.0E-5 5.0E-5 1.0E-4 1.0E-4 1.0E-4 1.0E-4 1.0E-4 1.0E-4 1.0E-4 1.0E-4 1.0E-4 1.0E-4 1.0E-4 1.0E-4 1.0E-4 1.0E-4 1.0E-4 1.0E-4 1.0E-4 1.0E-4 1.0E-4 1.0E-4 1.0E-4 1.0E-4 1.0E-4 1.0E-4 1.0E-4 1.0E-4 1.0E-4 1.0E-4 5.0E-5 5.0E-5 1.0E-4 1.0E-4 1.0E-4 1.0E-4 1.0E-4 1.0E-4 1.0E-4 1.0E-4 
1.0E-4 1.0E-4 1.0E-4 1.0E-4 1.0E-4 1.0E-4 1.0E-4 1.0E-4 1.0E-4 1.0E-4 1.0E-4 1.0E-4 1.0E-4 1.0E-4 1.0E-4 1.0E-4 1.0E-4 1.0E-4 1.0E-4 1.0E-4 5.0E-5 5.0E-5 1.0E-4 1.0E-4 1.0E-4 1.0E-4 1.0E-4 1.0E-4 1.0E-4 1.0E-4 1.0E-4 1.0E-4 1.0E-4 1.0E-4 1.0E-4 1.0E-4 1.0E-4 1.0E-4 1.0E-4 1.0E-4 1.0E-4 1.0E-4 1.0E-4 1.0E-4 1.0E-4 1.0E-4 1.0E-4 1.0E-4 5.0E-5 5.0E-5 1.0E-4 1.0E-4 1.0E-4 1.0E-4 1.0E-4 1.0E-4 1.0E-4 1.0E-4 1.0E-4 1.0E-4 
1.0E-4 1.0E-4 1.0E-4 1.0E-4 1.0E-4 1.0E-4 1.0E-4 1.0E-4 1.0E-4 1.0E-4 1.0E-4 1.0E-4 1.0E-4 1.0E-4 1.0E-4 1.0E-4 1.0E-4 1.0E-4 1.0E-4 1.0E-4 5.0E-5 5.0E-5 1.0E-4 1.0E-4 1.0E-4 1.0E-4 1.0E-4 1.0E-4 1.0E-4 1.0E-4 1.0E-4 1.0E-4 1.0E-4 1.0E-4 1.0E-4 1.0E-4 1.0E-4 1.0E-4 1.0E-4 1.0E-4 1.0E-4 1.0E-4 1.0E-4 1.0E-4 1.0E-4 1.0E-4 1.0E-4 1.0E-4 5.0E-5 5.0E-5 1.0E-4 1.0E-4 1.0E-4 1.0E-4 1.0E-4 1.0E-4 1.0E-4 1.0E-4 1.0E-4 1.0E-4 
1.0E-4 1.0E-4 1.0E-4 1.0E-4 1.0E-4 1.0E-4 1.0E-4 1.0E-4 1.0E-4 1.0E-4 1.0E-4 1.0E-4 1.0E-4 1.0E-4 1.0E-4 1.0E-4 1.0E-4 1.0E-4 1.0E-4 1.0E-4 5.0E-5 5.0E-5 5.0E-5 5.0E-5 1.0E-4 1.0E-4 1.0E-4 1.0E-4 1.0E-4 1.0E-4 1.0E-4 1.0E-4 1.0E-4 1.0E-4 1.0E-4 1.0E-4 1.0E-4 1.0E-4 1.0E-4 1.0E-4 1.0E-4 1.0E-4 1.0E-4 1.0E-4 1.0E-4 1.0E-4 5.0E-5 5.0E-5 1.0E-4 1.0E-4 1.0E-4 1.0E-4 1.0E-4 1.0E-4 1.0E-4 1.0E-4 1.0E-4 1.0E-4 1.0E-4 1.0E-4 
1.0E-4 1.0E-4 1.0E-4 1.0E-4 1.0E-4 1.0E-4 1.0E-4 1.0E-4 1.0E-4 1.0E-4 1.0E-4 1.0E-4 1.0E-4 1.0E-4 1.0E-4 1.0E-4 1.0E-4 1.0E-4 1.0E-4 1.0E-4 5.0E-5 5.0E-5 5.0E-5 5.0E-5 1.0E-4 1.0E-4 1.0E-4 1.0E-4 1.0E-4 1.0E-4 1.0E-4 1.0E-4 1.0E-4 1.0E-4 1.0E-4 1.0E-4 1.0E-4 1.0E-4 1.0E-4 1.0E-4 1.0E-4 1.0E-4 1.0E-4 1.0E-4 1.0E-4 1.0E-4 5.0E-5 5.0E-5 1.0E-4 1.0E-4 1.0E-4 1.0E-4 1.0E-4 1.0E-4 1.0E-4 1.0E-4 1.0E-4 1.0E-4 1.0E-4 1.0E-4 
1.0E-4 1.0E-4 1.0E-4 1.0E-4 1.0E-4 1.0E-4 1.0E-4 1.0E-4 1.0E-4 1.0E-4 1.0E-4 1.0E-4 1.0E-4 1.0E-4 1.0E-4 1.0E-4 1.0E-4 1.0E-4 1.0E-4 1.0E-4 1.0E-4 1.0E-4 1.0E-4 1.0E-4 5.0E-5 5.0E-5 5.0E-5 5.0E-5 1.0E-4 1.0E-4 1.0E-4 1.0E-4 1.0E-4 1.0E-4 1.0E-4 1.0E-4 1.0E-4 1.0E-4 1.0E-4 1.0E-4 1.0E-4 1.0E-4 1.0E-4 1.0E-4 5.0E-5 5.0E-5 5.0E-5 5.0E-5 1.0E-4 1.0E-4 1.0E-4 1.0E-4 1.0E-4 1.0E-4 1.0E-4 1.0E-4 1.0E-4 1.0E-4 1.0E-4 1.0E-4 
1.0E-4 1.0E-4 1.0E-4 1.0E-4 1.0E-4 1.0E-4 1.0E-4 1.0E-4 1.0E-4 1.0E-4 1.0E-4 1.0E-4 1.0E-4 1.0E-4 1.0E-4 1.0E-4 1.0E-4 1.0E-4 1.0E-4 1.0E-4 1.0E-4 1.0E-4 1.0E-4 1.0E-4 5.0E-5 5.0E-5 5.0E-5 5.0E-5 1.0E-4 1.0E-4 1.0E-4 1.0E-4 1.0E-4 1.0E-4 1.0E-4 1.0E-4 1.0E-4 1.0E-4 1.0E-4 1.0E-4 1.0E-4 1.0E-4 1.0E-4 1.0E-4 5.0E-5 5.0E-5 5.0E-5 5.0E-5 1.0E-4 1.0E-4 1.0E-4 1.0E-4 1.0E-4 1.0E-4 1.0E-4 1.0E-4 1.0E-4 1.0E-4 1.0E-4 1.0E-4 
1.0E-4 1.0E-4 1.0E-4 1.0E-4 1.0E-4 1.0E-4 1.0E-4 1.0E-4 1.0E-4 1.0E-4 1.0E-4 1.0E-4 1.0E-4 1.0E-4 1.0E-4 1.0E-4 1.0E-4 1.0E-4 1.0E-4 1.0E-4 1.0E-4 1.0E-4 1.0E-4 1.0E-4 1.0E-4 1.0E-4 1.0E-4 1.0E-4 5.0E-5 5.0E-5 5.0E-5 5.0E-5 1.0E-4 1.0E-4 1.0E-4 1.0E-4 1.0E-4 1.0E-4 1.0E-4 1.0E-4 1.0E-4 1.0E-4 1.0E-4 1.0E-4 5.0E-5 5.0E-5 1.0E-4 1.0E-4 1.0E-4 1.0E-4 1.0E-4 1.0E-4 1.0E-4 1.0E-4 1.0E-4 1.0E-4 1.0E-4 1.0E-4 1.0E-4 1.0E-4 
1.0E-4 1.0E-4 1.0E-4 1.0E-4 1.0E-4 1.0E-4 1.0E-4 1.0E-4 1.0E-4 1.0E-4 1.0E-4 1.0E-4 1.0E-4 1.0E-4 1.0E-4 1.0E-4 1.0E-4 1.0E-4 1.0E-4 1.0E-4 1.0E-4 1.0E-4 1.0E-4 1.0E-4 1.0E-4 1.0E-4 1.0E-4 1.0E-4 5.0E-5 5.0E-5 5.0E-5 5.0E-5 1.0E-4 1.0E-4 1.0E-4 1.0E-4 1.0E-4 1.0E-4 1.0E-4 1.0E-4 1.0E-4 1.0E-4 1.0E-4 1.0E-4 5.0E-5 5.0E-5 1.0E-4 1.0E-4 1.0E-4 1.0E-4 1.0E-4 1.0E-4 1.0E-4 1.0E-4 1.0E-4 1.0E-4 1.0E-4 1.0E-4 1.0E-4 1.0E-4 
1.0E-4 1.0E-4 1.0E-4 1.0E-4 1.0E-4 1.0E-4 1.0E-4 1.0E-4 1.0E-4 1.0E-4 1.0E-4 1.0E-4 1.0E-4 1.0E-4 1.0E-4 1.0E-4 1.0E-4 1.0E-4 1.0E-4 1.0E-4 1.0E-4 1.0E-4 1.0E-4 1.0E-4 1.0E-4 1.0E-4 1.0E-4 1.0E-4 5.0E-5 5.0E-5 5.0E-5 5.0E-5 5.0E-5 5.0E-5 5.0E-5 5.0E-5 1.0E-4 1.0E-4 1.0E-4 1.0E-4 1.0E-4 1.0E-4 5.0E-5 5.0E-5 1.0E-4 1.0E-4 1.0E-4 1.0E-4 1.0E-4 1.0E-4 1.0E-4 1.0E-4 1.0E-4 1.0E-4 1.0E-4 1.0E-4 1.0E-4 1.0E-4 1.0E-4 1.0E-4 
1.0E-4 1.0E-4 1.0E-4 1.0E-4 1.0E-4 1.0E-4 1.0E-4 1.0E-4 1.0E-4 1.0E-4 1.0E-4 1.0E-4 1.0E-4 1.0E-4 1.0E-4 1.0E-4 1.0E-4 1.0E-4 1.0E-4 1.0E-4 1.0E-4 1.0E-4 1.0E-4 1.0E-4 1.0E-4 1.0E-4 1.0E-4 1.0E-4 5.0E-5 5.0E-5 5.0E-5 5.0E-5 5.0E-5 5.0E-5 5.0E-5 5.0E-5 1.0E-4 1.0E-4 1.0E-4 1.0E-4 1.0E-4 1.0E-4 5.0E-5 5.0E-5 1.0E-4 1.0E-4 1.0E-4 1.0E-4 1.0E-4 1.0E-4 1.0E-4 1.0E-4 1.0E-4 1.0E-4 1.0E-4 1.0E-4 1.0E-4 1.0E-4 1.0E-4 1.0E-4 
1.0E-4 1.0E-4 1.0E-4 1.0E-4 1.0E-4 1.0E-4 1.0E-4 1.0E-4 1.0E-4 1.0E-4 1.0E-4 1.0E-4 1.0E-4 1.0E-4 1.0E-4 1.0E-4 1.0E-4 1.0E-4 1.0E-4 1.0E-4 1.0E-4 1.0E-4 1.0E-4 1.0E-4 1.0E-4 1.0E-4 5.0E-5 5.0E-5 5.0E-5 5.0E-5 1.0E-4 1.0E-4 1.0E-4 1.0E-4 1.0E-4 1.0E-4 1.0E-4 1.0E-4 1.0E-4 1.0E-4 5.0E-5 5.0E-5 1.0E-4 1.0E-4 1.0E-4 1.0E-4 1.0E-4 1.0E-4 1.0E-4 1.0E-4 1.0E-4 1.0E-4 1.0E-4 1.0E-4 1.0E-4 1.0E-4 1.0E-4 1.0E-4 1.0E-4 1.0E-4 
1.0E-4 1.0E-4 1.0E-4 1.0E-4 1.0E-4 1.0E-4 1.0E-4 1.0E-4 1.0E-4 1.0E-4 1.0E-4 1.0E-4 1.0E-4 1.0E-4 1.0E-4 1.0E-4 1.0E-4 1.0E-4 1.0E-4 1.0E-4 1.0E-4 1.0E-4 1.0E-4 1.0E-4 1.0E-4 1.0E-4 5.0E-5 5.0E-5 5.0E-5 5.0E-5 1.0E-4 1.0E-4 1.0E-4 1.0E-4 1.0E-4 1.0E-4 1.0E-4 1.0E-4 1.0E-4 1.0E-4 5.0E-5 5.0E-5 1.0E-4 1.0E-4 1.0E-4 1.0E-4 1.0E-4 1.0E-4 1.0E-4 1.0E-4 1.0E-4 1.0E-4 1.0E-4 1.0E-4 1.0E-4 1.0E-4 1.0E-4 1.0E-4 1.0E-4 1.0E-4 
1.0E-4 1.0E-4 1.0E-4 1.0E-4 1.0E-4 1.0E-4 1.0E-4 1.0E-4 1.0E-4 1.0E-4 1.0E-4 1.0E-4 1.0E-4 1.0E-4 1.0E-4 1.0E-4 1.0E-4 1.0E-4 1.0E-4 1.0E-4 1.0E-4 1.0E-4 1.0E-4 1.0E-4 5.0E-5 5.0E-5 5.0E-5 5.0E-5 1.0E-4 1.0E-4 1.0E-4 1.0E-4 1.0E-4 1.0E-4 1.0E-4 1.0E-4 1.0E-4 1.0E-4 5.0E-5 5.0E-5 1.0E-4 1.0E-4 1.0E-4 1.0E-4 1.0E-4 1.0E-4 1.0E-4 1.0E-4 1.0E-4 1.0E-4 1.0E-4 1.0E-4 1.0E-4 1.0E-4 1.0E-4 1.0E-4 1.0E-4 1.0E-4 1.0E-4 1.0E-4 
1.0E-4 1.0E-4 1.0E-4 1.0E-4 1.0E-4 1.0E-4 1.0E-4 1.0E-4 1.0E-4 1.0E-4 1.0E-4 1.0E-4 1.0E-4 1.0E-4 1.0E-4 1.0E-4 1.0E-4 1.0E-4 1.0E-4 1.0E-4 1.0E-4 1.0E-4 1.0E-4 1.0E-4 5.0E-5 5.0E-5 5.0E-5 5.0E-5 1.0E-4 1.0E-4 1.0E-4 1.0E-4 1.0E-4 1.0E-4 1.0E-4 1.0E-4 1.0E-4 1.0E-4 5.0E-5 5.0E-5 1.0E-4 1.0E-4 1.0E-4 1.0E-4 1.0E-4 1.0E-4 1.0E-4 1.0E-4 1.0E-4 1.0E-4 1.0E-4 1.0E-4 1.0E-4 1.0E-4 1.0E-4 1.0E-4 1.0E-4 1.0E-4 1.0E-4 1.0E-4 
1.0E-4 1.0E-4 1.0E-4 1.0E-4 1.0E-4 1.0E-4 1.0E-4 1.0E-4 1.0E-4 1.0E-4 1.0E-4 1.0E-4 1.0E-4 1.0E-4 1.0E-4 1.0E-4 1.0E-4 1.0E-4 1.0E-4 1.0E-4 1.0E-4 1.0E-4 5.0E-5 5.0E-5 5.0E-5 5.0E-5 1.0E-4 1.0E-4 1.0E-4 1.0E-4 1.0E-4 1.0E-4 1.0E-4 1.0E-4 1.0E-4 1.0E-4 5.0E-5 5.0E-5 5.0E-5 5.0E-5 1.0E-4 1.0E-4 1.0E-4 1.0E-4 1.0E-4 1.0E-4 1.0E-4 1.0E-4 1.0E-4 1.0E-4 1.0E-4 1.0E-4 1.0E-4 1.0E-4 1.0E-4 1.0E-4 1.0E-4 1.0E-4 1.0E-4 1.0E-4 
1.0E-4 1.0E-4 1.0E-4 1.0E-4 1.0E-4 1.0E-4 1.0E-4 1.0E-4 1.0E-4 1.0E-4 1.0E-4 1.0E-4 1.0E-4 1.0E-4 1.0E-4 1.0E-4 1.0E-4 1.0E-4 1.0E-4 1.0E-4 1.0E-4 1.0E-4 5.0E-5 5.0E-5 5.0E-5 5.0E-5 1.0E-4 1.0E-4 1.0E-4 1.0E-4 1.0E-4 1.0E-4 1.0E-4 1.0E-4 1.0E-4 1.0E-4 5.0E-5 5.0E-5 5.0E-5 5.0E-5 1.0E-4 1.0E-4 1.0E-4 1.0E-4 1.0E-4 1.0E-4 1.0E-4 1.0E-4 1.0E-4 1.0E-4 1.0E-4 1.0E-4 1.0E-4 1.0E-4 1.0E-4 1.0E-4 1.0E-4 1.0E-4 1.0E-4 1.0E-4 
1.0E-4 1.0E-4 1.0E-4 1.0E-4 1.0E-4 1.0E-4 1.0E-4 1.0E-4 1.0E-4 1.0E-4 1.0E-4 1.0E-4 1.0E-4 1.0E-4 1.0E-4 1.0E-4 1.0E-4 1.0E-4 1.0E-4 1.0E-4 5.0E-5 5.0E-5 5.0E-5 5.0E-5 1.0E-4 1.0E-4 1.0E-4 1.0E-4 1.0E-4 1.0E-4 1.0E-4 1.0E-4 1.0E-4 1.0E-4 1.0E-4 1.0E-4 5.0E-5 5.0E-5 1.0E-4 1.0E-4 1.0E-4 1.0E-4 1.0E-4 1.0E-4 1.0E-4 1.0E-4 1.0E-4 1.0E-4 1.0E-4 1.0E-4 1.0E-4 1.0E-4 1.0E-4 1.0E-4 1.0E-4 1.0E-4 1.0E-4 1.0E-4 1.0E-4 1.0E-4 
1.0E-4 1.0E-4 1.0E-4 1.0E-4 1.0E-4 1.0E-4 1.0E-4 1.0E-4 1.0E-4 1.0E-4 1.0E-4 1.0E-4 1.0E-4 1.0E-4 1.0E-4 1.0E-4 1.0E-4 1.0E-4 1.0E-4 1.0E-4 5.0E-5 5.0E-5 5.0E-5 5.0E-5 1.0E-4 1.0E-4 1.0E-4 1.0E-4 1.0E-4 1.0E-4 1.0E-4 1.0E-4 1.0E-4 1.0E-4 1.0E-4 1.0E-4 5.0E-5 5.0E-5 1.0E-4 1.0E-4 1.0E-4 1.0E-4 1.0E-4 1.0E-4 1.0E-4 1.0E-4 1.0E-4 1.0E-4 1.0E-4 1.0E-4 1.0E-4 1.0E-4 1.0E-4 1.0E-4 1.0E-4 1.0E-4 1.0E-4 1.0E-4 1.0E-4 1.0E-4 
1.0E-4 1.0E-4 1.0E-4 1.0E-4 1.0E-4 1.0E-4 1.0E-4 1.0E-4 1.0E-4 1.0E-4 1.0E-4 1.0E-4 1.0E-4 1.0E-4 1.0E-4 1.0E-4 1.0E-4 1.0E-4 5.0E-5 5.0E-5 5.0E-5 5.0E-5 1.0E-4 1.0E-4 1.0E-4 1.0E-4 1.0E-4 1.0E-4 1.0E-4 1.0E-4 1.0E-4 1.0E-4 1.0E-4 1.0E-4 5.0E-5 5.0E-5 1.0E-4 1.0E-4 1.0E-4 1.0E-4 1.0E-4 1.0E-4 1.0E-4 1.0E-4 1.0E-4 1.0E-4 1.0E-4 1.0E-4 1.0E-4 1.0E-4 1.0E-4 1.0E-4 1.0E-4 1.0E-4 1.0E-4 1.0E-4 1.0E-4 1.0E-4 1.0E-4 1.0E-4 
1.0E-4 1.0E-4 1.0E-4 1.0E-4 1.0E-4 1.0E-4 1.0E-4 1.0E-4 1.0E-4 1.0E-4 1.0E-4 1.0E-4 1.0E-4 1.0E-4 1.0E-4 1.0E-4 1.0E-4 1.0E-4 5.0E-5 5.0E-5 5.0E-5 5.0E-5 1.0E-4 1.0E-4 1.0E-4 1.0E-4 1.0E-4 1.0E-4 1.0E-4 1.0E-4 1.0E-4 1.0E-4 1.0E-4 1.0E-4 5.0E-5 5.0E-5 1.0E-4 1.0E-4 1.0E-4 1.0E-4 1.0E-4 1.0E-4 1.0E-4 1.0E-4 1.0E-4 1.0E-4 1.0E-4 1.0E-4 1.0E-4 1.0E-4 1.0E-4 1.0E-4 1.0E-4 1.0E-4 1.0E-4 1.0E-4 1.0E-4 1.0E-4 1.0E-4 1.0E-4 
1.0E-4 1.0E-4 1.0E-4 1.0E-4 1.0E-4 1.0E-4 1.0E-4 1.0E-4 1.0E-4 1.0E-4 1.0E-4 1.0E-4 1.0E-4 1.0E-4 1.0E-4 1.0E-4 5.0E-5 5.0E-5 1.0E-4 1.0E-4 1.0E-4 1.0E-4 1.0E-4 1.0E-4 1.0E-4 1.0E-4 1.0E-4 1.0E-4 1.0E-4 1.0E-4 1.0E-4 1.0E-4 5.0E-5 5.0E-5 1.0E-4 1.0E-4 1.0E-4 1.0E-4 1.0E-4 1.0E-4 1.0E-4 1.0E-4 1.0E-4 1.0E-4 1.0E-4 1.0E-4 1.0E-4 1.0E-4 1.0E-4 1.0E-4 1.0E-4 1.0E-4 1.0E-4 1.0E-4 1.0E-4 1.0E-4 1.0E-4 1.0E-4 1.0E-4 1.0E-4 
1.0E-4 1.0E-4 1.0E-4 1.0E-4 1.0E-4 1.0E-4 1.0E-4 1.0E-4 1.0E-4 1.0E-4 1.0E-4 1.0E-4 1.0E-4 1.0E-4 1.0E-4 1.0E-4 5.0E-5 5.0E-5 1.0E-4 1.0E-4 1.0E-4 1.0E-4 1.0E-4 1.0E-4 1.0E-4 1.0E-4 1.0E-4 1.0E-4 1.0E-4 1.0E-4 1.0E-4 1.0E-4 5.0E-5 5.0E-5 1.0E-4 1.0E-4 1.0E-4 1.0E-4 1.0E-4 1.0E-4 1.0E-4 1.0E-4 1.0E-4 1.0E-4 1.0E-4 1.0E-4 1.0E-4 1.0E-4 1.0E-4 1.0E-4 1.0E-4 1.0E-4 1.0E-4 1.0E-4 1.0E-4 1.0E-4 1.0E-4 1.0E-4 1.0E-4 1.0E-4 
1.0E-4 1.0E-4 1.0E-4 1.0E-4 1.0E-4 1.0E-4 1.0E-4 1.0E-4 1.0E-4 1.0E-4 1.0E-4 1.0E-4 1.0E-4 1.0E-4 5.0E-5 5.0E-5 1.0E-4 1.0E-4 1.0E-4 1.0E-4 1.0E-4 1.0E-4 1.0E-4 1.0E-4 1.0E-4 1.0E-4 1.0E-4 1.0E-4 1.0E-4 1.0E-4 5.0E-5 5.0E-5 5.0E-5 5.0E-5 1.0E-4 1.0E-4 1.0E-4 1.0E-4 1.0E-4 1.0E-4 1.0E-4 1.0E-4 1.0E-4 1.0E-4 1.0E-4 1.0E-4 1.0E-4 1.0E-4 1.0E-4 1.0E-4 1.0E-4 1.0E-4 1.0E-4 1.0E-4 1.0E-4 1.0E-4 1.0E-4 1.0E-4 1.0E-4 1.0E-4 
1.0E-4 1.0E-4 1.0E-4 1.0E-4 1.0E-4 1.0E-4 1.0E-4 1.0E-4 1.0E-4 1.0E-4 1.0E-4 1.0E-4 1.0E-4 1.0E-4 5.0E-5 5.0E-5 1.0E-4 1.0E-4 1.0E-4 1.0E-4 1.0E-4 1.0E-4 1.0E-4 1.0E-4 1.0E-4 1.0E-4 1.0E-4 1.0E-4 1.0E-4 1.0E-4 5.0E-5 5.0E-5 5.0E-5 5.0E-5 1.0E-4 1.0E-4 1.0E-4 1.0E-4 1.0E-4 1.0E-4 1.0E-4 1.0E-4 1.0E-4 1.0E-4 1.0E-4 1.0E-4 1.0E-4 1.0E-4 1.0E-4 1.0E-4 1.0E-4 1.0E-4 1.0E-4 1.0E-4 1.0E-4 1.0E-4 1.0E-4 1.0E-4 1.0E-4 1.0E-4 
1.0E-4 1.0E-4 1.0E-4 1.0E-4 1.0E-4 1.0E-4 1.0E-4 1.0E-4 1.0E-4 1.0E-4 1.0E-4 1.0E-4 5.0E-5 5.0E-5 1.0E-4 1.0E-4 1.0E-4 1.0E-4 1.0E-4 1.0E-4 1.0E-4 1.0E-4 1.0E-4 1.0E-4 1.0E-4 1.0E-4 1.0E-4 1.0E-4 1.0E-4 1.0E-4 5.0E-5 5.0E-5 1.0E-4 1.0E-4 1.0E-4 1.0E-4 1.0E-4 1.0E-4 1.0E-4 1.0E-4 1.0E-4 1.0E-4 1.0E-4 1.0E-4 1.0E-4 1.0E-4 1.0E-4 1.0E-4 1.0E-4 1.0E-4 1.0E-4 1.0E-4 1.0E-4 1.0E-4 1.0E-4 1.0E-4 1.0E-4 1.0E-4 1.0E-4 1.0E-4 
1.0E-4 1.0E-4 1.0E-4 1.0E-4 1.0E-4 1.0E-4 1.0E-4 1.0E-4 1.0E-4 1.0E-4 1.0E-4 1.0E-4 5.0E-5 5.0E-5 1.0E-4 1.0E-4 1.0E-4 1.0E-4 1.0E-4 1.0E-4 1.0E-4 1.0E-4 1.0E-4 1.0E-4 1.0E-4 1.0E-4 1.0E-4 1.0E-4 1.0E-4 1.0E-4 5.0E-5 5.0E-5 1.0E-4 1.0E-4 1.0E-4 1.0E-4 1.0E-4 1.0E-4 1.0E-4 1.0E-4 1.0E-4 1.0E-4 1.0E-4 1.0E-4 1.0E-4 1.0E-4 1.0E-4 1.0E-4 1.0E-4 1.0E-4 1.0E-4 1.0E-4 1.0E-4 1.0E-4 1.0E-4 1.0E-4 1.0E-4 1.0E-4 1.0E-4 1.0E-4 
1.0E-4 1.0E-4 1.0E-4 1.0E-4 1.0E-4 1.0E-4 1.0E-4 1.0E-4 1.0E-4 1.0E-4 5.0E-5 5.0E-5 1.0E-4 1.0E-4 1.0E-4 1.0E-4 1.0E-4 1.0E-4 1.0E-4 1.0E-4 1.0E-4 1.0E-4 1.0E-4 1.0E-4 1.0E-4 1.0E-4 1.0E-4 1.0E-4 5.0E-5 5.0E-5 1.0E-4 1.0E-4 1.0E-4 1.0E-4 1.0E-4 1.0E-4 1.0E-4 1.0E-4 1.0E-4 1.0E-4 1.0E-4 1.0E-4 1.0E-4 1.0E-4 1.0E-4 1.0E-4 1.0E-4 1.0E-4 1.0E-4 1.0E-4 1.0E-4 1.0E-4 1.0E-4 1.0E-4 1.0E-4 1.0E-4 1.0E-4 1.0E-4 1.0E-4 1.0E-4 
1.0E-4 1.0E-4 1.0E-4 1.0E-4 1.0E-4 1.0E-4 1.0E-4 1.0E-4 1.0E-4 1.0E-4 5.0E-5 5.0E-5 1.0E-4 1.0E-4 1.0E-4 1.0E-4 1.0E-4 1.0E-4 1.0E-4 1.0E-4 1.0E-4 1.0E-4 1.0E-4 1.0E-4 1.0E-4 1.0E-4 1.0E-4 1.0E-4 5.0E-5 5.0E-5 1.0E-4 1.0E-4 1.0E-4 1.0E-4 1.0E-4 1.0E-4 1.0E-4 1.0E-4 1.0E-4 1.0E-4 1.0E-4 1.0E-4 1.0E-4 1.0E-4 1.0E-4 1.0E-4 1.0E-4 1.0E-4 1.0E-4 1.0E-4 1.0E-4 1.0E-4 1.0E-4 1.0E-4 1.0E-4 1.0E-4 1.0E-4 1.0E-4 1.0E-4 1.0E-4 
1.0E-4 1.0E-4 1.0E-4 1.0E-4 1.0E-4 1.0E-4 1.0E-4 1.0E-4 5.0E-5 5.0E-5 1.0E-4 1.0E-4 1.0E-4 1.0E-4 1.0E-4 1.0E-4 1.0E-4 1.0E-4 1.0E-4 1.0E-4 1.0E-4 1.0E-4 1.0E-4 1.0E-4 1.0E-4 1.0E-4 5.0E-5 5.0E-5 1.0E-4 1.0E-4 1.0E-4 1.0E-4 1.0E-4 1.0E-4 1.0E-4 1.0E-4 1.0E-4 1.0E-4 1.0E-4 1.0E-4 1.0E-4 1.0E-4 1.0E-4 1.0E-4 1.0E-4 1.0E-4 1.0E-4 1.0E-4 1.0E-4 1.0E-4 1.0E-4 1.0E-4 1.0E-4 1.0E-4 1.0E-4 1.0E-4 1.0E-4 1.0E-4 1.0E-4 1.0E-4 
1.0E-4 1.0E-4 1.0E-4 1.0E-4 1.0E-4 1.0E-4 1.0E-4 1.0E-4 5.0E-5 5.0E-5 1.0E-4 1.0E-4 1.0E-4 1.0E-4 1.0E-4 1.0E-4 1.0E-4 1.0E-4 1.0E-4 1.0E-4 1.0E-4 1.0E-4 1.0E-4 1.0E-4 1.0E-4 1.0E-4 5.0E-5 5.0E-5 1.0E-4 1.0E-4 1.0E-4 1.0E-4 1.0E-4 1.0E-4 1.0E-4 1.0E-4 1.0E-4 1.0E-4 1.0E-4 1.0E-4 1.0E-4 1.0E-4 1.0E-4 1.0E-4 1.0E-4 1.0E-4 1.0E-4 1.0E-4 1.0E-4 1.0E-4 1.0E-4 1.0E-4 1.0E-4 1.0E-4 1.0E-4 1.0E-4 1.0E-4 1.0E-4 1.0E-4 1.0E-4 
5.0E-5 5.0E-5 5.0E-5 5.0E-5 5.0E-5 5.0E-5 5.0E-5 5.0E-5 1.0E-4 1.0E-4 1.0E-4 1.0E-4 1.0E-4 1.0E-4 1.0E-4 1.0E-4 1.0E-4 1.0E-4 1.0E-4 1.0E-4 1.0E-4 1.0E-4 1.0E-4 1.0E-4 5.0E-5 5.0E-5 5.0E-5 5.0E-5 1.0E-4 1.0E-4 1.0E-4 1.0E-4 1.0E-4 1.0E-4 1.0E-4 1.0E-4 1.0E-4 1.0E-4 1.0E-4 1.0E-4 1.0E-4 1.0E-4 1.0E-4 1.0E-4 1.0E-4 1.0E-4 1.0E-4 1.0E-4 1.0E-4 1.0E-4 1.0E-4 1.0E-4 1.0E-4 1.0E-4 1.0E-4 1.0E-4 1.0E-4 1.0E-4 1.0E-4 1.0E-4 
5.0E-5 5.0E-5 5.0E-5 5.0E-5 5.0E-5 5.0E-5 5.0E-5 5.0E-5 1.0E-4 1.0E-4 1.0E-4 1.0E-4 1.0E-4 1.0E-4 1.0E-4 1.0E-4 1.0E-4 1.0E-4 1.0E-4 1.0E-4 1.0E-4 1.0E-4 1.0E-4 1.0E-4 5.0E-5 5.0E-5 5.0E-5 5.0E-5 1.0E-4 1.0E-4 1.0E-4 1.0E-4 1.0E-4 1.0E-4 1.0E-4 1.0E-4 1.0E-4 1.0E-4 1.0E-4 1.0E-4 1.0E-4 1.0E-4 1.0E-4 1.0E-4 1.0E-4 1.0E-4 1.0E-4 1.0E-4 1.0E-4 1.0E-4 1.0E-4 1.0E-4 1.0E-4 1.0E-4 1.0E-4 1.0E-4 1.0E-4 1.0E-4 1.0E-4 1.0E-4 
1.0E-4 1.0E-4 5.0E-5 5.0E-5 5.0E-5 5.0E-5 1.0E-4 1.0E-4 1.0E-4 1.0E-4 1.0E-4 1.0E-4 1.0E-4 1.0E-4 1.0E-4 1.0E-4 1.0E-4 1.0E-4 1.0E-4 1.0E-4 1.0E-4 1.0E-4 1.0E-4 1.0E-4 5.0E-5 5.0E-5 1.0E-4 1.0E-4 1.0E-4 1.0E-4 1.0E-4 1.0E-4 1.0E-4 1.0E-4 1.0E-4 1.0E-4 1.0E-4 1.0E-4 1.0E-4 1.0E-4 1.0E-4 1.0E-4 1.0E-4 1.0E-4 1.0E-4 1.0E-4 1.0E-4 1.0E-4 1.0E-4 1.0E-4 1.0E-4 1.0E-4 1.0E-4 1.0E-4 1.0E-4 1.0E-4 1.0E-4 1.0E-4 1.0E-4 1.0E-4 
1.0E-4 1.0E-4 5.0E-5 5.0E-5 5.0E-5 5.0E-5 1.0E-4 1.0E-4 1.0E-4 1.0E-4 1.0E-4 1.0E-4 1.0E-4 1.0E-4 1.0E-4 1.0E-4 1.0E-4 1.0E-4 1.0E-4 1.0E-4 1.0E-4 1.0E-4 1.0E-4 1.0E-4 5.0E-5 5.0E-5 1.0E-4 1.0E-4 1.0E-4 1.0E-4 1.0E-4 1.0E-4 1.0E-4 1.0E-4 1.0E-4 1.0E-4 1.0E-4 1.0E-4 1.0E-4 1.0E-4 1.0E-4 1.0E-4 1.0E-4 1.0E-4 1.0E-4 1.0E-4 1.0E-4 1.0E-4 1.0E-4 1.0E-4 1.0E-4 1.0E-4 1.0E-4 1.0E-4 1.0E-4 1.0E-4 1.0E-4 1.0E-4 1.0E-4 1.0E-4 
5.0E-5 5.0E-5 5.0E-5 5.0E-5 1.0E-4 1.0E-4 1.0E-4 1.0E-4 1.0E-4 1.0E-4 1.0E-4 1.0E-4 1.0E-4 1.0E-4 1.0E-4 1.0E-4 1.0E-4 1.0E-4 1.0E-4 1.0E-4 1.0E-4 1.0E-4 5.0E-5 5.0E-5 1.0E-4 1.0E-4 1.0E-4 1.0E-4 1.0E-4 1.0E-4 1.0E-4 1.0E-4 1.0E-4 1.0E-4 1.0E-4 1.0E-4 1.0E-4 1.0E-4 1.0E-4 1.0E-4 1.0E-4 1.0E-4 1.0E-4 1.0E-4 1.0E-4 1.0E-4 1.0E-4 1.0E-4 1.0E-4 1.0E-4 1.0E-4 1.0E-4 1.0E-4 1.0E-4 1.0E-4 1.0E-4 1.0E-4 1.0E-4 1.0E-4 1.0E-4 
5.0E-5 5.0E-5 5.0E-5 5.0E-5 1.0E-4 1.0E-4 1.0E-4 1.0E-4 1.0E-4 1.0E-4 1.0E-4 1.0E-4 1.0E-4 1.0E-4 1.0E-4 1.0E-4 1.0E-4 1.0E-4 1.0E-4 1.0E-4 1.0E-4 1.0E-4 5.0E-5 5.0E-5 1.0E-4 1.0E-4 1.0E-4 1.0E-4 1.0E-4 1.0E-4 1.0E-4 1.0E-4 1.0E-4 1.0E-4 1.0E-4 1.0E-4 1.0E-4 1.0E-4 1.0E-4 1.0E-4 1.0E-4 1.0E-4 1.0E-4 1.0E-4 1.0E-4 1.0E-4 1.0E-4 1.0E-4 1.0E-4 1.0E-4 1.0E-4 1.0E-4 1.0E-4 1.0E-4 1.0E-4 1.0E-4 1.0E-4 1.0E-4 1.0E-4 1.0E-4 
5.0E-5 5.0E-5 1.0E-4 1.0E-4 1.0E-4 1.0E-4 1.0E-4 1.0E-4 1.0E-4 1.0E-4 1.0E-4 1.0E-4 1.0E-4 1.0E-4 1.0E-4 1.0E-4 1.0E-4 1.0E-4 1.0E-4 1.0E-4 5.0E-5 5.0E-5 1.0E-4 1.0E-4 1.0E-4 1.0E-4 1.0E-4 1.0E-4 1.0E-4 1.0E-4 1.0E-4 1.0E-4 1.0E-4 1.0E-4 1.0E-4 1.0E-4 1.0E-4 1.0E-4 1.0E-4 1.0E-4 1.0E-4 1.0E-4 1.0E-4 1.0E-4 1.0E-4 1.0E-4 1.0E-4 1.0E-4 1.0E-4 1.0E-4 1.0E-4 1.0E-4 1.0E-4 1.0E-4 1.0E-4 1.0E-4 1.0E-4 1.0E-4 1.0E-4 1.0E-4 
5.0E-5 5.0E-5 1.0E-4 1.0E-4 1.0E-4 1.0E-4 1.0E-4 1.0E-4 1.0E-4 1.0E-4 1.0E-4 1.0E-4 1.0E-4 1.0E-4 1.0E-4 1.0E-4 1.0E-4 1.0E-4 1.0E-4 1.0E-4 5.0E-5 5.0E-5 1.0E-4 1.0E-4 1.0E-4 1.0E-4 1.0E-4 1.0E-4 1.0E-4 1.0E-4 1.0E-4 1.0E-4 1.0E-4 1.0E-4 1.0E-4 1.0E-4 1.0E-4 1.0E-4 1.0E-4 1.0E-4 1.0E-4 1.0E-4 1.0E-4 1.0E-4 1.0E-4 1.0E-4 1.0E-4 1.0E-4 1.0E-4 1.0E-4 1.0E-4 1.0E-4 1.0E-4 1.0E-4 1.0E-4 1.0E-4 1.0E-4 1.0E-4 1.0E-4 1.0E-4 
1.0E-4 1.0E-4 1.0E-4 1.0E-4 1.0E-4 1.0E-4 1.0E-4 1.0E-4 1.0E-4 1.0E-4 1.0E-4 1.0E-4 1.0E-4 1.0E-4 1.0E-4 1.0E-4 1.0E-4 1.0E-4 5.0E-5 5.0E-5 5.0E-5 5.0E-5 1.0E-4 1.0E-4 1.0E-4 1.0E-4 1.0E-4 1.0E-4 1.0E-4 1.0E-4 1.0E-4 1.0E-4 1.0E-4 1.0E-4 1.0E-4 1.0E-4 1.0E-4 1.0E-4 1.0E-4 1.0E-4 1.0E-4 1.0E-4 1.0E-4 1.0E-4 1.0E-4 1.0E-4 1.0E-4 1.0E-4 1.0E-4 1.0E-4 1.0E-4 1.0E-4 1.0E-4 1.0E-4 1.0E-4 1.0E-4 1.0E-4 1.0E-4 1.0E-4 1.0E-4 
1.0E-4 1.0E-4 1.0E-4 1.0E-4 1.0E-4 1.0E-4 1.0E-4 1.0E-4 1.0E-4 1.0E-4 1.0E-4 1.0E-4 1.0E-4 1.0E-4 1.0E-4 1.0E-4 1.0E-4 1.0E-4 5.0E-5 5.0E-5 5.0E-5 5.0E-5 1.0E-4 1.0E-4 1.0E-4 1.0E-4 1.0E-4 1.0E-4 1.0E-4 1.0E-4 1.0E-4 1.0E-4 1.0E-4 1.0E-4 1.0E-4 1.0E-4 1.0E-4 1.0E-4 1.0E-4 1.0E-4 1.0E-4 1.0E-4 1.0E-4 1.0E-4 1.0E-4 1.0E-4 1.0E-4 1.0E-4 1.0E-4 1.0E-4 1.0E-4 1.0E-4 1.0E-4 1.0E-4 1.0E-4 1.0E-4 1.0E-4 1.0E-4 1.0E-4 1.0E-4 
1.0E-4 1.0E-4 1.0E-4 1.0E-4 1.0E-4 1.0E-4 1.0E-4 1.0E-4 1.0E-4 1.0E-4 1.0E-4 1.0E-4 1.0E-4 1.0E-4 1.0E-4 1.0E-4 5.0E-5 5.0E-5 5.0E-5 5.0E-5 1.0E-4 1.0E-4 1.0E-4 1.0E-4 1.0E-4 1.0E-4 1.0E-4 1.0E-4 1.0E-4 1.0E-4 1.0E-4 1.0E-4 1.0E-4 1.0E-4 1.0E-4 1.0E-4 1.0E-4 1.0E-4 1.0E-4 1.0E-4 1.0E-4 1.0E-4 1.0E-4 1.0E-4 1.0E-4 1.0E-4 1.0E-4 1.0E-4 1.0E-4 1.0E-4 1.0E-4 1.0E-4 1.0E-4 1.0E-4 1.0E-4 1.0E-4 1.0E-4 1.0E-4 1.0E-4 4.0E-4